(G-CODE GENERATED BY FLATCAM v8.994 - www.flatcam.org - Version Date: 2020/11/7)

(Name: button_pcb_kicad-F_Cu.gbr_iso_combined_cnc)
(Type: G-code from Geometry)
(Units: MM)

(Created on Saturday, 28 January 2023 at 19:30)

(Specially modified by mattwach to work with the Sainsmart 3080 that I have.)

(TOOL DIAMETER: 0.39 mm)
(Feedrate_XY: 120.0 mm/min)
(Feedrate_Z: 60.0 mm/min)
(Feedrate rapids 1500.0 mm/min)

(Z_Cut: -0.05 mm)
(Z_Move: 2.0 mm)
(Z Start: None mm)
(Z End: 10.0 mm)
(X,Y End: 0.0000, 0.0000 mm)
(Steps per circle: 64)
(Preprocessor Geometry: default)

(X range:    9.1045 ...   33.8296  mm)
(Y range:   -7.7770 ...   -1.0754  mm)

(Spindle Speed: 10000.0 RPM)
G21
G90
G17
G94


G01 F120.00

M5             
G00 Z15.0000
G00 X0.0000 Y0.0000                
G00 Z15.0000
        
M03 S10000.0
G01 F120.00
G00 X9.4084 Y-3.6588
G01 F60.00
G01 Z-0.0500
G01 F120.00
G01 X11.9180 Y-3.6590 F120.00
G01 X11.9371 Y-3.6581 F120.00
G01 X11.9466 Y-3.6569 F120.00
G01 X11.9607 Y-3.6543 F120.00
G01 X11.9746 Y-3.6506 F120.00
G01 X11.9882 Y-3.6459 F120.00
G01 X11.9970 Y-3.6423 F120.00
G01 X12.0099 Y-3.6360 F120.00
G01 X12.0223 Y-3.6287 F120.00
G01 X12.0342 Y-3.6206 F120.00
G01 X12.0454 Y-3.6117 F120.00
G01 X12.0559 Y-3.6019 F120.00
G01 X12.0625 Y-3.5950 F120.00
G01 X12.0717 Y-3.5840 F120.00
G01 X12.0801 Y-3.5723 F120.00
G01 X12.0877 Y-3.5601 F120.00
G01 X12.0943 Y-3.5474 F120.00
G01 X12.0999 Y-3.5342 F120.00
G01 X12.1032 Y-3.5252 F120.00
G01 X12.1072 Y-3.5114 F120.00
G01 X12.1101 Y-3.4973 F120.00
G01 X12.1115 Y-3.4879 F120.00
G01 X12.1129 Y-3.4688 F120.00
G01 X12.1130 Y-3.0591 F120.00
G01 X14.3521 Y-3.0594 F120.00
G01 X14.4203 Y-3.1511 F120.00
G01 X14.4924 Y-3.2311 F120.00
G01 X14.5059 Y-3.2446 F120.00
G01 X14.5859 Y-3.3167 F120.00
G01 X14.6723 Y-3.3811 F120.00
G01 X14.6882 Y-3.3917 F120.00
G01 X14.7807 Y-3.4469 F120.00
G01 X14.8779 Y-3.4932 F120.00
G01 X14.8956 Y-3.5005 F120.00
G01 X14.9971 Y-3.5365 F120.00
G01 X15.1015 Y-3.5629 F120.00
G01 X15.1203 Y-3.5667 F120.00
G01 X15.2269 Y-3.5822 F120.00
G01 X15.3344 Y-3.5878 F120.00
G01 X15.3536 Y-3.5878 F120.00
G01 X15.4516 Y-3.5829 F120.00
G01 X15.4659 Y-3.5817 F120.00
G01 X15.5771 Y-3.5650 F120.00
G01 X15.6817 Y-3.5391 F120.00
G01 X15.7000 Y-3.5335 F120.00
G01 X15.8013 Y-3.4970 F120.00
G01 X15.8988 Y-3.4512 F120.00
G01 X15.9156 Y-3.4422 F120.00
G01 X16.0079 Y-3.3866 F120.00
G01 X16.0984 Y-3.3197 F120.00
G01 X16.1093 Y-3.3105 F120.00
G01 X16.1821 Y-3.2446 F120.00
G01 X16.1956 Y-3.2311 F120.00
G01 X16.2677 Y-3.1511 F120.00
G01 X16.3349 Y-3.0609 F120.00
G01 X16.3427 Y-3.0488 F120.00
G01 X16.3932 Y-2.9646 F120.00
G01 X16.4001 Y-2.9521 F120.00
G01 X16.4462 Y-2.8547 F120.00
G01 X16.4515 Y-2.8414 F120.00
G01 X16.4705 Y-2.7881 F120.00
G01 X20.7175 Y-2.7881 F120.00
G01 X20.7365 Y-2.8414 F120.00
G01 X20.7418 Y-2.8547 F120.00
G01 X20.7858 Y-2.9478 F120.00
G01 X20.7924 Y-2.9605 F120.00
G01 X20.8504 Y-3.0569 F120.00
G01 X20.9173 Y-3.1474 F120.00
G01 X20.9265 Y-3.1583 F120.00
G01 X20.9990 Y-3.2380 F120.00
G01 X21.0787 Y-3.3105 F120.00
G01 X21.0934 Y-3.3226 F120.00
G01 X21.1723 Y-3.3811 F120.00
G01 X21.1841 Y-3.3892 F120.00
G01 X21.2807 Y-3.4469 F120.00
G01 X21.3867 Y-3.4970 F120.00
G01 X21.4971 Y-3.5365 F120.00
G01 X21.6015 Y-3.5629 F120.00
G01 X21.6203 Y-3.5667 F120.00
G01 X21.7174 Y-3.5811 F120.00
G01 X21.7364 Y-3.5829 F120.00
G01 X21.8440 Y-3.5880 F120.00
G01 X21.9611 Y-3.5822 F120.00
G01 X22.0771 Y-3.5650 F120.00
G01 X22.1909 Y-3.5365 F120.00
G01 X22.3013 Y-3.4970 F120.00
G01 X22.4073 Y-3.4469 F120.00
G01 X22.5079 Y-3.3866 F120.00
G01 X22.6021 Y-3.3167 F120.00
G01 X22.6890 Y-3.2380 F120.00
G01 X22.7677 Y-3.1511 F120.00
G01 X22.8376 Y-3.0569 F120.00
G01 X22.8979 Y-2.9563 F120.00
G01 X22.9480 Y-2.8503 F120.00
G01 X22.9875 Y-2.7399 F120.00
G01 X23.0160 Y-2.6261 F120.00
G01 X23.0332 Y-2.5101 F120.00
G01 X23.0390 Y-2.3930 F120.00
G01 X23.0332 Y-2.2759 F120.00
G01 X23.0160 Y-2.1599 F120.00
G01 X22.9875 Y-2.0461 F120.00
G01 X22.9480 Y-1.9357 F120.00
G01 X22.9022 Y-1.8382 F120.00
G01 X22.8932 Y-1.8214 F120.00
G01 X22.8376 Y-1.7291 F120.00
G01 X22.7736 Y-1.6424 F120.00
G01 X22.7615 Y-1.6277 F120.00
G01 X22.6956 Y-1.5549 F120.00
G01 X22.6821 Y-1.5414 F120.00
G01 X22.6021 Y-1.4693 F120.00
G01 X22.5079 Y-1.3994 F120.00
G01 X22.4073 Y-1.3391 F120.00
G01 X22.3013 Y-1.2890 F120.00
G01 X22.1909 Y-1.2495 F120.00
G01 X22.0771 Y-1.2210 F120.00
G01 X21.9611 Y-1.2038 F120.00
G01 X21.8536 Y-1.1982 F120.00
G01 X21.8344 Y-1.1982 F120.00
G01 X21.7364 Y-1.2031 F120.00
G01 X21.7174 Y-1.2049 F120.00
G01 X21.6109 Y-1.2210 F120.00
G01 X21.4971 Y-1.2495 F120.00
G01 X21.3867 Y-1.2890 F120.00
G01 X21.2892 Y-1.3348 F120.00
G01 X21.2724 Y-1.3438 F120.00
G01 X21.1882 Y-1.3943 F120.00
G01 X21.1761 Y-1.4021 F120.00
G01 X21.0859 Y-1.4693 F120.00
G01 X21.0059 Y-1.5414 F120.00
G01 X20.9924 Y-1.5549 F120.00
G01 X20.9265 Y-1.6277 F120.00
G01 X20.9173 Y-1.6386 F120.00
G01 X20.8504 Y-1.7291 F120.00
G01 X20.7924 Y-1.8255 F120.00
G01 X20.7858 Y-1.8382 F120.00
G01 X20.7418 Y-1.9313 F120.00
G01 X20.7365 Y-1.9446 F120.00
G01 X20.7175 Y-1.9979 F120.00
G01 X16.4705 Y-1.9979 F120.00
G01 X16.4515 Y-1.9446 F120.00
G01 X16.4462 Y-1.9313 F120.00
G01 X16.4022 Y-1.8382 F120.00
G01 X16.3956 Y-1.8255 F120.00
G01 X16.3376 Y-1.7291 F120.00
G01 X16.2707 Y-1.6386 F120.00
G01 X16.2615 Y-1.6277 F120.00
G01 X16.1890 Y-1.5480 F120.00
G01 X16.1093 Y-1.4755 F120.00
G01 X16.0946 Y-1.4634 F120.00
G01 X16.0157 Y-1.4049 F120.00
G01 X16.0039 Y-1.3968 F120.00
G01 X15.9073 Y-1.3391 F120.00
G01 X15.8013 Y-1.2890 F120.00
G01 X15.6909 Y-1.2495 F120.00
G01 X15.5865 Y-1.2231 F120.00
G01 X15.5677 Y-1.2193 F120.00
G01 X15.4706 Y-1.2049 F120.00
G01 X15.4516 Y-1.2031 F120.00
G01 X15.3440 Y-1.1980 F120.00
G01 X15.2364 Y-1.2031 F120.00
G01 X15.2174 Y-1.2049 F120.00
G01 X15.1109 Y-1.2210 F120.00
G01 X14.9971 Y-1.2495 F120.00
G01 X14.8867 Y-1.2890 F120.00
G01 X14.7892 Y-1.3348 F120.00
G01 X14.7724 Y-1.3438 F120.00
G01 X14.6882 Y-1.3943 F120.00
G01 X14.6723 Y-1.4049 F120.00
G01 X14.5859 Y-1.4693 F120.00
G01 X14.4990 Y-1.5480 F120.00
G01 X14.4203 Y-1.6349 F120.00
G01 X14.3559 Y-1.7213 F120.00
G01 X14.3453 Y-1.7372 F120.00
G01 X14.2948 Y-1.8214 F120.00
G01 X14.2858 Y-1.8382 F120.00
G01 X14.2400 Y-1.9357 F120.00
G01 X14.2005 Y-2.0461 F120.00
G01 X14.1720 Y-2.1599 F120.00
G01 X14.1556 Y-2.2689 F120.00
G01 X12.1130 Y-2.2689 F120.00
G01 X12.1129 Y-1.8592 F120.00
G01 X12.1121 Y-1.8449 F120.00
G01 X12.1109 Y-1.8354 F120.00
G01 X12.1093 Y-1.8260 F120.00
G01 X12.1059 Y-1.8120 F120.00
G01 X12.1016 Y-1.7983 F120.00
G01 X12.0963 Y-1.7850 F120.00
G01 X12.0900 Y-1.7721 F120.00
G01 X12.0827 Y-1.7597 F120.00
G01 X12.0746 Y-1.7478 F120.00
G01 X12.0657 Y-1.7366 F120.00
G01 X12.0559 Y-1.7261 F120.00
G01 X12.0454 Y-1.7163 F120.00
G01 X12.0342 Y-1.7074 F120.00
G01 X12.0223 Y-1.6993 F120.00
G01 X12.0099 Y-1.6920 F120.00
G01 X11.9970 Y-1.6857 F120.00
G01 X11.9837 Y-1.6804 F120.00
G01 X11.9700 Y-1.6761 F120.00
G01 X11.9560 Y-1.6727 F120.00
G01 X11.9419 Y-1.6705 F120.00
G01 X11.9323 Y-1.6695 F120.00
G01 X11.9180 Y-1.6690 F120.00
G01 X9.4180 Y-1.6690 F120.00
G01 X9.3989 Y-1.6699 F120.00
G01 X9.3847 Y-1.6719 F120.00
G01 X9.3660 Y-1.6761 F120.00
G01 X9.3478 Y-1.6821 F120.00
G01 X9.3346 Y-1.6877 F120.00
G01 X9.3219 Y-1.6943 F120.00
G01 X9.3057 Y-1.7046 F120.00
G01 X9.2906 Y-1.7163 F120.00
G01 X9.2801 Y-1.7261 F120.00
G01 X9.2673 Y-1.7403 F120.00
G01 X9.2586 Y-1.7517 F120.00
G01 X9.2507 Y-1.7638 F120.00
G01 X9.2417 Y-1.7806 F120.00
G01 X9.2361 Y-1.7938 F120.00
G01 X9.2301 Y-1.8120 F120.00
G01 X9.2259 Y-1.8307 F120.00
G01 X9.2239 Y-1.8449 F120.00
G01 X9.2230 Y-1.8640 F120.00
G01 X9.2230 Y-3.4640 F120.00
G01 X9.2239 Y-3.4831 F120.00
G01 X9.2267 Y-3.5020 F120.00
G01 X9.2314 Y-3.5206 F120.00
G01 X9.2361 Y-3.5342 F120.00
G01 X9.2438 Y-3.5517 F120.00
G01 X9.2533 Y-3.5683 F120.00
G01 X9.2643 Y-3.5840 F120.00
G01 X9.2768 Y-3.5985 F120.00
G01 X9.2906 Y-3.6117 F120.00
G01 X9.3057 Y-3.6234 F120.00
G01 X9.3219 Y-3.6337 F120.00
G01 X9.3390 Y-3.6423 F120.00
G01 X9.3568 Y-3.6492 F120.00
G01 X9.3753 Y-3.6543 F120.00
G01 X9.3894 Y-3.6569 F120.00
G01 X9.4084 Y-3.6588 F120.00
G00 Z2.0000
G00 X9.4084 Y-5.6588
G01 F60.00
G01 Z-0.0500
G01 F120.00
G01 X11.9180 Y-5.6590 F120.00
G01 X11.9323 Y-5.6585 F120.00
G01 X11.9419 Y-5.6575 F120.00
G01 X11.9607 Y-5.6543 F120.00
G01 X11.9746 Y-5.6506 F120.00
G01 X11.9882 Y-5.6459 F120.00
G01 X12.0014 Y-5.6403 F120.00
G01 X12.0141 Y-5.6337 F120.00
G01 X12.0263 Y-5.6261 F120.00
G01 X12.0342 Y-5.6206 F120.00
G01 X12.0454 Y-5.6117 F120.00
G01 X12.0559 Y-5.6019 F120.00
G01 X12.0625 Y-5.5950 F120.00
G01 X12.0717 Y-5.5840 F120.00
G01 X12.0801 Y-5.5723 F120.00
G01 X12.0877 Y-5.5601 F120.00
G01 X12.0943 Y-5.5474 F120.00
G01 X12.0999 Y-5.5342 F120.00
G01 X12.1032 Y-5.5252 F120.00
G01 X12.1072 Y-5.5114 F120.00
G01 X12.1101 Y-5.4973 F120.00
G01 X12.1115 Y-5.4879 F120.00
G01 X12.1129 Y-5.4688 F120.00
G01 X12.1130 Y-5.0591 F120.00
G01 X23.7340 Y-5.0591 F120.00
G01 X23.7680 Y-5.0576 F120.00
G01 X23.7822 Y-5.0560 F120.00
G01 X23.8111 Y-5.0515 F120.00
G01 X23.8487 Y-5.0421 F120.00
G01 X23.8852 Y-5.0290 F120.00
G01 X23.9117 Y-5.0168 F120.00
G01 X23.9286 Y-5.0077 F120.00
G01 X23.9495 Y-4.9951 F120.00
G01 X23.9575 Y-4.9898 F120.00
G01 X23.9846 Y-4.9694 F120.00
G01 X24.0100 Y-4.9467 F120.00
G01 X25.4900 Y-3.4667 F120.00
G01 X25.5547 Y-3.4970 F120.00
G01 X25.6605 Y-3.5351 F120.00
G01 X25.6743 Y-3.5391 F120.00
G01 X25.7742 Y-3.5640 F120.00
G01 X25.7883 Y-3.5667 F120.00
G01 X25.8949 Y-3.5822 F120.00
G01 X26.0072 Y-3.5879 F120.00
G01 X26.0216 Y-3.5878 F120.00
G01 X26.1291 Y-3.5822 F120.00
G01 X26.2451 Y-3.5650 F120.00
G01 X26.3589 Y-3.5365 F120.00
G01 X26.4693 Y-3.4970 F120.00
G01 X26.5753 Y-3.4469 F120.00
G01 X26.6759 Y-3.3866 F120.00
G01 X26.7701 Y-3.3167 F120.00
G01 X26.8501 Y-3.2446 F120.00
G01 X26.8603 Y-3.2346 F120.00
G01 X26.9357 Y-3.1511 F120.00
G01 X27.0001 Y-3.0647 F120.00
G01 X27.0082 Y-3.0529 F120.00
G01 X27.0612 Y-2.9646 F120.00
G01 X27.0681 Y-2.9521 F120.00
G01 X27.1142 Y-2.8547 F120.00
G01 X27.1195 Y-2.8414 F120.00
G01 X27.1385 Y-2.7881 F120.00
G01 X31.3855 Y-2.7881 F120.00
G01 X31.4045 Y-2.8414 F120.00
G01 X31.4098 Y-2.8547 F120.00
G01 X31.4538 Y-2.9478 F120.00
G01 X31.4604 Y-2.9605 F120.00
G01 X31.5184 Y-3.0569 F120.00
G01 X31.5853 Y-3.1474 F120.00
G01 X31.5945 Y-3.1583 F120.00
G01 X31.6670 Y-3.2380 F120.00
G01 X31.7467 Y-3.3105 F120.00
G01 X31.7614 Y-3.3226 F120.00
G01 X31.8403 Y-3.3811 F120.00
G01 X31.8521 Y-3.3892 F120.00
G01 X31.9487 Y-3.4469 F120.00
G01 X32.0547 Y-3.4970 F120.00
G01 X32.1651 Y-3.5365 F120.00
G01 X32.2695 Y-3.5629 F120.00
G01 X32.2883 Y-3.5667 F120.00
G01 X32.3854 Y-3.5811 F120.00
G01 X32.4044 Y-3.5829 F120.00
G01 X32.5120 Y-3.5880 F120.00
G01 X32.6244 Y-3.5827 F120.00
G01 X32.6386 Y-3.5811 F120.00
G01 X32.7451 Y-3.5650 F120.00
G01 X32.8589 Y-3.5365 F120.00
G01 X32.9693 Y-3.4970 F120.00
G01 X33.0753 Y-3.4469 F120.00
G01 X33.1759 Y-3.3866 F120.00
G01 X33.2701 Y-3.3167 F120.00
G01 X33.3570 Y-3.2380 F120.00
G01 X33.4357 Y-3.1511 F120.00
G01 X33.5056 Y-3.0569 F120.00
G01 X33.5659 Y-2.9563 F120.00
G01 X33.6160 Y-2.8503 F120.00
G01 X33.6555 Y-2.7399 F120.00
G01 X33.6840 Y-2.6261 F120.00
G01 X33.7012 Y-2.5101 F120.00
G01 X33.7070 Y-2.3930 F120.00
G01 X33.7019 Y-2.2854 F120.00
G01 X33.7001 Y-2.2664 F120.00
G01 X33.6840 Y-2.1599 F120.00
G01 X33.6555 Y-2.0461 F120.00
G01 X33.6160 Y-1.9357 F120.00
G01 X33.5702 Y-1.8382 F120.00
G01 X33.5612 Y-1.8214 F120.00
G01 X33.5107 Y-1.7372 F120.00
G01 X33.5001 Y-1.7213 F120.00
G01 X33.4357 Y-1.6349 F120.00
G01 X33.3570 Y-1.5480 F120.00
G01 X33.2701 Y-1.4693 F120.00
G01 X33.1837 Y-1.4049 F120.00
G01 X33.1678 Y-1.3943 F120.00
G01 X33.0836 Y-1.3438 F120.00
G01 X33.0668 Y-1.3348 F120.00
G01 X32.9693 Y-1.2890 F120.00
G01 X32.8589 Y-1.2495 F120.00
G01 X32.7451 Y-1.2210 F120.00
G01 X32.6386 Y-1.2049 F120.00
G01 X32.6196 Y-1.2031 F120.00
G01 X32.5120 Y-1.1980 F120.00
G01 X32.4044 Y-1.2031 F120.00
G01 X32.3854 Y-1.2049 F120.00
G01 X32.2883 Y-1.2193 F120.00
G01 X32.2695 Y-1.2231 F120.00
G01 X32.1651 Y-1.2495 F120.00
G01 X32.0547 Y-1.2890 F120.00
G01 X31.9487 Y-1.3391 F120.00
G01 X31.8521 Y-1.3968 F120.00
G01 X31.8403 Y-1.4049 F120.00
G01 X31.7614 Y-1.4634 F120.00
G01 X31.7467 Y-1.4755 F120.00
G01 X31.6670 Y-1.5480 F120.00
G01 X31.5945 Y-1.6277 F120.00
G01 X31.5853 Y-1.6386 F120.00
G01 X31.5184 Y-1.7291 F120.00
G01 X31.4604 Y-1.8255 F120.00
G01 X31.4538 Y-1.8382 F120.00
G01 X31.4098 Y-1.9313 F120.00
G01 X31.4045 Y-1.9446 F120.00
G01 X31.3855 Y-1.9979 F120.00
G01 X27.1385 Y-1.9979 F120.00
G01 X27.1195 Y-1.9446 F120.00
G01 X27.1142 Y-1.9313 F120.00
G01 X27.0702 Y-1.8382 F120.00
G01 X27.0636 Y-1.8255 F120.00
G01 X27.0056 Y-1.7291 F120.00
G01 X26.9387 Y-1.6386 F120.00
G01 X26.9295 Y-1.6277 F120.00
G01 X26.8570 Y-1.5480 F120.00
G01 X26.7773 Y-1.4755 F120.00
G01 X26.7626 Y-1.4634 F120.00
G01 X26.6837 Y-1.4049 F120.00
G01 X26.6719 Y-1.3968 F120.00
G01 X26.5753 Y-1.3391 F120.00
G01 X26.4693 Y-1.2890 F120.00
G01 X26.3589 Y-1.2495 F120.00
G01 X26.2545 Y-1.2231 F120.00
G01 X26.2357 Y-1.2193 F120.00
G01 X26.1386 Y-1.2049 F120.00
G01 X26.1196 Y-1.2031 F120.00
G01 X26.0120 Y-1.1980 F120.00
G01 X25.9044 Y-1.2031 F120.00
G01 X25.8854 Y-1.2049 F120.00
G01 X25.7789 Y-1.2210 F120.00
G01 X25.6651 Y-1.2495 F120.00
G01 X25.5547 Y-1.2890 F120.00
G01 X25.4487 Y-1.3391 F120.00
G01 X25.3481 Y-1.3994 F120.00
G01 X25.2539 Y-1.4693 F120.00
G01 X25.1670 Y-1.5480 F120.00
G01 X25.0945 Y-1.6277 F120.00
G01 X25.0824 Y-1.6424 F120.00
G01 X25.0184 Y-1.7291 F120.00
G01 X24.9628 Y-1.8214 F120.00
G01 X24.9538 Y-1.8382 F120.00
G01 X24.9080 Y-1.9357 F120.00
G01 X24.8715 Y-2.0370 F120.00
G01 X24.8659 Y-2.0553 F120.00
G01 X24.8400 Y-2.1599 F120.00
G01 X24.8233 Y-2.2711 F120.00
G01 X24.8221 Y-2.2854 F120.00
G01 X24.8172 Y-2.3834 F120.00
G01 X24.8172 Y-2.4026 F120.00
G01 X24.8228 Y-2.5101 F120.00
G01 X24.8391 Y-2.6214 F120.00
G01 X24.8421 Y-2.6355 F120.00
G01 X24.8659 Y-2.7307 F120.00
G01 X24.8699 Y-2.7445 F120.00
G01 X24.9062 Y-2.8459 F120.00
G01 X24.9118 Y-2.8591 F120.00
G01 X24.9338 Y-2.9055 F120.00
G01 X23.5703 Y-4.2689 F120.00
G01 X12.1130 Y-4.2689 F120.00
G01 X12.1129 Y-3.8592 F120.00
G01 X12.1115 Y-3.8401 F120.00
G01 X12.1101 Y-3.8307 F120.00
G01 X12.1072 Y-3.8166 F120.00
G01 X12.1032 Y-3.8028 F120.00
G01 X12.0999 Y-3.7938 F120.00
G01 X12.0943 Y-3.7806 F120.00
G01 X12.0877 Y-3.7679 F120.00
G01 X12.0801 Y-3.7557 F120.00
G01 X12.0746 Y-3.7478 F120.00
G01 X12.0657 Y-3.7366 F120.00
G01 X12.0559 Y-3.7261 F120.00
G01 X12.0454 Y-3.7163 F120.00
G01 X12.0342 Y-3.7074 F120.00
G01 X12.0223 Y-3.6993 F120.00
G01 X12.0099 Y-3.6920 F120.00
G01 X11.9970 Y-3.6857 F120.00
G01 X11.9837 Y-3.6804 F120.00
G01 X11.9746 Y-3.6774 F120.00
G01 X11.9607 Y-3.6737 F120.00
G01 X11.9466 Y-3.6711 F120.00
G01 X11.9371 Y-3.6699 F120.00
G01 X11.9180 Y-3.6690 F120.00
G01 X9.4180 Y-3.6690 F120.00
G01 X9.3989 Y-3.6699 F120.00
G01 X9.3847 Y-3.6719 F120.00
G01 X9.3660 Y-3.6761 F120.00
G01 X9.3478 Y-3.6821 F120.00
G01 X9.3346 Y-3.6877 F120.00
G01 X9.3219 Y-3.6943 F120.00
G01 X9.3057 Y-3.7046 F120.00
G01 X9.2906 Y-3.7163 F120.00
G01 X9.2801 Y-3.7261 F120.00
G01 X9.2673 Y-3.7403 F120.00
G01 X9.2586 Y-3.7517 F120.00
G01 X9.2507 Y-3.7638 F120.00
G01 X9.2417 Y-3.7806 F120.00
G01 X9.2361 Y-3.7938 F120.00
G01 X9.2301 Y-3.8120 F120.00
G01 X9.2259 Y-3.8307 F120.00
G01 X9.2239 Y-3.8449 F120.00
G01 X9.2230 Y-3.8640 F120.00
G01 X9.2230 Y-5.4640 F120.00
G01 X9.2239 Y-5.4831 F120.00
G01 X9.2267 Y-5.5020 F120.00
G01 X9.2314 Y-5.5206 F120.00
G01 X9.2361 Y-5.5342 F120.00
G01 X9.2438 Y-5.5517 F120.00
G01 X9.2533 Y-5.5683 F120.00
G01 X9.2643 Y-5.5840 F120.00
G01 X9.2768 Y-5.5985 F120.00
G01 X9.2906 Y-5.6117 F120.00
G01 X9.3057 Y-5.6234 F120.00
G01 X9.3219 Y-5.6337 F120.00
G01 X9.3390 Y-5.6423 F120.00
G01 X9.3568 Y-5.6492 F120.00
G01 X9.3753 Y-5.6543 F120.00
G01 X9.3941 Y-5.6575 F120.00
G01 X9.4084 Y-5.6588 F120.00
G00 Z2.0000
G00 X9.2230 Y-6.2150
G01 F60.00
G01 Z-0.0500
G01 F120.00
G01 X9.1050 Y-6.2150 F120.00
G01 X9.1050 Y-5.8265 F120.00
G01 X9.1080 Y-5.7993 F120.00
G01 X9.1193 Y-5.7684 F120.00
G01 X9.1258 Y-5.7462 F120.00
G01 X9.1293 Y-5.7327 F120.00
G01 X9.1311 Y-5.7235 F120.00
G01 X9.1329 Y-5.7097 F120.00
G01 X9.1337 Y-5.6910 F120.00
G01 X9.1332 Y-5.6771 F120.00
G01 X9.1280 Y-5.6062 F120.00
G01 X9.1265 Y-5.5924 F120.00
G01 X9.1240 Y-5.5787 F120.00
G01 X9.1206 Y-5.5652 F120.00
G01 X9.1177 Y-5.5564 F120.00
G01 X9.1075 Y-5.5289 F120.00
G01 X9.1045 Y-5.5016 F120.00
G01 X9.1045 Y-3.8264 F120.00
G01 X9.1075 Y-3.7991 F120.00
G01 X9.1190 Y-3.7677 F120.00
G01 X9.1256 Y-3.7455 F120.00
G01 X9.1290 Y-3.7320 F120.00
G01 X9.1308 Y-3.7228 F120.00
G01 X9.1326 Y-3.7089 F120.00
G01 X9.1335 Y-3.6903 F120.00
G01 X9.1330 Y-3.6763 F120.00
G01 X9.1278 Y-3.6055 F120.00
G01 X9.1263 Y-3.5917 F120.00
G01 X9.1238 Y-3.5780 F120.00
G01 X9.1203 Y-3.5645 F120.00
G01 X9.1175 Y-3.5557 F120.00
G01 X9.1075 Y-3.5289 F120.00
G01 X9.1045 Y-3.5016 F120.00
G01 X9.1045 Y-1.8264 F120.00
G01 X9.1075 Y-1.7991 F120.00
G01 X9.1402 Y-1.7119 F120.00
G01 X9.1940 Y-1.6400 F120.00
G01 X9.2659 Y-1.5862 F120.00
G01 X9.3531 Y-1.5535 F120.00
G01 X9.3804 Y-1.5505 F120.00
G01 X11.9556 Y-1.5505 F120.00
G01 X11.9829 Y-1.5535 F120.00
G01 X12.0701 Y-1.5862 F120.00
G01 X12.1420 Y-1.6400 F120.00
G01 X12.1958 Y-1.7119 F120.00
G01 X12.2285 Y-1.7991 F120.00
G01 X12.2315 Y-1.8264 F120.00
G01 X12.2320 Y-1.8434 F120.00
G01 X12.2335 Y-1.8573 F120.00
G01 X12.2360 Y-1.8709 F120.00
G01 X12.2473 Y-1.9233 F120.00
G01 X12.2510 Y-1.9374 F120.00
G01 X12.2557 Y-1.9513 F120.00
G01 X12.2614 Y-1.9647 F120.00
G01 X12.2705 Y-1.9819 F120.00
G01 X12.2814 Y-1.9981 F120.00
G01 X12.2905 Y-2.0095 F120.00
G01 X12.3402 Y-2.0668 F120.00
G01 X12.3540 Y-2.0805 F120.00
G01 X12.3690 Y-2.0927 F120.00
G01 X12.3851 Y-2.1034 F120.00
G01 X12.3979 Y-2.1103 F120.00
G01 X12.4067 Y-2.1144 F120.00
G01 X12.4248 Y-2.1212 F120.00
G01 X12.5065 Y-2.1450 F120.00
G01 X12.5247 Y-2.1485 F120.00
G01 X12.5386 Y-2.1500 F120.00
G01 X12.5479 Y-2.1504 F120.00
G01 X13.8132 Y-2.1504 F120.00
G01 X13.8230 Y-2.1499 F120.00
G01 X13.8377 Y-2.1483 F120.00
G01 X13.8570 Y-2.1443 F120.00
G01 X13.9384 Y-2.1191 F120.00
G01 X13.9519 Y-2.1143 F120.00
G01 X13.9693 Y-2.1064 F120.00
G01 X13.9818 Y-2.0994 F120.00
G01 X13.9899 Y-2.0942 F120.00
G01 X13.9977 Y-2.0886 F120.00
G01 X14.0088 Y-2.0795 F120.00
G01 X14.0225 Y-2.0662 F120.00
G01 X14.0319 Y-2.0554 F120.00
G01 X14.0794 Y-1.9964 F120.00
G01 X14.0874 Y-1.9851 F120.00
G01 X14.0947 Y-1.9732 F120.00
G01 X14.0990 Y-1.9650 F120.00
G01 X14.1048 Y-1.9523 F120.00
G01 X14.1700 Y-1.7948 F120.00
G01 X14.2781 Y-1.6186 F120.00
G01 X14.4123 Y-1.4613 F120.00
G01 X14.5696 Y-1.3271 F120.00
G01 X14.7458 Y-1.2190 F120.00
G01 X14.9368 Y-1.1399 F120.00
G01 X15.1379 Y-1.0917 F120.00
G01 X15.3440 Y-1.0754 F120.00
G01 X15.5501 Y-1.0917 F120.00
G01 X15.7512 Y-1.1399 F120.00
G01 X15.9422 Y-1.2190 F120.00
G01 X16.1184 Y-1.3271 F120.00
G01 X16.2757 Y-1.4613 F120.00
G01 X16.4099 Y-1.6186 F120.00
G01 X16.4759 Y-1.7262 F120.00
G01 X16.4812 Y-1.7344 F120.00
G01 X16.4899 Y-1.7461 F120.00
G01 X16.4995 Y-1.7572 F120.00
G01 X16.5421 Y-1.8009 F120.00
G01 X16.5524 Y-1.8107 F120.00
G01 X16.5597 Y-1.8168 F120.00
G01 X16.5751 Y-1.8279 F120.00
G01 X16.5914 Y-1.8375 F120.00
G01 X16.6043 Y-1.8436 F120.00
G01 X16.6220 Y-1.8502 F120.00
G01 X16.6947 Y-1.8716 F120.00
G01 X16.7082 Y-1.8750 F120.00
G01 X16.7173 Y-1.8768 F120.00
G01 X16.7311 Y-1.8786 F120.00
G01 X16.7496 Y-1.8795 F120.00
G01 X20.4384 Y-1.8795 F120.00
G01 X20.4530 Y-1.8790 F120.00
G01 X20.4675 Y-1.8773 F120.00
G01 X20.4819 Y-1.8746 F120.00
G01 X20.5413 Y-1.8609 F120.00
G01 X20.5504 Y-1.8584 F120.00
G01 X20.5638 Y-1.8537 F120.00
G01 X20.5811 Y-1.8460 F120.00
G01 X20.5936 Y-1.8391 F120.00
G01 X20.6055 Y-1.8314 F120.00
G01 X20.6205 Y-1.8197 F120.00
G01 X20.6801 Y-1.7658 F120.00
G01 X20.6898 Y-1.7558 F120.00
G01 X20.6959 Y-1.7488 F120.00
G01 X20.7044 Y-1.7378 F120.00
G01 X20.7096 Y-1.7302 F120.00
G01 X20.7781 Y-1.6186 F120.00
G01 X20.9123 Y-1.4613 F120.00
G01 X21.0696 Y-1.3271 F120.00
G01 X21.2458 Y-1.2190 F120.00
G01 X21.4368 Y-1.1399 F120.00
G01 X21.6379 Y-1.0917 F120.00
G01 X21.8440 Y-1.0754 F120.00
G01 X22.0501 Y-1.0917 F120.00
G01 X22.2512 Y-1.1399 F120.00
G01 X22.4422 Y-1.2190 F120.00
G01 X22.6184 Y-1.3271 F120.00
G01 X22.7757 Y-1.4613 F120.00
G01 X22.9099 Y-1.6186 F120.00
G01 X23.0180 Y-1.7948 F120.00
G01 X23.0971 Y-1.9858 F120.00
G01 X23.1453 Y-2.1869 F120.00
G01 X23.1616 Y-2.3930 F120.00
G01 X23.1453 Y-2.5991 F120.00
G01 X23.0971 Y-2.8001 F120.00
G01 X23.0180 Y-2.9912 F120.00
G01 X22.9099 Y-3.1674 F120.00
G01 X22.7757 Y-3.3247 F120.00
G01 X22.6184 Y-3.4589 F120.00
G01 X22.4561 Y-3.5585 F120.00
G01 X22.4479 Y-3.5641 F120.00
G01 X22.4400 Y-3.5702 F120.00
G01 X22.3996 Y-3.6046 F120.00
G01 X22.3896 Y-3.6147 F120.00
G01 X22.3803 Y-3.6255 F120.00
G01 X22.3692 Y-3.6410 F120.00
G01 X22.3619 Y-3.6532 F120.00
G01 X22.3555 Y-3.6660 F120.00
G01 X22.3240 Y-3.7350 F120.00
G01 X22.3188 Y-3.7486 F120.00
G01 X22.3147 Y-3.7625 F120.00
G01 X22.3115 Y-3.7766 F120.00
G01 X22.3095 Y-3.7910 F120.00
G01 X22.3085 Y-3.8055 F120.00
G01 X22.3086 Y-3.8200 F120.00
G01 X22.3104 Y-3.8393 F120.00
G01 X22.3221 Y-3.9191 F120.00
G01 X22.3267 Y-3.9379 F120.00
G01 X22.3314 Y-3.9517 F120.00
G01 X22.3351 Y-3.9606 F120.00
G01 X22.3392 Y-3.9694 F120.00
G01 X22.3462 Y-3.9821 F120.00
G01 X22.3542 Y-3.9943 F120.00
G01 X22.3599 Y-4.0021 F120.00
G01 X22.4126 Y-4.0632 F120.00
G01 X22.4225 Y-4.0738 F120.00
G01 X22.4332 Y-4.0837 F120.00
G01 X22.4407 Y-4.0898 F120.00
G01 X22.4525 Y-4.0982 F120.00
G01 X22.4649 Y-4.1058 F120.00
G01 X22.4779 Y-4.1124 F120.00
G01 X22.4958 Y-4.1196 F120.00
G01 X22.5731 Y-4.1426 F120.00
G01 X22.5866 Y-4.1460 F120.00
G01 X22.6003 Y-4.1485 F120.00
G01 X22.6142 Y-4.1500 F120.00
G01 X22.6234 Y-4.1504 F120.00
G01 X23.3883 Y-4.1505 F120.00
G01 X23.4040 Y-4.1499 F120.00
G01 X23.4407 Y-4.1459 F120.00
G01 X23.4549 Y-4.1435 F120.00
G01 X23.4734 Y-4.1387 F120.00
G01 X23.4914 Y-4.1321 F120.00
G01 X23.5086 Y-4.1238 F120.00
G01 X23.5789 Y-4.0851 F120.00
G01 X23.5905 Y-4.0774 F120.00
G01 X23.5980 Y-4.0719 F120.00
G01 X23.6120 Y-4.0597 F120.00
G01 X24.6536 Y-3.0182 F120.00
G01 X24.6667 Y-3.0037 F120.00
G01 X24.6755 Y-2.9921 F120.00
G01 X24.7156 Y-2.9282 F120.00
G01 X24.7221 Y-2.9156 F120.00
G01 X24.7293 Y-2.8980 F120.00
G01 X24.7336 Y-2.8845 F120.00
G01 X24.7378 Y-2.8660 F120.00
G01 X24.7397 Y-2.8519 F120.00
G01 X24.7404 Y-2.8424 F120.00
G01 X24.7442 Y-2.7622 F120.00
G01 X24.7440 Y-2.7530 F120.00
G01 X24.7428 Y-2.7391 F120.00
G01 X24.7398 Y-2.7208 F120.00
G01 X24.7107 Y-2.5991 F120.00
G01 X24.6944 Y-2.3930 F120.00
G01 X24.7107 Y-2.1869 F120.00
G01 X24.7589 Y-1.9858 F120.00
G01 X24.8380 Y-1.7948 F120.00
G01 X24.9461 Y-1.6186 F120.00
G01 X25.0803 Y-1.4613 F120.00
G01 X25.2376 Y-1.3271 F120.00
G01 X25.4138 Y-1.2190 F120.00
G01 X25.6048 Y-1.1399 F120.00
G01 X25.8059 Y-1.0917 F120.00
G01 X26.0120 Y-1.0754 F120.00
G01 X26.2181 Y-1.0917 F120.00
G01 X26.4192 Y-1.1399 F120.00
G01 X26.6102 Y-1.2190 F120.00
G01 X26.7864 Y-1.3271 F120.00
G01 X26.9437 Y-1.4613 F120.00
G01 X27.0779 Y-1.6186 F120.00
G01 X27.1439 Y-1.7262 F120.00
G01 X27.1520 Y-1.7384 F120.00
G01 X27.1579 Y-1.7461 F120.00
G01 X27.1675 Y-1.7572 F120.00
G01 X27.2101 Y-1.8009 F120.00
G01 X27.2204 Y-1.8107 F120.00
G01 X27.2277 Y-1.8168 F120.00
G01 X27.2391 Y-1.8253 F120.00
G01 X27.2552 Y-1.8352 F120.00
G01 X27.2723 Y-1.8436 F120.00
G01 X27.2900 Y-1.8502 F120.00
G01 X27.3627 Y-1.8716 F120.00
G01 X27.3762 Y-1.8750 F120.00
G01 X27.3853 Y-1.8768 F120.00
G01 X27.3991 Y-1.8786 F120.00
G01 X27.4176 Y-1.8795 F120.00
G01 X31.1064 Y-1.8795 F120.00
G01 X31.1210 Y-1.8790 F120.00
G01 X31.1355 Y-1.8773 F120.00
G01 X31.1499 Y-1.8746 F120.00
G01 X31.2093 Y-1.8609 F120.00
G01 X31.2229 Y-1.8569 F120.00
G01 X31.2318 Y-1.8537 F120.00
G01 X31.2449 Y-1.8481 F120.00
G01 X31.2616 Y-1.8391 F120.00
G01 X31.2735 Y-1.8314 F120.00
G01 X31.2885 Y-1.8197 F120.00
G01 X31.3481 Y-1.7658 F120.00
G01 X31.3546 Y-1.7592 F120.00
G01 X31.3639 Y-1.7488 F120.00
G01 X31.3724 Y-1.7378 F120.00
G01 X31.3776 Y-1.7302 F120.00
G01 X31.4461 Y-1.6186 F120.00
G01 X31.5803 Y-1.4613 F120.00
G01 X31.7376 Y-1.3271 F120.00
G01 X31.9138 Y-1.2190 F120.00
G01 X32.1048 Y-1.1399 F120.00
G01 X32.3059 Y-1.0917 F120.00
G01 X32.5120 Y-1.0754 F120.00
G01 X32.7181 Y-1.0917 F120.00
G01 X32.9192 Y-1.1399 F120.00
G01 X33.1102 Y-1.2190 F120.00
G01 X33.2864 Y-1.3271 F120.00
G01 X33.4437 Y-1.4613 F120.00
G01 X33.5779 Y-1.6186 F120.00
G01 X33.6860 Y-1.7948 F120.00
G01 X33.7651 Y-1.9858 F120.00
G01 X33.8133 Y-2.1869 F120.00
G01 X33.8296 Y-2.3930 F120.00
G01 X33.8133 Y-2.5991 F120.00
G01 X33.7651 Y-2.8001 F120.00
G01 X33.6860 Y-2.9912 F120.00
G01 X33.5779 Y-3.1674 F120.00
G01 X33.4437 Y-3.3247 F120.00
G01 X33.2864 Y-3.4589 F120.00
G01 X33.1102 Y-3.5670 F120.00
G01 X32.9192 Y-3.6461 F120.00
G01 X32.7181 Y-3.6943 F120.00
G01 X32.5120 Y-3.7106 F120.00
G01 X32.3059 Y-3.6943 F120.00
G01 X32.1048 Y-3.6461 F120.00
G01 X31.9138 Y-3.5670 F120.00
G01 X31.7376 Y-3.4589 F120.00
G01 X31.5803 Y-3.3247 F120.00
G01 X31.4461 Y-3.1674 F120.00
G01 X31.3801 Y-3.0598 F120.00
G01 X31.3748 Y-3.0516 F120.00
G01 X31.3661 Y-3.0399 F120.00
G01 X31.3532 Y-3.0253 F120.00
G01 X31.3105 Y-2.9818 F120.00
G01 X31.3000 Y-2.9722 F120.00
G01 X31.2849 Y-2.9607 F120.00
G01 X31.2729 Y-2.9531 F120.00
G01 X31.2603 Y-2.9464 F120.00
G01 X31.2429 Y-2.9389 F120.00
G01 X31.2295 Y-2.9344 F120.00
G01 X31.1569 Y-2.9131 F120.00
G01 X31.1433 Y-2.9100 F120.00
G01 X31.1341 Y-2.9085 F120.00
G01 X31.1203 Y-2.9070 F120.00
G01 X31.1064 Y-2.9065 F120.00
G01 X27.4176 Y-2.9065 F120.00
G01 X27.4030 Y-2.9070 F120.00
G01 X27.3837 Y-2.9095 F120.00
G01 X27.3193 Y-2.9239 F120.00
G01 X27.3056 Y-2.9276 F120.00
G01 X27.2922 Y-2.9323 F120.00
G01 X27.2749 Y-2.9400 F120.00
G01 X27.2624 Y-2.9469 F120.00
G01 X27.2467 Y-2.9574 F120.00
G01 X27.2320 Y-2.9694 F120.00
G01 X27.1793 Y-3.0171 F120.00
G01 X27.1662 Y-3.0302 F120.00
G01 X27.1572 Y-3.0408 F120.00
G01 X27.1464 Y-3.0558 F120.00
G01 X27.0779 Y-3.1674 F120.00
G01 X26.9437 Y-3.3247 F120.00
G01 X26.7864 Y-3.4589 F120.00
G01 X26.6102 Y-3.5670 F120.00
G01 X26.4192 Y-3.6461 F120.00
G01 X26.2181 Y-3.6943 F120.00
G01 X26.0120 Y-3.7106 F120.00
G01 X25.8059 Y-3.6943 F120.00
G01 X25.6775 Y-3.6635 F120.00
G01 X25.6631 Y-3.6606 F120.00
G01 X25.6535 Y-3.6593 F120.00
G01 X25.6340 Y-3.6581 F120.00
G01 X25.5683 Y-3.6577 F120.00
G01 X25.5495 Y-3.6593 F120.00
G01 X25.5355 Y-3.6617 F120.00
G01 X25.5171 Y-3.6665 F120.00
G01 X25.5037 Y-3.6713 F120.00
G01 X25.4950 Y-3.6750 F120.00
G01 X25.4823 Y-3.6814 F120.00
G01 X25.4200 Y-3.7154 F120.00
G01 X25.4080 Y-3.7225 F120.00
G01 X25.3966 Y-3.7304 F120.00
G01 X25.3893 Y-3.7362 F120.00
G01 X25.3755 Y-3.7487 F120.00
G01 X24.1145 Y-5.0097 F120.00
G01 X24.1018 Y-5.0231 F120.00
G01 X24.0761 Y-5.0520 F120.00
G01 X24.0334 Y-5.0816 F120.00
G01 X23.9937 Y-5.1120 F120.00
G01 X23.9779 Y-5.1208 F120.00
G01 X23.9312 Y-5.1385 F120.00
G01 X23.8793 Y-5.1610 F120.00
G01 X23.8764 Y-5.1619 F120.00
G01 X23.8619 Y-5.1658 F120.00
G01 X23.8124 Y-5.1719 F120.00
G01 X23.7611 Y-5.1806 F120.00
G01 X23.7269 Y-5.1782 F120.00
G01 X23.7051 Y-5.1775 F120.00
G01 X22.6907 Y-5.1776 F120.00
G01 X22.6807 Y-5.1781 F120.00
G01 X22.6708 Y-5.1791 F120.00
G01 X22.6278 Y-5.1857 F120.00
G01 X22.6138 Y-5.1884 F120.00
G01 X22.6000 Y-5.1921 F120.00
G01 X22.5865 Y-5.1968 F120.00
G01 X22.5734 Y-5.2025 F120.00
G01 X22.5608 Y-5.2091 F120.00
G01 X22.5487 Y-5.2166 F120.00
G01 X22.4819 Y-5.2619 F120.00
G01 X22.4670 Y-5.2743 F120.00
G01 X22.4600 Y-5.2810 F120.00
G01 X22.4502 Y-5.2917 F120.00
G01 X22.4441 Y-5.2992 F120.00
G01 X22.4357 Y-5.3110 F120.00
G01 X22.4259 Y-5.3277 F120.00
G01 X22.4196 Y-5.3409 F120.00
G01 X22.3915 Y-5.4061 F120.00
G01 X22.3863 Y-5.4196 F120.00
G01 X22.3820 Y-5.4335 F120.00
G01 X22.3789 Y-5.4477 F120.00
G01 X22.3773 Y-5.4572 F120.00
G01 X22.3759 Y-5.4717 F120.00
G01 X22.3756 Y-5.4814 F120.00
G01 X22.3760 Y-5.4959 F120.00
G01 X22.3775 Y-5.5103 F120.00
G01 X22.3907 Y-5.5899 F120.00
G01 X22.3927 Y-5.5994 F120.00
G01 X22.3967 Y-5.6134 F120.00
G01 X22.4017 Y-5.6270 F120.00
G01 X22.4099 Y-5.6446 F120.00
G01 X22.4198 Y-5.6612 F120.00
G01 X22.4286 Y-5.6734 F120.00
G01 X22.3095 Y-5.7926 F120.00
G01 X22.2924 Y-5.7855 F120.00
G01 X22.1909 Y-5.7495 F120.00
G01 X22.0771 Y-5.7210 F120.00
G01 X21.9611 Y-5.7038 F120.00
G01 X21.8440 Y-5.6980 F120.00
G01 X21.7269 Y-5.7038 F120.00
G01 X21.6109 Y-5.7210 F120.00
G01 X21.4971 Y-5.7495 F120.00
G01 X21.3956 Y-5.7855 F120.00
G01 X21.3785 Y-5.7926 F120.00
G01 X21.2593 Y-5.6733 F120.00
G01 X21.2649 Y-5.6620 F120.00
G01 X21.2944 Y-5.5974 F120.00
G01 X21.3000 Y-5.5840 F120.00
G01 X21.3045 Y-5.5702 F120.00
G01 X21.3080 Y-5.5561 F120.00
G01 X21.3104 Y-5.5418 F120.00
G01 X21.3118 Y-5.5273 F120.00
G01 X21.3120 Y-5.5128 F120.00
G01 X21.3107 Y-5.4935 F120.00
G01 X21.2984 Y-5.4089 F120.00
G01 X21.2950 Y-5.3947 F120.00
G01 X21.2890 Y-5.3763 F120.00
G01 X21.2812 Y-5.3586 F120.00
G01 X21.2742 Y-5.3459 F120.00
G01 X21.2663 Y-5.3337 F120.00
G01 X21.2574 Y-5.3222 F120.00
G01 X21.2046 Y-5.2612 F120.00
G01 X21.1944 Y-5.2508 F120.00
G01 X21.1872 Y-5.2443 F120.00
G01 X21.1759 Y-5.2353 F120.00
G01 X21.1638 Y-5.2272 F120.00
G01 X21.1555 Y-5.2222 F120.00
G01 X21.1426 Y-5.2156 F120.00
G01 X21.1337 Y-5.2118 F120.00
G01 X21.1200 Y-5.2068 F120.00
G01 X21.0383 Y-5.1830 F120.00
G01 X21.0247 Y-5.1802 F120.00
G01 X21.0062 Y-5.1780 F120.00
G01 X20.9923 Y-5.1775 F120.00
G01 X16.1957 Y-5.1775 F120.00
G01 X16.1857 Y-5.1778 F120.00
G01 X16.1757 Y-5.1785 F120.00
G01 X16.1278 Y-5.1857 F120.00
G01 X16.1091 Y-5.1895 F120.00
G01 X16.1000 Y-5.1921 F120.00
G01 X16.0865 Y-5.1968 F120.00
G01 X16.0734 Y-5.2025 F120.00
G01 X16.0608 Y-5.2091 F120.00
G01 X16.0487 Y-5.2166 F120.00
G01 X15.9898 Y-5.2563 F120.00
G01 X15.9743 Y-5.2679 F120.00
G01 X15.9600 Y-5.2810 F120.00
G01 X15.9502 Y-5.2917 F120.00
G01 X15.9384 Y-5.3070 F120.00
G01 X15.9306 Y-5.3193 F120.00
G01 X15.9237 Y-5.3321 F120.00
G01 X15.9196 Y-5.3409 F120.00
G01 X15.8915 Y-5.4061 F120.00
G01 X15.8863 Y-5.4196 F120.00
G01 X15.8809 Y-5.4382 F120.00
G01 X15.8780 Y-5.4524 F120.00
G01 X15.8763 Y-5.4669 F120.00
G01 X15.8756 Y-5.4814 F120.00
G01 X15.8760 Y-5.4959 F120.00
G01 X15.8775 Y-5.5103 F120.00
G01 X15.8898 Y-5.5852 F120.00
G01 X15.8939 Y-5.6041 F120.00
G01 X15.8999 Y-5.6225 F120.00
G01 X15.9077 Y-5.6402 F120.00
G01 X15.9171 Y-5.6571 F120.00
G01 X15.9225 Y-5.6652 F120.00
G01 X15.9286 Y-5.6734 F120.00
G01 X15.8095 Y-5.7926 F120.00
G01 X15.7924 Y-5.7855 F120.00
G01 X15.6909 Y-5.7495 F120.00
G01 X15.5771 Y-5.7210 F120.00
G01 X15.4611 Y-5.7038 F120.00
G01 X15.3440 Y-5.6980 F120.00
G01 X15.2269 Y-5.7038 F120.00
G01 X15.1109 Y-5.7210 F120.00
G01 X14.9971 Y-5.7495 F120.00
G01 X14.8956 Y-5.7855 F120.00
G01 X14.8785 Y-5.7926 F120.00
G01 X14.7593 Y-5.6733 F120.00
G01 X14.7649 Y-5.6620 F120.00
G01 X14.7944 Y-5.5974 F120.00
G01 X14.8000 Y-5.5840 F120.00
G01 X14.8045 Y-5.5702 F120.00
G01 X14.8080 Y-5.5561 F120.00
G01 X14.8104 Y-5.5418 F120.00
G01 X14.8118 Y-5.5273 F120.00
G01 X14.8119 Y-5.5080 F120.00
G01 X14.8107 Y-5.4935 F120.00
G01 X14.7984 Y-5.4089 F120.00
G01 X14.7950 Y-5.3947 F120.00
G01 X14.7890 Y-5.3763 F120.00
G01 X14.7833 Y-5.3630 F120.00
G01 X14.7766 Y-5.3501 F120.00
G01 X14.7690 Y-5.3377 F120.00
G01 X14.7574 Y-5.3222 F120.00
G01 X14.7046 Y-5.2612 F120.00
G01 X14.6909 Y-5.2475 F120.00
G01 X14.6797 Y-5.2382 F120.00
G01 X14.6719 Y-5.2325 F120.00
G01 X14.6597 Y-5.2246 F120.00
G01 X14.6512 Y-5.2199 F120.00
G01 X14.6381 Y-5.2136 F120.00
G01 X14.6292 Y-5.2100 F120.00
G01 X14.6154 Y-5.2054 F120.00
G01 X14.5428 Y-5.1841 F120.00
G01 X14.5292 Y-5.1810 F120.00
G01 X14.5155 Y-5.1789 F120.00
G01 X14.5016 Y-5.1777 F120.00
G01 X14.4923 Y-5.1775 F120.00
G01 X12.5479 Y-5.1776 F120.00
G01 X12.5340 Y-5.1784 F120.00
G01 X12.5156 Y-5.1810 F120.00
G01 X12.4492 Y-5.1957 F120.00
G01 X12.4353 Y-5.2000 F120.00
G01 X12.4173 Y-5.2074 F120.00
G01 X12.4043 Y-5.2141 F120.00
G01 X12.3918 Y-5.2217 F120.00
G01 X12.3762 Y-5.2334 F120.00
G01 X12.3188 Y-5.2830 F120.00
G01 X12.3082 Y-5.2929 F120.00
G01 X12.2983 Y-5.3036 F120.00
G01 X12.2865 Y-5.3189 F120.00
G01 X12.2762 Y-5.3353 F120.00
G01 X12.2676 Y-5.3527 F120.00
G01 X12.2640 Y-5.3617 F120.00
G01 X12.2594 Y-5.3754 F120.00
G01 X12.2394 Y-5.4436 F120.00
G01 X12.2360 Y-5.4571 F120.00
G01 X12.2342 Y-5.4662 F120.00
G01 X12.2324 Y-5.4800 F120.00
G01 X12.2317 Y-5.4892 F120.00
G01 X12.2315 Y-5.5016 F120.00
G01 X12.2285 Y-5.5289 F120.00
G01 X12.2167 Y-5.5610 F120.00
G01 X12.2077 Y-5.5922 F120.00
G01 X12.2042 Y-5.6105 F120.00
G01 X12.2031 Y-5.6198 F120.00
G01 X12.2023 Y-5.6337 F120.00
G01 X12.2028 Y-5.6524 F120.00
G01 X12.2080 Y-5.7232 F120.00
G01 X12.2095 Y-5.7370 F120.00
G01 X12.2120 Y-5.7507 F120.00
G01 X12.2154 Y-5.7642 F120.00
G01 X12.2183 Y-5.7730 F120.00
G01 X12.2280 Y-5.7993 F120.00
G01 X12.2310 Y-5.8265 F120.00
G01 X12.2310 Y-6.2150 F120.00
G01 X12.1130 Y-6.2150 F120.00
G01 X12.1129 Y-5.8592 F120.00
G01 X12.1125 Y-5.8497 F120.00
G01 X12.1109 Y-5.8354 F120.00
G01 X12.1083 Y-5.8213 F120.00
G01 X12.1059 Y-5.8120 F120.00
G01 X12.1016 Y-5.7983 F120.00
G01 X12.0963 Y-5.7850 F120.00
G01 X12.0900 Y-5.7721 F120.00
G01 X12.0827 Y-5.7597 F120.00
G01 X12.0774 Y-5.7517 F120.00
G01 X12.0687 Y-5.7403 F120.00
G01 X12.0592 Y-5.7295 F120.00
G01 X12.0490 Y-5.7195 F120.00
G01 X12.0380 Y-5.7103 F120.00
G01 X12.0263 Y-5.7019 F120.00
G01 X12.0141 Y-5.6943 F120.00
G01 X12.0057 Y-5.6898 F120.00
G01 X11.9926 Y-5.6838 F120.00
G01 X11.9792 Y-5.6788 F120.00
G01 X11.9654 Y-5.6748 F120.00
G01 X11.9560 Y-5.6727 F120.00
G01 X11.9371 Y-5.6699 F120.00
G01 X11.9180 Y-5.6690 F120.00
G01 X9.4180 Y-5.6690 F120.00
G01 X9.4037 Y-5.6695 F120.00
G01 X9.3847 Y-5.6719 F120.00
G01 X9.3706 Y-5.6748 F120.00
G01 X9.3568 Y-5.6788 F120.00
G01 X9.3434 Y-5.6838 F120.00
G01 X9.3303 Y-5.6898 F120.00
G01 X9.3178 Y-5.6967 F120.00
G01 X9.3057 Y-5.7046 F120.00
G01 X9.2943 Y-5.7133 F120.00
G01 X9.2835 Y-5.7228 F120.00
G01 X9.2735 Y-5.7330 F120.00
G01 X9.2643 Y-5.7440 F120.00
G01 X9.2559 Y-5.7557 F120.00
G01 X9.2460 Y-5.7721 F120.00
G01 X9.2397 Y-5.7850 F120.00
G01 X9.2344 Y-5.7983 F120.00
G01 X9.2301 Y-5.8120 F120.00
G01 X9.2267 Y-5.8260 F120.00
G01 X9.2239 Y-5.8449 F120.00
G01 X9.2231 Y-5.8592 F120.00
G01 X9.2230 Y-6.2150 F120.00
G00 Z2.0000
G00 X9.1050 Y-7.5015
G01 F60.00
G01 Z-0.0500
G01 F120.00
G01 X9.1050 Y-7.1130 F120.00
G01 X9.2230 Y-7.1130 F120.00
G01 X9.2230 Y-7.4640 F120.00
G01 X9.2235 Y-7.4783 F120.00
G01 X9.2259 Y-7.4973 F120.00
G01 X9.2301 Y-7.5160 F120.00
G01 X9.2361 Y-7.5342 F120.00
G01 X9.2438 Y-7.5517 F120.00
G01 X9.2533 Y-7.5683 F120.00
G01 X9.2643 Y-7.5840 F120.00
G01 X9.2768 Y-7.5985 F120.00
G01 X9.2906 Y-7.6117 F120.00
G01 X9.2980 Y-7.6177 F120.00
G01 X9.3097 Y-7.6261 F120.00
G01 X9.3219 Y-7.6337 F120.00
G01 X9.3346 Y-7.6403 F120.00
G01 X9.3478 Y-7.6459 F120.00
G01 X9.3614 Y-7.6506 F120.00
G01 X9.3706 Y-7.6532 F120.00
G01 X9.3847 Y-7.6561 F120.00
G01 X9.3989 Y-7.6581 F120.00
G01 X9.4132 Y-7.6589 F120.00
G01 X10.2190 Y-7.6590 F120.00
G01 X10.2190 Y-7.7770 F120.00
G01 X9.3805 Y-7.7770 F120.00
G01 X9.3533 Y-7.7740 F120.00
G01 X9.2661 Y-7.7414 F120.00
G01 X9.1944 Y-7.6876 F120.00
G01 X9.1406 Y-7.6159 F120.00
G01 X9.1080 Y-7.5287 F120.00
G01 X9.1050 Y-7.5015 F120.00
G00 Z2.0000
G00 X11.9555 Y-7.7770
G01 F60.00
G01 Z-0.0500
G01 F120.00
G01 X11.1170 Y-7.7770 F120.00
G01 X11.1170 Y-7.6590 F120.00
G01 X11.9228 Y-7.6589 F120.00
G01 X11.9371 Y-7.6581 F120.00
G01 X11.9466 Y-7.6569 F120.00
G01 X11.9654 Y-7.6532 F120.00
G01 X11.9792 Y-7.6492 F120.00
G01 X11.9882 Y-7.6459 F120.00
G01 X12.0057 Y-7.6382 F120.00
G01 X12.0223 Y-7.6287 F120.00
G01 X12.0342 Y-7.6206 F120.00
G01 X12.0417 Y-7.6147 F120.00
G01 X12.0490 Y-7.6085 F120.00
G01 X12.0592 Y-7.5985 F120.00
G01 X12.0717 Y-7.5840 F120.00
G01 X12.0774 Y-7.5763 F120.00
G01 X12.0853 Y-7.5642 F120.00
G01 X12.0922 Y-7.5517 F120.00
G01 X12.0963 Y-7.5430 F120.00
G01 X12.0999 Y-7.5342 F120.00
G01 X12.1046 Y-7.5206 F120.00
G01 X12.1093 Y-7.5020 F120.00
G01 X12.1121 Y-7.4831 F120.00
G01 X12.1130 Y-7.4640 F120.00
G01 X12.1130 Y-7.1130 F120.00
G01 X12.2310 Y-7.1130 F120.00
G01 X12.2310 Y-7.5015 F120.00
G01 X12.2280 Y-7.5287 F120.00
G01 X12.1954 Y-7.6159 F120.00
G01 X12.1416 Y-7.6876 F120.00
G01 X12.0699 Y-7.7414 F120.00
G01 X11.9827 Y-7.7740 F120.00
G01 X11.9555 Y-7.7770 F120.00
G00 Z2.0000
G00 X14.0432 Y-7.0990
G01 F60.00
G01 Z-0.0500
G01 F120.00
G01 X14.0400 Y-7.0591 F120.00
G01 X14.1618 Y-7.0591 F120.00
G01 X14.1703 Y-7.1167 F120.00
G01 X14.1730 Y-7.1308 F120.00
G01 X14.1991 Y-7.2353 F120.00
G01 X14.2035 Y-7.2490 F120.00
G01 X14.2365 Y-7.3414 F120.00
G01 X14.2436 Y-7.3585 F120.00
G01 X14.1531 Y-7.4489 F120.00
G01 X14.0914 Y-7.3000 F120.00
G01 X14.0432 Y-7.0990 F120.00
G00 Z2.0000
G00 X15.0613 Y-5.3339
G01 F60.00
G01 Z-0.0500
G01 F120.00
G01 X15.0608 Y-5.3321 F120.00
G01 X15.6277 Y-5.3321 F120.00
G01 X15.6212 Y-5.3526 F120.00
G01 X15.6181 Y-5.3638 F120.00
G01 X15.6127 Y-5.3865 F120.00
G01 X15.6085 Y-5.4093 F120.00
G01 X15.6068 Y-5.4208 F120.00
G01 X15.6039 Y-5.4487 F120.00
G01 X15.5107 Y-5.4349 F120.00
G01 X15.4879 Y-5.4321 F120.00
G01 X15.4650 Y-5.4304 F120.00
G01 X15.3670 Y-5.4256 F120.00
G01 X15.3440 Y-5.4250 F120.00
G01 X15.3210 Y-5.4256 F120.00
G01 X15.2230 Y-5.4304 F120.00
G01 X15.2001 Y-5.4321 F120.00
G01 X15.1773 Y-5.4349 F120.00
G01 X15.0802 Y-5.4493 F120.00
G01 X15.0684 Y-5.3681 F120.00
G01 X15.0639 Y-5.3453 F120.00
G01 X15.0613 Y-5.3339 F120.00
G00 Z2.0000
G00 X16.5995 Y-6.4979
G01 F60.00
G01 Z-0.0500
G01 F120.00
G01 X16.4705 Y-6.4979 F120.00
G01 X16.4515 Y-6.4446 F120.00
G01 X16.4444 Y-6.4275 F120.00
G01 X16.5349 Y-6.3371 F120.00
G01 X16.5966 Y-6.4860 F120.00
G01 X16.5995 Y-6.4979 F120.00
G00 Z2.0000
G00 X16.4515 Y-7.3414
G01 F60.00
G01 Z-0.0500
G01 F120.00
G01 X16.4705 Y-7.2881 F120.00
G01 X16.5995 Y-7.2881 F120.00
G01 X16.5966 Y-7.3000 F120.00
G01 X16.5349 Y-7.4489 F120.00
G01 X16.4444 Y-7.3585 F120.00
G01 X16.4515 Y-7.3414 F120.00
G00 Z2.0000
G00 X20.5914 Y-6.4860
G01 F60.00
G01 Z-0.0500
G01 F120.00
G01 X20.6531 Y-6.3371 F120.00
G01 X20.7436 Y-6.4275 F120.00
G01 X20.7365 Y-6.4446 F120.00
G01 X20.7175 Y-6.4979 F120.00
G01 X20.5885 Y-6.4979 F120.00
G01 X20.5914 Y-6.4860 F120.00
G00 Z2.0000
G00 X20.7436 Y-7.3585
G01 F60.00
G01 Z-0.0500
G01 F120.00
G01 X20.6531 Y-7.4489 F120.00
G01 X20.5914 Y-7.3000 F120.00
G01 X20.5885 Y-7.2881 F120.00
G01 X20.7175 Y-7.2881 F120.00
G01 X20.7365 Y-7.3414 F120.00
G01 X20.7436 Y-7.3585 F120.00
G00 Z2.0000
G00 X21.5613 Y-5.3339
G01 F60.00
G01 Z-0.0500
G01 F120.00
G01 X21.5608 Y-5.3321 F120.00
G01 X22.1277 Y-5.3321 F120.00
G01 X22.1212 Y-5.3526 F120.00
G01 X22.1181 Y-5.3638 F120.00
G01 X22.1127 Y-5.3865 F120.00
G01 X22.1104 Y-5.3979 F120.00
G01 X22.1068 Y-5.4208 F120.00
G01 X22.1039 Y-5.4487 F120.00
G01 X22.0107 Y-5.4349 F120.00
G01 X21.9879 Y-5.4321 F120.00
G01 X21.9650 Y-5.4304 F120.00
G01 X21.8670 Y-5.4256 F120.00
G01 X21.8440 Y-5.4250 F120.00
G01 X21.8210 Y-5.4256 F120.00
G01 X21.7230 Y-5.4304 F120.00
G01 X21.7001 Y-5.4321 F120.00
G01 X21.6773 Y-5.4349 F120.00
G01 X21.5802 Y-5.4493 F120.00
G01 X21.5684 Y-5.3681 F120.00
G01 X21.5639 Y-5.3453 F120.00
G01 X21.5613 Y-5.3339 F120.00
G00 Z2.0000
G00 X22.0591 Y-3.9941
G01 F60.00
G01 Z-0.0500
G01 F120.00
G01 X22.0596 Y-3.9959 F120.00
G01 X12.3860 Y-3.9959 F120.00
G01 X12.3859 Y-3.8525 F120.00
G01 X12.3847 Y-3.8296 F120.00
G01 X12.3825 Y-3.8067 F120.00
G01 X12.3809 Y-3.7953 F120.00
G01 X12.3770 Y-3.7727 F120.00
G01 X12.3746 Y-3.7615 F120.00
G01 X12.3690 Y-3.7392 F120.00
G01 X12.3624 Y-3.7172 F120.00
G01 X12.3586 Y-3.7063 F120.00
G01 X12.3504 Y-3.6849 F120.00
G01 X12.3411 Y-3.6640 F120.00
G01 X12.3504 Y-3.6431 F120.00
G01 X12.3586 Y-3.6217 F120.00
G01 X12.3658 Y-3.5999 F120.00
G01 X12.3690 Y-3.5888 F120.00
G01 X12.3720 Y-3.5777 F120.00
G01 X12.3770 Y-3.5553 F120.00
G01 X12.3809 Y-3.5327 F120.00
G01 X12.3825 Y-3.5213 F120.00
G01 X12.3847 Y-3.4984 F120.00
G01 X12.3859 Y-3.4755 F120.00
G01 X12.3860 Y-3.3322 F120.00
G01 X14.2160 Y-3.3324 F120.00
G01 X14.2979 Y-3.4228 F120.00
G01 X14.3060 Y-3.4310 F120.00
G01 X14.3226 Y-3.4469 F120.00
G01 X14.3953 Y-3.5128 F120.00
G01 X14.4127 Y-3.5278 F120.00
G01 X14.4308 Y-3.5419 F120.00
G01 X14.5096 Y-3.6004 F120.00
G01 X14.5284 Y-3.6136 F120.00
G01 X14.5478 Y-3.6259 F120.00
G01 X14.6320 Y-3.6763 F120.00
G01 X14.6520 Y-3.6877 F120.00
G01 X14.6725 Y-3.6980 F120.00
G01 X14.7612 Y-3.7399 F120.00
G01 X14.7822 Y-3.7493 F120.00
G01 X14.8037 Y-3.7575 F120.00
G01 X14.8961 Y-3.7906 F120.00
G01 X14.9179 Y-3.7978 F120.00
G01 X14.9400 Y-3.8039 F120.00
G01 X15.0352 Y-3.8278 F120.00
G01 X15.0576 Y-3.8328 F120.00
G01 X15.0802 Y-3.8367 F120.00
G01 X15.1773 Y-3.8511 F120.00
G01 X15.2001 Y-3.8539 F120.00
G01 X15.2230 Y-3.8556 F120.00
G01 X15.3210 Y-3.8604 F120.00
G01 X15.3440 Y-3.8610 F120.00
G01 X15.3555 Y-3.8609 F120.00
G01 X15.4764 Y-3.8549 F120.00
G01 X15.4993 Y-3.8527 F120.00
G01 X15.5107 Y-3.8511 F120.00
G01 X15.6078 Y-3.8367 F120.00
G01 X15.6304 Y-3.8328 F120.00
G01 X15.6528 Y-3.8278 F120.00
G01 X15.7480 Y-3.8039 F120.00
G01 X15.7701 Y-3.7978 F120.00
G01 X15.7919 Y-3.7906 F120.00
G01 X15.8843 Y-3.7575 F120.00
G01 X15.9058 Y-3.7493 F120.00
G01 X15.9268 Y-3.7399 F120.00
G01 X16.0155 Y-3.6980 F120.00
G01 X16.0360 Y-3.6877 F120.00
G01 X16.0560 Y-3.6763 F120.00
G01 X16.1402 Y-3.6259 F120.00
G01 X16.1596 Y-3.6136 F120.00
G01 X16.1784 Y-3.6004 F120.00
G01 X16.2572 Y-3.5419 F120.00
G01 X16.2753 Y-3.5278 F120.00
G01 X16.2927 Y-3.5128 F120.00
G01 X16.3654 Y-3.4469 F120.00
G01 X16.3820 Y-3.4310 F120.00
G01 X16.3979 Y-3.4144 F120.00
G01 X16.4638 Y-3.3417 F120.00
G01 X16.4788 Y-3.3243 F120.00
G01 X16.4929 Y-3.3062 F120.00
G01 X16.5514 Y-3.2274 F120.00
G01 X16.5646 Y-3.2086 F120.00
G01 X16.5769 Y-3.1892 F120.00
G01 X16.6273 Y-3.1050 F120.00
G01 X16.6387 Y-3.0850 F120.00
G01 X16.6506 Y-3.0611 F120.00
G01 X20.5374 Y-3.0611 F120.00
G01 X20.5493 Y-3.0850 F120.00
G01 X20.5607 Y-3.1050 F120.00
G01 X20.6111 Y-3.1892 F120.00
G01 X20.6234 Y-3.2086 F120.00
G01 X20.6366 Y-3.2274 F120.00
G01 X20.6951 Y-3.3062 F120.00
G01 X20.7092 Y-3.3243 F120.00
G01 X20.7242 Y-3.3417 F120.00
G01 X20.7901 Y-3.4144 F120.00
G01 X20.8060 Y-3.4310 F120.00
G01 X20.8226 Y-3.4469 F120.00
G01 X20.9039 Y-3.5204 F120.00
G01 X20.9127 Y-3.5278 F120.00
G01 X20.9308 Y-3.5419 F120.00
G01 X21.0096 Y-3.6004 F120.00
G01 X21.0284 Y-3.6136 F120.00
G01 X21.0478 Y-3.6259 F120.00
G01 X21.1320 Y-3.6763 F120.00
G01 X21.1520 Y-3.6877 F120.00
G01 X21.1725 Y-3.6980 F120.00
G01 X21.2612 Y-3.7399 F120.00
G01 X21.2822 Y-3.7493 F120.00
G01 X21.3037 Y-3.7575 F120.00
G01 X21.3961 Y-3.7906 F120.00
G01 X21.4179 Y-3.7978 F120.00
G01 X21.4400 Y-3.8039 F120.00
G01 X21.5464 Y-3.8304 F120.00
G01 X21.5576 Y-3.8328 F120.00
G01 X21.5802 Y-3.8367 F120.00
G01 X21.6773 Y-3.8511 F120.00
G01 X21.7001 Y-3.8539 F120.00
G01 X21.7230 Y-3.8556 F120.00
G01 X21.8325 Y-3.8609 F120.00
G01 X21.8440 Y-3.8610 F120.00
G01 X21.8670 Y-3.8604 F120.00
G01 X21.9764 Y-3.8549 F120.00
G01 X21.9993 Y-3.8527 F120.00
G01 X22.0368 Y-3.8473 F120.00
G01 X22.0386 Y-3.8666 F120.00
G01 X22.0401 Y-3.8782 F120.00
G01 X22.0502 Y-3.9484 F120.00
G01 X22.0541 Y-3.9714 F120.00
G01 X22.0591 Y-3.9941 F120.00
G00 Z2.0000
G00 X20.7120 Y-3.7151
G01 F60.00
G01 Z-0.0500
G01 F120.00
G01 X20.7209 Y-3.7229 F120.00
G01 X16.4671 Y-3.7229 F120.00
G01 X16.5487 Y-3.6492 F120.00
G01 X16.5751 Y-3.6241 F120.00
G01 X16.6002 Y-3.5977 F120.00
G01 X16.6781 Y-3.5114 F120.00
G01 X16.7012 Y-3.4833 F120.00
G01 X16.7706 Y-3.3900 F120.00
G01 X16.7916 Y-3.3602 F120.00
G01 X16.8082 Y-3.3341 F120.00
G01 X20.3798 Y-3.3341 F120.00
G01 X20.3964 Y-3.3602 F120.00
G01 X20.4174 Y-3.3900 F120.00
G01 X20.4868 Y-3.4833 F120.00
G01 X20.5099 Y-3.5114 F120.00
G01 X20.5878 Y-3.5977 F120.00
G01 X20.6129 Y-3.6241 F120.00
G01 X20.6393 Y-3.6492 F120.00
G01 X20.7120 Y-3.7151 F120.00
G00 Z2.0000
G00 X23.0995 Y-6.4979
G01 F60.00
G01 Z-0.0500
G01 F120.00
G01 X22.9705 Y-6.4979 F120.00
G01 X22.9515 Y-6.4446 F120.00
G01 X22.9444 Y-6.4275 F120.00
G01 X23.0349 Y-6.3371 F120.00
G01 X23.0966 Y-6.4860 F120.00
G01 X23.0995 Y-6.4979 F120.00
G00 Z2.0000
G00 X22.9515 Y-7.3414
G01 F60.00
G01 Z-0.0500
G01 F120.00
G01 X22.9705 Y-7.2881 F120.00
G01 X23.0995 Y-7.2881 F120.00
G01 X23.0966 Y-7.3000 F120.00
G01 X23.0349 Y-7.4489 F120.00
G01 X22.9444 Y-7.3585 F120.00
G01 X22.9515 Y-7.3414 F120.00
G00 Z2.0000
G00 X24.9116 Y-7.3585
G01 F60.00
G01 Z-0.0500
G01 F120.00
G01 X24.8211 Y-7.4489 F120.00
G01 X24.7594 Y-7.3000 F120.00
G01 X24.7565 Y-7.2881 F120.00
G01 X24.8855 Y-7.2881 F120.00
G01 X24.9045 Y-7.3414 F120.00
G01 X24.9116 Y-7.3585 F120.00
G00 Z2.0000
G00 X24.7594 Y-6.4860
G01 F60.00
G01 Z-0.0500
G01 F120.00
G01 X24.8211 Y-6.3371 F120.00
G01 X24.9116 Y-6.4275 F120.00
G01 X24.9045 Y-6.4446 F120.00
G01 X24.8855 Y-6.4979 F120.00
G01 X24.7565 Y-6.4979 F120.00
G01 X24.7594 Y-6.4860 F120.00
G00 Z2.0000
G00 X25.5465 Y-5.7926
G01 F60.00
G01 Z-0.0500
G01 F120.00
G01 X25.4561 Y-5.7021 F120.00
G01 X25.6050 Y-5.6404 F120.00
G01 X25.8060 Y-5.5922 F120.00
G01 X26.0120 Y-5.5759 F120.00
G01 X26.2180 Y-5.5922 F120.00
G01 X26.4190 Y-5.6404 F120.00
G01 X26.5679 Y-5.7021 F120.00
G01 X26.4775 Y-5.7926 F120.00
G01 X26.4604 Y-5.7855 F120.00
G01 X26.3589 Y-5.7495 F120.00
G01 X26.2451 Y-5.7210 F120.00
G01 X26.1291 Y-5.7038 F120.00
G01 X26.0120 Y-5.6980 F120.00
G01 X25.8949 Y-5.7038 F120.00
G01 X25.7789 Y-5.7210 F120.00
G01 X25.6651 Y-5.7495 F120.00
G01 X25.5636 Y-5.7855 F120.00
G01 X25.5465 Y-5.7926 F120.00
G00 Z2.0000
G00 X27.2675 Y-6.4979
G01 F60.00
G01 Z-0.0500
G01 F120.00
G01 X27.1385 Y-6.4979 F120.00
G01 X27.1195 Y-6.4446 F120.00
G01 X27.1124 Y-6.4275 F120.00
G01 X27.2029 Y-6.3371 F120.00
G01 X27.2646 Y-6.4860 F120.00
G01 X27.2675 Y-6.4979 F120.00
G00 Z2.0000
G00 X27.1195 Y-7.3414
G01 F60.00
G01 Z-0.0500
G01 F120.00
G01 X27.1385 Y-7.2881 F120.00
G01 X27.2675 Y-7.2881 F120.00
G01 X27.2646 Y-7.3000 F120.00
G01 X27.2029 Y-7.4489 F120.00
G01 X27.1124 Y-7.3585 F120.00
G01 X27.1195 Y-7.3414 F120.00
G00 Z2.0000
G00 X31.2594 Y-6.4860
G01 F60.00
G01 Z-0.0500
G01 F120.00
G01 X31.3211 Y-6.3371 F120.00
G01 X31.4116 Y-6.4275 F120.00
G01 X31.4045 Y-6.4446 F120.00
G01 X31.3855 Y-6.4979 F120.00
G01 X31.2565 Y-6.4979 F120.00
G01 X31.2594 Y-6.4860 F120.00
G00 Z2.0000
G00 X31.4116 Y-7.3585
G01 F60.00
G01 Z-0.0500
G01 F120.00
G01 X31.3211 Y-7.4489 F120.00
G01 X31.2594 Y-7.3000 F120.00
G01 X31.2565 Y-7.2881 F120.00
G01 X31.3855 Y-7.2881 F120.00
G01 X31.4045 Y-7.3414 F120.00
G01 X31.4116 Y-7.3585 F120.00
G00 Z2.0000
G00 X32.0465 Y-5.7926
G01 F60.00
G01 Z-0.0500
G01 F120.00
G01 X31.9561 Y-5.7021 F120.00
G01 X32.1050 Y-5.6404 F120.00
G01 X32.3060 Y-5.5922 F120.00
G01 X32.5120 Y-5.5759 F120.00
G01 X32.7180 Y-5.5922 F120.00
G01 X32.9190 Y-5.6404 F120.00
G01 X33.0679 Y-5.7021 F120.00
G01 X32.9775 Y-5.7926 F120.00
G01 X32.9604 Y-5.7855 F120.00
G01 X32.8589 Y-5.7495 F120.00
G01 X32.7451 Y-5.7210 F120.00
G01 X32.6291 Y-5.7038 F120.00
G01 X32.5120 Y-5.6980 F120.00
G01 X32.3949 Y-5.7038 F120.00
G01 X32.2789 Y-5.7210 F120.00
G01 X32.1651 Y-5.7495 F120.00
G01 X32.0636 Y-5.7855 F120.00
G01 X32.0465 Y-5.7926 F120.00
G00 Z2.0000
G00 X33.7029 Y-7.4489
G01 F60.00
G01 Z-0.0500
G01 F120.00
G01 X33.6124 Y-7.3585 F120.00
G01 X33.6195 Y-7.3414 F120.00
G01 X33.6555 Y-7.2399 F120.00
G01 X33.6840 Y-7.1261 F120.00
G01 X33.7012 Y-7.0101 F120.00
G01 X33.7070 Y-6.8930 F120.00
G01 X33.7012 Y-6.7759 F120.00
G01 X33.6840 Y-6.6599 F120.00
G01 X33.6555 Y-6.5461 F120.00
G01 X33.6195 Y-6.4446 F120.00
G01 X33.6124 Y-6.4275 F120.00
G01 X33.7029 Y-6.3371 F120.00
G01 X33.7646 Y-6.4860 F120.00
G01 X33.8128 Y-6.6870 F120.00
G01 X33.8291 Y-6.8930 F120.00
G01 X33.8128 Y-7.0990 F120.00
G01 X33.7646 Y-7.3000 F120.00
G01 X33.7029 Y-7.4489 F120.00
G00 Z2.0000
G00 X12.6368 Y-3.6840
G01 F60.00
G01 Z-0.0500
G01 F120.00
G01 X12.6315 Y-3.6640 F120.00
G01 X12.6368 Y-3.6440 F120.00
G01 X12.6410 Y-3.6264 F120.00
G01 X12.6454 Y-3.6052 F120.00
G01 X14.0949 Y-3.6054 F120.00
G01 X14.1129 Y-3.6241 F120.00
G01 X14.1259 Y-3.6368 F120.00
G01 X14.2209 Y-3.7229 F120.00
G01 X12.6454 Y-3.7229 F120.00
G01 X12.6410 Y-3.7016 F120.00
G01 X12.6368 Y-3.6840 F120.00
G00 Z2.0000
M05
G00 Z2.0000
G00 Z10.00
G00 X0.0 Y0.0


