(G-CODE GENERATED BY FLATCAM v8.994 - www.flatcam.org - Version Date: 2020/11/7)

(Name: button_pcb_kicad-PTH.drl_cnc)
(Type: G-code from Geometry)
(Units: MM)

(Created on Saturday, 28 January 2023 at 19:33)

(Specially modified by mattwach to work with the Sainsmart 3080 that I have.)


(TOOLS DIAMETER: )
(Tool: 1 -> Dia: 1.1)

(FEEDRATE Z: )
(Tool: 1 -> Feedrate: 300)

(FEEDRATE RAPIDS: )
(Tool: 1 -> Feedrate Rapids: 1500)

(Z_CUT: )
(Tool: 1 -> Z_Cut: -1.7)

(Tools Offset: )
(Tool: 1 -> Offset Z: 0.0)

(Z_MOVE: )
(Tool: 1 -> Z_Move: 2)

(Z Toolchange: 10.0 mm)
(X,Y Toolchange: 0.0000, 0.0000 mm)
(Z Start: None mm)
(Z End: 10.0 mm)
(X,Y End: 0.0000, 0.0000 mm)
(Steps per circle: 64)
(Preprocessor Excellon: default)

(X range:   14.7940 ...   33.0620  mm)
(Y range:   -7.4430 ...   -1.8430  mm)

(Spindle Speed: 10000 RPM)
G21
G90
G17
G94


G01 F300.00

M5             
G00 Z10.0000
G00 X0.0000 Y0.0000                
G00 Z10.0000
        
G01 F300.00
M03 S10000
G00 X15.3440 Y-2.3930
G01 Z-1.7000
G01 Z0
G00 Z2.0000
G00 X32.5120 Y-6.8930
G01 Z-1.7000
G01 Z0
G00 Z2.0000
G00 X32.5120 Y-2.3930
G01 Z-1.7000
G01 Z0
G00 Z2.0000
G00 X26.0120 Y-6.8930
G01 Z-1.7000
G01 Z0
G00 Z2.0000
G00 X26.0120 Y-2.3930
G01 Z-1.7000
G01 Z0
G00 Z2.0000
G00 X21.8440 Y-6.8930
G01 Z-1.7000
G01 Z0
G00 Z2.0000
G00 X21.8440 Y-2.3930
G01 Z-1.7000
G01 Z0
G00 Z2.0000
G00 X15.3440 Y-6.8930
G01 Z-1.7000
G01 Z0
G00 Z2.0000
M05
G00 Z10.00
G00 X0.0 Y0.0


