(G-CODE GENERATED BY FLATCAM v8.994 - www.flatcam.org - Version Date: 2020/11/7)

(Name: button_pcb_kicad-Edge_Cuts.gbr_cutout_cnc)
(Type: G-code from Geometry)
(Units: MM)

(Created on Saturday, 28 January 2023 at 19:32)

(Specially modified by mattwach to work with the Sainsmart 3080 that I have.)

(TOOL DIAMETER: 2.4 mm)
(Feedrate_XY: 120.0 mm/min)
(Feedrate_Z: 60.0 mm/min)
(Feedrate rapids 1500.0 mm/min)

(Z_Cut: -1.7 mm)
(DepthPerCut: 0.6 mm <=>3 passes)
(Z_Move: 2.0 mm)
(Z Start: None mm)
(Z End: 10.0 mm)
(X,Y End: 0.0000, 0.0000 mm)
(Steps per circle: 64)
(Preprocessor Geometry: default)

(X range:   -1.3750 ...   43.3750  mm)
(Y range:  -10.3750 ...    1.3750  mm)

(Spindle Speed: 10000.0 RPM)
G21
G90
G17
G94


G01 F120.00

M5             
G00 Z15.0000
G00 X0.0000 Y0.0000                
G00 Z15.0000
        
M03 S10000.0
G01 F120.00
G00 X-1.3735 Y-9.0638
G01 F60.00
G01 Z-0.6000
G01 F120.00
G01 X-1.3750 Y-9.0000 F120.00
G01 X-1.3750 Y-0.0000 F120.00
G01 X-1.3731 Y0.0711 F120.00
G01 X-1.3606 Y0.1981 F120.00
G01 X-1.3595 Y0.2054 F120.00
G01 X-1.3346 Y0.3305 F120.00
G01 X-1.3328 Y0.3377 F120.00
G01 X-1.2958 Y0.4597 F120.00
G01 X-1.2933 Y0.4667 F120.00
G01 X-1.2445 Y0.5845 F120.00
G01 X-1.2414 Y0.5912 F120.00
G01 X-1.1812 Y0.7037 F120.00
G01 X-1.1774 Y0.7100 F120.00
G01 X-1.1066 Y0.8161 F120.00
G01 X-1.1022 Y0.8220 F120.00
G01 X-1.0212 Y0.9206 F120.00
G01 X-1.0163 Y0.9261 F120.00
G01 X-0.9261 Y1.0163 F120.00
G01 X-0.9206 Y1.0212 F120.00
G01 X-0.8220 Y1.1022 F120.00
G01 X-0.8161 Y1.1066 F120.00
G01 X-0.7100 Y1.1774 F120.00
G01 X-0.7037 Y1.1812 F120.00
G01 X-0.5912 Y1.2414 F120.00
G01 X-0.5845 Y1.2445 F120.00
G01 X-0.4667 Y1.2933 F120.00
G01 X-0.4597 Y1.2958 F120.00
G01 X-0.3377 Y1.3328 F120.00
G01 X-0.3305 Y1.3346 F120.00
G01 X-0.2054 Y1.3595 F120.00
G01 X-0.1981 Y1.3606 F120.00
G01 X-0.0711 Y1.3731 F120.00
G01 X0.0000 Y1.3750 F120.00
G01 X42.0000 Y1.3750 F120.00
G01 X42.0711 Y1.3731 F120.00
G01 X42.1981 Y1.3606 F120.00
G01 X42.2054 Y1.3595 F120.00
G01 X42.3305 Y1.3346 F120.00
G01 X42.3377 Y1.3328 F120.00
G01 X42.4597 Y1.2958 F120.00
G01 X42.4667 Y1.2933 F120.00
G01 X42.5845 Y1.2445 F120.00
G01 X42.5912 Y1.2414 F120.00
G01 X42.7037 Y1.1812 F120.00
G01 X42.7100 Y1.1774 F120.00
G01 X42.8161 Y1.1066 F120.00
G01 X42.8220 Y1.1022 F120.00
G01 X42.9206 Y1.0212 F120.00
G01 X42.9261 Y1.0163 F120.00
G01 X43.0163 Y0.9261 F120.00
G01 X43.0212 Y0.9206 F120.00
G01 X43.1022 Y0.8220 F120.00
G01 X43.1066 Y0.8161 F120.00
G01 X43.1774 Y0.7100 F120.00
G01 X43.1812 Y0.7037 F120.00
G01 X43.2414 Y0.5912 F120.00
G01 X43.2445 Y0.5845 F120.00
G01 X43.2933 Y0.4667 F120.00
G01 X43.2958 Y0.4597 F120.00
G01 X43.3328 Y0.3377 F120.00
G01 X43.3346 Y0.3305 F120.00
G01 X43.3595 Y0.2054 F120.00
G01 X43.3606 Y0.1981 F120.00
G01 X43.3731 Y0.0711 F120.00
G01 X43.3750 Y-0.0000 F120.00
G01 X43.3750 Y-9.0000 F120.00
G01 X43.3731 Y-9.0711 F120.00
G01 X43.3606 Y-9.1981 F120.00
G01 X43.3595 Y-9.2054 F120.00
G01 X43.3346 Y-9.3305 F120.00
G01 X43.3328 Y-9.3377 F120.00
G01 X43.2958 Y-9.4597 F120.00
G01 X43.2933 Y-9.4667 F120.00
G01 X43.2445 Y-9.5845 F120.00
G01 X43.2414 Y-9.5912 F120.00
G01 X43.1812 Y-9.7037 F120.00
G01 X43.1774 Y-9.7100 F120.00
G01 X43.1066 Y-9.8161 F120.00
G01 X43.1022 Y-9.8220 F120.00
G01 X43.0212 Y-9.9206 F120.00
G01 X43.0163 Y-9.9261 F120.00
G01 X42.9261 Y-10.0163 F120.00
G01 X42.9206 Y-10.0212 F120.00
G01 X42.8220 Y-10.1022 F120.00
G01 X42.8161 Y-10.1066 F120.00
G01 X42.7100 Y-10.1774 F120.00
G01 X42.7037 Y-10.1812 F120.00
G01 X42.5912 Y-10.2414 F120.00
G01 X42.5845 Y-10.2445 F120.00
G01 X42.4667 Y-10.2933 F120.00
G01 X42.4597 Y-10.2958 F120.00
G01 X42.3377 Y-10.3328 F120.00
G01 X42.3305 Y-10.3346 F120.00
G01 X42.2054 Y-10.3595 F120.00
G01 X42.1981 Y-10.3606 F120.00
G01 X42.0711 Y-10.3731 F120.00
G01 X42.0000 Y-10.3750 F120.00
G01 X0.0000 Y-10.3750 F120.00
G01 X-0.0638 Y-10.3735 F120.00
G01 X-0.0711 Y-10.3731 F120.00
G01 X-0.1981 Y-10.3606 F120.00
G01 X-0.2054 Y-10.3595 F120.00
G01 X-0.3305 Y-10.3346 F120.00
G01 X-0.3377 Y-10.3328 F120.00
G01 X-0.4597 Y-10.2958 F120.00
G01 X-0.4667 Y-10.2933 F120.00
G01 X-0.5845 Y-10.2445 F120.00
G01 X-0.5912 Y-10.2414 F120.00
G01 X-0.7037 Y-10.1812 F120.00
G01 X-0.7100 Y-10.1774 F120.00
G01 X-0.8161 Y-10.1066 F120.00
G01 X-0.8220 Y-10.1022 F120.00
G01 X-0.9206 Y-10.0212 F120.00
G01 X-0.9261 Y-10.0163 F120.00
G01 X-1.0163 Y-9.9261 F120.00
G01 X-1.0212 Y-9.9206 F120.00
G01 X-1.1022 Y-9.8220 F120.00
G01 X-1.1066 Y-9.8161 F120.00
G01 X-1.1774 Y-9.7100 F120.00
G01 X-1.1812 Y-9.7037 F120.00
G01 X-1.2414 Y-9.5912 F120.00
G01 X-1.2445 Y-9.5845 F120.00
G01 X-1.2933 Y-9.4667 F120.00
G01 X-1.2958 Y-9.4597 F120.00
G01 X-1.3328 Y-9.3377 F120.00
G01 X-1.3346 Y-9.3305 F120.00
G01 X-1.3595 Y-9.2054 F120.00
G01 X-1.3606 Y-9.1981 F120.00
G01 X-1.3731 Y-9.0711 F120.00
G01 X-1.3735 Y-9.0638 F120.00
G00 X-1.3735 Y-9.0638
G01 F60.00
G01 Z-1.2000
G01 F120.00
G01 X-1.3731 Y-9.0711 F120.00
G01 X-1.3606 Y-9.1981 F120.00
G01 X-1.3595 Y-9.2054 F120.00
G01 X-1.3346 Y-9.3305 F120.00
G01 X-1.3328 Y-9.3377 F120.00
G01 X-1.2958 Y-9.4597 F120.00
G01 X-1.2933 Y-9.4667 F120.00
G01 X-1.2445 Y-9.5845 F120.00
G01 X-1.2414 Y-9.5912 F120.00
G01 X-1.1812 Y-9.7037 F120.00
G01 X-1.1774 Y-9.7100 F120.00
G01 X-1.1066 Y-9.8161 F120.00
G01 X-1.1022 Y-9.8220 F120.00
G01 X-1.0212 Y-9.9206 F120.00
G01 X-1.0163 Y-9.9261 F120.00
G01 X-0.9261 Y-10.0163 F120.00
G01 X-0.9206 Y-10.0212 F120.00
G01 X-0.8220 Y-10.1022 F120.00
G01 X-0.8161 Y-10.1066 F120.00
G01 X-0.7100 Y-10.1774 F120.00
G01 X-0.7037 Y-10.1812 F120.00
G01 X-0.5912 Y-10.2414 F120.00
G01 X-0.5845 Y-10.2445 F120.00
G01 X-0.4667 Y-10.2933 F120.00
G01 X-0.4597 Y-10.2958 F120.00
G01 X-0.3377 Y-10.3328 F120.00
G01 X-0.3305 Y-10.3346 F120.00
G01 X-0.2054 Y-10.3595 F120.00
G01 X-0.1981 Y-10.3606 F120.00
G01 X-0.0711 Y-10.3731 F120.00
G01 X-0.0638 Y-10.3735 F120.00
G01 X0.0000 Y-10.3750 F120.00
G01 X42.0000 Y-10.3750 F120.00
G01 X42.0711 Y-10.3731 F120.00
G01 X42.1981 Y-10.3606 F120.00
G01 X42.2054 Y-10.3595 F120.00
G01 X42.3305 Y-10.3346 F120.00
G01 X42.3377 Y-10.3328 F120.00
G01 X42.4597 Y-10.2958 F120.00
G01 X42.4667 Y-10.2933 F120.00
G01 X42.5845 Y-10.2445 F120.00
G01 X42.5912 Y-10.2414 F120.00
G01 X42.7037 Y-10.1812 F120.00
G01 X42.7100 Y-10.1774 F120.00
G01 X42.8161 Y-10.1066 F120.00
G01 X42.8220 Y-10.1022 F120.00
G01 X42.9206 Y-10.0212 F120.00
G01 X42.9261 Y-10.0163 F120.00
G01 X43.0163 Y-9.9261 F120.00
G01 X43.0212 Y-9.9206 F120.00
G01 X43.1022 Y-9.8220 F120.00
G01 X43.1066 Y-9.8161 F120.00
G01 X43.1774 Y-9.7100 F120.00
G01 X43.1812 Y-9.7037 F120.00
G01 X43.2414 Y-9.5912 F120.00
G01 X43.2445 Y-9.5845 F120.00
G01 X43.2933 Y-9.4667 F120.00
G01 X43.2958 Y-9.4597 F120.00
G01 X43.3328 Y-9.3377 F120.00
G01 X43.3346 Y-9.3305 F120.00
G01 X43.3595 Y-9.2054 F120.00
G01 X43.3606 Y-9.1981 F120.00
G01 X43.3731 Y-9.0711 F120.00
G01 X43.3750 Y-9.0000 F120.00
G01 X43.3750 Y-0.0000 F120.00
G01 X43.3731 Y0.0711 F120.00
G01 X43.3606 Y0.1981 F120.00
G01 X43.3595 Y0.2054 F120.00
G01 X43.3346 Y0.3305 F120.00
G01 X43.3328 Y0.3377 F120.00
G01 X43.2958 Y0.4597 F120.00
G01 X43.2933 Y0.4667 F120.00
G01 X43.2445 Y0.5845 F120.00
G01 X43.2414 Y0.5912 F120.00
G01 X43.1812 Y0.7037 F120.00
G01 X43.1774 Y0.7100 F120.00
G01 X43.1066 Y0.8161 F120.00
G01 X43.1022 Y0.8220 F120.00
G01 X43.0212 Y0.9206 F120.00
G01 X43.0163 Y0.9261 F120.00
G01 X42.9261 Y1.0163 F120.00
G01 X42.9206 Y1.0212 F120.00
G01 X42.8220 Y1.1022 F120.00
G01 X42.8161 Y1.1066 F120.00
G01 X42.7100 Y1.1774 F120.00
G01 X42.7037 Y1.1812 F120.00
G01 X42.5912 Y1.2414 F120.00
G01 X42.5845 Y1.2445 F120.00
G01 X42.4667 Y1.2933 F120.00
G01 X42.4597 Y1.2958 F120.00
G01 X42.3377 Y1.3328 F120.00
G01 X42.3305 Y1.3346 F120.00
G01 X42.2054 Y1.3595 F120.00
G01 X42.1981 Y1.3606 F120.00
G01 X42.0711 Y1.3731 F120.00
G01 X42.0000 Y1.3750 F120.00
G01 X0.0000 Y1.3750 F120.00
G01 X-0.0711 Y1.3731 F120.00
G01 X-0.1981 Y1.3606 F120.00
G01 X-0.2054 Y1.3595 F120.00
G01 X-0.3305 Y1.3346 F120.00
G01 X-0.3377 Y1.3328 F120.00
G01 X-0.4597 Y1.2958 F120.00
G01 X-0.4667 Y1.2933 F120.00
G01 X-0.5845 Y1.2445 F120.00
G01 X-0.5912 Y1.2414 F120.00
G01 X-0.7037 Y1.1812 F120.00
G01 X-0.7100 Y1.1774 F120.00
G01 X-0.8161 Y1.1066 F120.00
G01 X-0.8220 Y1.1022 F120.00
G01 X-0.9206 Y1.0212 F120.00
G01 X-0.9261 Y1.0163 F120.00
G01 X-1.0163 Y0.9261 F120.00
G01 X-1.0212 Y0.9206 F120.00
G01 X-1.1022 Y0.8220 F120.00
G01 X-1.1066 Y0.8161 F120.00
G01 X-1.1774 Y0.7100 F120.00
G01 X-1.1812 Y0.7037 F120.00
G01 X-1.2414 Y0.5912 F120.00
G01 X-1.2445 Y0.5845 F120.00
G01 X-1.2933 Y0.4667 F120.00
G01 X-1.2958 Y0.4597 F120.00
G01 X-1.3328 Y0.3377 F120.00
G01 X-1.3346 Y0.3305 F120.00
G01 X-1.3595 Y0.2054 F120.00
G01 X-1.3606 Y0.1981 F120.00
G01 X-1.3731 Y0.0711 F120.00
G01 X-1.3750 Y-0.0000 F120.00
G01 X-1.3750 Y-9.0000 F120.00
G01 X-1.3735 Y-9.0638 F120.00
G00 X-1.3735 Y-9.0638
G01 F60.00
G01 Z-1.7000
G01 F120.00
G01 X-1.3750 Y-9.0000 F120.00
G01 X-1.3750 Y-0.0000 F120.00
G01 X-1.3731 Y0.0711 F120.00
G01 X-1.3606 Y0.1981 F120.00
G01 X-1.3595 Y0.2054 F120.00
G01 X-1.3346 Y0.3305 F120.00
G01 X-1.3328 Y0.3377 F120.00
G01 X-1.2958 Y0.4597 F120.00
G01 X-1.2933 Y0.4667 F120.00
G01 X-1.2445 Y0.5845 F120.00
G01 X-1.2414 Y0.5912 F120.00
G01 X-1.1812 Y0.7037 F120.00
G01 X-1.1774 Y0.7100 F120.00
G01 X-1.1066 Y0.8161 F120.00
G01 X-1.1022 Y0.8220 F120.00
G01 X-1.0212 Y0.9206 F120.00
G01 X-1.0163 Y0.9261 F120.00
G01 X-0.9261 Y1.0163 F120.00
G01 X-0.9206 Y1.0212 F120.00
G01 X-0.8220 Y1.1022 F120.00
G01 X-0.8161 Y1.1066 F120.00
G01 X-0.7100 Y1.1774 F120.00
G01 X-0.7037 Y1.1812 F120.00
G01 X-0.5912 Y1.2414 F120.00
G01 X-0.5845 Y1.2445 F120.00
G01 X-0.4667 Y1.2933 F120.00
G01 X-0.4597 Y1.2958 F120.00
G01 X-0.3377 Y1.3328 F120.00
G01 X-0.3305 Y1.3346 F120.00
G01 X-0.2054 Y1.3595 F120.00
G01 X-0.1981 Y1.3606 F120.00
G01 X-0.0711 Y1.3731 F120.00
G01 X0.0000 Y1.3750 F120.00
G01 X42.0000 Y1.3750 F120.00
G01 X42.0711 Y1.3731 F120.00
G01 X42.1981 Y1.3606 F120.00
G01 X42.2054 Y1.3595 F120.00
G01 X42.3305 Y1.3346 F120.00
G01 X42.3377 Y1.3328 F120.00
G01 X42.4597 Y1.2958 F120.00
G01 X42.4667 Y1.2933 F120.00
G01 X42.5845 Y1.2445 F120.00
G01 X42.5912 Y1.2414 F120.00
G01 X42.7037 Y1.1812 F120.00
G01 X42.7100 Y1.1774 F120.00
G01 X42.8161 Y1.1066 F120.00
G01 X42.8220 Y1.1022 F120.00
G01 X42.9206 Y1.0212 F120.00
G01 X42.9261 Y1.0163 F120.00
G01 X43.0163 Y0.9261 F120.00
G01 X43.0212 Y0.9206 F120.00
G01 X43.1022 Y0.8220 F120.00
G01 X43.1066 Y0.8161 F120.00
G01 X43.1774 Y0.7100 F120.00
G01 X43.1812 Y0.7037 F120.00
G01 X43.2414 Y0.5912 F120.00
G01 X43.2445 Y0.5845 F120.00
G01 X43.2933 Y0.4667 F120.00
G01 X43.2958 Y0.4597 F120.00
G01 X43.3328 Y0.3377 F120.00
G01 X43.3346 Y0.3305 F120.00
G01 X43.3595 Y0.2054 F120.00
G01 X43.3606 Y0.1981 F120.00
G01 X43.3731 Y0.0711 F120.00
G01 X43.3750 Y-0.0000 F120.00
G01 X43.3750 Y-9.0000 F120.00
G01 X43.3731 Y-9.0711 F120.00
G01 X43.3606 Y-9.1981 F120.00
G01 X43.3595 Y-9.2054 F120.00
G01 X43.3346 Y-9.3305 F120.00
G01 X43.3328 Y-9.3377 F120.00
G01 X43.2958 Y-9.4597 F120.00
G01 X43.2933 Y-9.4667 F120.00
G01 X43.2445 Y-9.5845 F120.00
G01 X43.2414 Y-9.5912 F120.00
G01 X43.1812 Y-9.7037 F120.00
G01 X43.1774 Y-9.7100 F120.00
G01 X43.1066 Y-9.8161 F120.00
G01 X43.1022 Y-9.8220 F120.00
G01 X43.0212 Y-9.9206 F120.00
G01 X43.0163 Y-9.9261 F120.00
G01 X42.9261 Y-10.0163 F120.00
G01 X42.9206 Y-10.0212 F120.00
G01 X42.8220 Y-10.1022 F120.00
G01 X42.8161 Y-10.1066 F120.00
G01 X42.7100 Y-10.1774 F120.00
G01 X42.7037 Y-10.1812 F120.00
G01 X42.5912 Y-10.2414 F120.00
G01 X42.5845 Y-10.2445 F120.00
G01 X42.4667 Y-10.2933 F120.00
G01 X42.4597 Y-10.2958 F120.00
G01 X42.3377 Y-10.3328 F120.00
G01 X42.3305 Y-10.3346 F120.00
G01 X42.2054 Y-10.3595 F120.00
G01 X42.1981 Y-10.3606 F120.00
G01 X42.0711 Y-10.3731 F120.00
G01 X42.0000 Y-10.3750 F120.00
G01 X0.0000 Y-10.3750 F120.00
G01 X-0.0638 Y-10.3735 F120.00
G01 X-0.0711 Y-10.3731 F120.00
G01 X-0.1981 Y-10.3606 F120.00
G01 X-0.2054 Y-10.3595 F120.00
G01 X-0.3305 Y-10.3346 F120.00
G01 X-0.3377 Y-10.3328 F120.00
G01 X-0.4597 Y-10.2958 F120.00
G01 X-0.4667 Y-10.2933 F120.00
G01 X-0.5845 Y-10.2445 F120.00
G01 X-0.5912 Y-10.2414 F120.00
G01 X-0.7037 Y-10.1812 F120.00
G01 X-0.7100 Y-10.1774 F120.00
G01 X-0.8161 Y-10.1066 F120.00
G01 X-0.8220 Y-10.1022 F120.00
G01 X-0.9206 Y-10.0212 F120.00
G01 X-0.9261 Y-10.0163 F120.00
G01 X-1.0163 Y-9.9261 F120.00
G01 X-1.0212 Y-9.9206 F120.00
G01 X-1.1022 Y-9.8220 F120.00
G01 X-1.1066 Y-9.8161 F120.00
G01 X-1.1774 Y-9.7100 F120.00
G01 X-1.1812 Y-9.7037 F120.00
G01 X-1.2414 Y-9.5912 F120.00
G01 X-1.2445 Y-9.5845 F120.00
G01 X-1.2933 Y-9.4667 F120.00
G01 X-1.2958 Y-9.4597 F120.00
G01 X-1.3328 Y-9.3377 F120.00
G01 X-1.3346 Y-9.3305 F120.00
G01 X-1.3595 Y-9.2054 F120.00
G01 X-1.3606 Y-9.1981 F120.00
G01 X-1.3731 Y-9.0711 F120.00
G01 X-1.3735 Y-9.0638 F120.00
G00 Z2.0000
M05
G00 Z2.0000
G00 Z10.00
G00 X0.0 Y0.0


