(G-CODE GENERATED BY FLATCAM v8.994 - www.flatcam.org - Version Date: 2020/11/7)

(Name: led_matrix_64x32_kicad-F_Paste.gbr_edit_iso_combined_cnc)
(Type: G-code from Geometry)
(Units: MM)

(Created on Friday, 27 January 2023 at 10:36)

(Specially modified by mattwach to work with the Sainsmart 3080 that I have.)

(TOOL DIAMETER: 0.1 mm)
(Feedrate_XY: 300.0 mm/min)
(Feedrate_Z: 60.0 mm/min)
(Feedrate rapids 1500.0 mm/min)

(Z_Cut: -0.15 mm)
(Z_Move: 2.0 mm)
(Z Start: None mm)
(Z End: 10.0 mm)
(X,Y End: 0.0000, 0.0000 mm)
(Steps per circle: 64)
(Preprocessor Geometry: default)

(X range:   -0.1000 ...   70.2040  mm)
(Y range:  -62.0760 ...    0.1000  mm)

(Spindle Speed: 10000.0 RPM)
G21
G90
G17
G94


G01 F300.00

M5             
G00 Z15.0000
G00 X0.0000 Y0.0000                
G00 Z15.0000
        
M03 S10000.0
G01 F300.00
G00 X-0.1000 Y0.0012
G01 F60.00
G01 Z-0.1500
G01 F300.00
G01 X-0.1000 Y-61.9760 F300.00
G01 X-0.0995 Y-61.9858 F300.00
G01 X-0.0978 Y-61.9967 F300.00
G01 X-0.0953 Y-62.0062 F300.00
G01 X-0.0914 Y-62.0165 F300.00
G01 X-0.0882 Y-62.0232 F300.00
G01 X-0.0845 Y-62.0295 F300.00
G01 X-0.0788 Y-62.0375 F300.00
G01 X-0.0716 Y-62.0459 F300.00
G01 X-0.0644 Y-62.0525 F300.00
G01 X-0.0566 Y-62.0585 F300.00
G01 X-0.0493 Y-62.0630 F300.00
G01 X-0.0360 Y-62.0693 F300.00
G01 X-0.0290 Y-62.0717 F300.00
G01 X-0.0195 Y-62.0741 F300.00
G01 X-0.0098 Y-62.0755 F300.00
G01 X0.0000 Y-62.0760 F300.00
G01 X70.1040 Y-62.0760 F300.00
G01 X70.1138 Y-62.0755 F300.00
G01 X70.1247 Y-62.0738 F300.00
G01 X70.1342 Y-62.0713 F300.00
G01 X70.1445 Y-62.0674 F300.00
G01 X70.1533 Y-62.0630 F300.00
G01 X70.1596 Y-62.0592 F300.00
G01 X70.1655 Y-62.0548 F300.00
G01 X70.1739 Y-62.0476 F300.00
G01 X70.1805 Y-62.0404 F300.00
G01 X70.1865 Y-62.0326 F300.00
G01 X70.1910 Y-62.0253 F300.00
G01 X70.1973 Y-62.0120 F300.00
G01 X70.1997 Y-62.0050 F300.00
G01 X70.2021 Y-61.9955 F300.00
G01 X70.2035 Y-61.9858 F300.00
G01 X70.2040 Y-61.9760 F300.00
G01 X70.2040 Y-0.0000 F300.00
G01 X70.2035 Y0.0098 F300.00
G01 X70.2018 Y0.0207 F300.00
G01 X70.1993 Y0.0302 F300.00
G01 X70.1954 Y0.0405 F300.00
G01 X70.1910 Y0.0493 F300.00
G01 X70.1872 Y0.0556 F300.00
G01 X70.1828 Y0.0615 F300.00
G01 X70.1756 Y0.0698 F300.00
G01 X70.1684 Y0.0765 F300.00
G01 X70.1606 Y0.0825 F300.00
G01 X70.1533 Y0.0870 F300.00
G01 X70.1400 Y0.0933 F300.00
G01 X70.1330 Y0.0957 F300.00
G01 X70.1235 Y0.0981 F300.00
G01 X70.1138 Y0.0995 F300.00
G01 X70.1040 Y0.1000 F300.00
G01 X0.0000 Y0.1000 F300.00
G01 X-0.0098 Y0.0995 F300.00
G01 X-0.0195 Y0.0981 F300.00
G01 X-0.0290 Y0.0957 F300.00
G01 X-0.0383 Y0.0924 F300.00
G01 X-0.0472 Y0.0882 F300.00
G01 X-0.0556 Y0.0832 F300.00
G01 X-0.0635 Y0.0773 F300.00
G01 X-0.0707 Y0.0707 F300.00
G01 X-0.0773 Y0.0635 F300.00
G01 X-0.0832 Y0.0556 F300.00
G01 X-0.0882 Y0.0472 F300.00
G01 X-0.0924 Y0.0383 F300.00
G01 X-0.0957 Y0.0290 F300.00
G01 X-0.0981 Y0.0195 F300.00
G01 X-0.0995 Y0.0098 F300.00
G01 X-0.1000 Y0.0012 F300.00
G00 Z2.0000
G00 X26.4820 Y-31.3782
G01 F60.00
G01 Z-0.1500
G01 F300.00
G01 X26.4820 Y-32.3745 F300.00
G01 X26.4846 Y-32.4235 F300.00
G01 X26.4908 Y-32.4648 F300.00
G01 X26.5008 Y-32.5052 F300.00
G01 X26.5155 Y-32.5469 F300.00
G01 X26.5352 Y-32.5891 F300.00
G01 X26.5566 Y-32.6249 F300.00
G01 X26.5842 Y-32.6624 F300.00
G01 X26.6139 Y-32.6951 F300.00
G01 X26.6466 Y-32.7248 F300.00
G01 X26.6821 Y-32.7511 F300.00
G01 X26.7221 Y-32.7749 F300.00
G01 X26.7598 Y-32.7926 F300.00
G01 X26.7991 Y-32.8067 F300.00
G01 X26.8442 Y-32.8182 F300.00
G01 X26.8904 Y-32.8249 F300.00
G01 X26.9345 Y-32.8270 F300.00
G01 X27.9295 Y-32.8270 F300.00
G01 X27.9749 Y-32.8248 F300.00
G01 X28.0198 Y-32.8182 F300.00
G01 X28.0626 Y-32.8075 F300.00
G01 X28.1042 Y-32.7926 F300.00
G01 X28.1462 Y-32.7725 F300.00
G01 X28.1839 Y-32.7496 F300.00
G01 X28.2174 Y-32.7248 F300.00
G01 X28.2483 Y-32.6968 F300.00
G01 X28.2798 Y-32.6624 F300.00
G01 X28.3061 Y-32.6269 F300.00
G01 X28.3299 Y-32.5869 F300.00
G01 X28.3476 Y-32.5492 F300.00
G01 X28.3617 Y-32.5099 F300.00
G01 X28.3732 Y-32.4648 F300.00
G01 X28.3799 Y-32.4186 F300.00
G01 X28.3820 Y-32.3745 F300.00
G01 X28.3820 Y-31.3795 F300.00
G01 X28.3798 Y-31.3341 F300.00
G01 X28.3732 Y-31.2892 F300.00
G01 X28.3625 Y-31.2464 F300.00
G01 X28.3476 Y-31.2048 F300.00
G01 X28.3275 Y-31.1628 F300.00
G01 X28.3061 Y-31.1271 F300.00
G01 X28.2813 Y-31.0935 F300.00
G01 X28.2518 Y-31.0607 F300.00
G01 X28.2174 Y-31.0292 F300.00
G01 X28.1819 Y-31.0029 F300.00
G01 X28.1419 Y-30.9791 F300.00
G01 X28.1042 Y-30.9614 F300.00
G01 X28.0649 Y-30.9473 F300.00
G01 X28.0198 Y-30.9358 F300.00
G01 X27.9736 Y-30.9291 F300.00
G01 X27.9295 Y-30.9270 F300.00
G01 X26.9345 Y-30.9270 F300.00
G01 X26.8879 Y-30.9293 F300.00
G01 X26.8430 Y-30.9360 F300.00
G01 X26.8014 Y-30.9465 F300.00
G01 X26.7598 Y-30.9614 F300.00
G01 X26.7199 Y-30.9802 F300.00
G01 X26.6841 Y-31.0016 F300.00
G01 X26.6447 Y-31.0308 F300.00
G01 X26.6139 Y-31.0589 F300.00
G01 X26.5842 Y-31.0916 F300.00
G01 X26.5579 Y-31.1271 F300.00
G01 X26.5352 Y-31.1649 F300.00
G01 X26.5164 Y-31.2048 F300.00
G01 X26.5023 Y-31.2441 F300.00
G01 X26.4903 Y-31.2917 F300.00
G01 X26.4843 Y-31.3329 F300.00
G01 X26.4820 Y-31.3782 F300.00
G00 Z2.0000
G00 X26.4910 Y-39.2880
G01 F60.00
G01 Z-0.1500
G01 F300.00
G01 X26.4843 Y-39.3329 F300.00
G01 X26.4820 Y-39.3795 F300.00
G01 X26.4820 Y-40.3745 F300.00
G01 X26.4843 Y-40.4211 F300.00
G01 X26.4908 Y-40.4648 F300.00
G01 X26.5015 Y-40.5076 F300.00
G01 X26.5164 Y-40.5492 F300.00
G01 X26.5352 Y-40.5891 F300.00
G01 X26.5579 Y-40.6269 F300.00
G01 X26.5842 Y-40.6624 F300.00
G01 X26.6139 Y-40.6951 F300.00
G01 X26.6476 Y-40.7255 F300.00
G01 X26.6821 Y-40.7511 F300.00
G01 X26.7178 Y-40.7725 F300.00
G01 X26.7598 Y-40.7926 F300.00
G01 X26.8014 Y-40.8075 F300.00
G01 X26.8418 Y-40.8177 F300.00
G01 X26.8891 Y-40.8248 F300.00
G01 X26.9345 Y-40.8270 F300.00
G01 X27.9320 Y-40.8269 F300.00
G01 X27.9761 Y-40.8247 F300.00
G01 X28.0222 Y-40.8177 F300.00
G01 X28.0649 Y-40.8067 F300.00
G01 X28.1042 Y-40.7926 F300.00
G01 X28.1419 Y-40.7749 F300.00
G01 X28.1819 Y-40.7511 F300.00
G01 X28.2174 Y-40.7248 F300.00
G01 X28.2501 Y-40.6951 F300.00
G01 X28.2805 Y-40.6614 F300.00
G01 X28.3061 Y-40.6269 F300.00
G01 X28.3275 Y-40.5912 F300.00
G01 X28.3476 Y-40.5492 F300.00
G01 X28.3625 Y-40.5076 F300.00
G01 X28.3727 Y-40.4672 F300.00
G01 X28.3798 Y-40.4199 F300.00
G01 X28.3820 Y-40.3745 F300.00
G01 X28.3819 Y-39.3770 F300.00
G01 X28.3797 Y-39.3329 F300.00
G01 X28.3727 Y-39.2868 F300.00
G01 X28.3617 Y-39.2441 F300.00
G01 X28.3476 Y-39.2048 F300.00
G01 X28.3299 Y-39.1671 F300.00
G01 X28.3061 Y-39.1271 F300.00
G01 X28.2798 Y-39.0916 F300.00
G01 X28.2501 Y-39.0589 F300.00
G01 X28.2164 Y-39.0285 F300.00
G01 X28.1819 Y-39.0029 F300.00
G01 X28.1462 Y-38.9815 F300.00
G01 X28.1042 Y-38.9614 F300.00
G01 X28.0626 Y-38.9465 F300.00
G01 X28.0222 Y-38.9363 F300.00
G01 X27.9749 Y-38.9292 F300.00
G01 X27.9295 Y-38.9270 F300.00
G01 X26.9345 Y-38.9270 F300.00
G01 X26.8879 Y-38.9293 F300.00
G01 X26.8467 Y-38.9353 F300.00
G01 X26.7991 Y-38.9473 F300.00
G01 X26.7598 Y-38.9614 F300.00
G01 X26.7199 Y-38.9802 F300.00
G01 X26.6801 Y-39.0044 F300.00
G01 X26.6466 Y-39.0292 F300.00
G01 X26.6139 Y-39.0589 F300.00
G01 X26.5827 Y-39.0935 F300.00
G01 X26.5579 Y-39.1271 F300.00
G01 X26.5352 Y-39.1649 F300.00
G01 X26.5155 Y-39.2071 F300.00
G01 X26.5015 Y-39.2464 F300.00
G01 X26.4910 Y-39.2880 F300.00
G00 Z2.0000
G00 X63.5590 Y-42.0286
G01 F60.00
G01 Z-0.1500
G01 F300.00
G01 X63.5556 Y-42.0504 F300.00
G01 X63.5545 Y-42.0725 F300.00
G01 X63.5546 Y-43.0200 F300.00
G01 X63.5556 Y-43.0396 F300.00
G01 X63.5585 Y-43.0590 F300.00
G01 X63.5632 Y-43.0780 F300.00
G01 X63.5690 Y-43.0942 F300.00
G01 X63.5794 Y-43.1164 F300.00
G01 X63.5883 Y-43.1310 F300.00
G01 X63.6008 Y-43.1477 F300.00
G01 X63.6132 Y-43.1613 F300.00
G01 X63.6296 Y-43.1760 F300.00
G01 X63.6435 Y-43.1862 F300.00
G01 X63.6581 Y-43.1951 F300.00
G01 X63.6758 Y-43.2037 F300.00
G01 X63.6965 Y-43.2113 F300.00
G01 X63.7155 Y-43.2160 F300.00
G01 X63.7349 Y-43.2189 F300.00
G01 X63.7557 Y-43.2200 F300.00
G01 X64.4270 Y-43.2200 F300.00
G01 X64.4466 Y-43.2191 F300.00
G01 X64.4709 Y-43.2155 F300.00
G01 X64.4875 Y-43.2113 F300.00
G01 X64.5060 Y-43.2047 F300.00
G01 X64.5237 Y-43.1963 F300.00
G01 X64.5385 Y-43.1875 F300.00
G01 X64.5572 Y-43.1737 F300.00
G01 X64.5708 Y-43.1613 F300.00
G01 X64.5855 Y-43.1449 F300.00
G01 X64.5970 Y-43.1290 F300.00
G01 X64.6058 Y-43.1142 F300.00
G01 X64.6132 Y-43.0987 F300.00
G01 X64.6208 Y-43.0780 F300.00
G01 X64.6255 Y-43.0590 F300.00
G01 X64.6284 Y-43.0396 F300.00
G01 X64.6295 Y-43.0188 F300.00
G01 X64.6294 Y-42.0700 F300.00
G01 X64.6284 Y-42.0504 F300.00
G01 X64.6255 Y-42.0310 F300.00
G01 X64.6208 Y-42.0120 F300.00
G01 X64.6150 Y-41.9958 F300.00
G01 X64.6046 Y-41.9736 F300.00
G01 X64.5957 Y-41.9590 F300.00
G01 X64.5832 Y-41.9423 F300.00
G01 X64.5708 Y-41.9287 F300.00
G01 X64.5563 Y-41.9155 F300.00
G01 X64.5405 Y-41.9038 F300.00
G01 X64.5237 Y-41.8937 F300.00
G01 X64.5060 Y-41.8853 F300.00
G01 X64.4875 Y-41.8787 F300.00
G01 X64.4685 Y-41.8740 F300.00
G01 X64.4479 Y-41.8710 F300.00
G01 X64.4270 Y-41.8700 F300.00
G01 X63.7570 Y-41.8700 F300.00
G01 X63.7361 Y-41.8710 F300.00
G01 X63.7131 Y-41.8745 F300.00
G01 X63.6965 Y-41.8787 F300.00
G01 X63.6780 Y-41.8853 F300.00
G01 X63.6603 Y-41.8937 F300.00
G01 X63.6455 Y-41.9025 F300.00
G01 X63.6258 Y-41.9171 F300.00
G01 X63.6132 Y-41.9287 F300.00
G01 X63.6008 Y-41.9423 F300.00
G01 X63.5870 Y-41.9610 F300.00
G01 X63.5782 Y-41.9758 F300.00
G01 X63.5698 Y-41.9935 F300.00
G01 X63.5632 Y-42.0120 F300.00
G01 X63.5590 Y-42.0286 F300.00
G00 Z2.0000
G00 X65.6340 Y-42.0286
G01 F60.00
G01 Z-0.1500
G01 F300.00
G01 X65.6306 Y-42.0504 F300.00
G01 X65.6295 Y-42.0725 F300.00
G01 X65.6296 Y-43.0200 F300.00
G01 X65.6306 Y-43.0396 F300.00
G01 X65.6335 Y-43.0590 F300.00
G01 X65.6382 Y-43.0780 F300.00
G01 X65.6440 Y-43.0942 F300.00
G01 X65.6544 Y-43.1164 F300.00
G01 X65.6633 Y-43.1310 F300.00
G01 X65.6758 Y-43.1477 F300.00
G01 X65.6882 Y-43.1613 F300.00
G01 X65.7046 Y-43.1760 F300.00
G01 X65.7185 Y-43.1862 F300.00
G01 X65.7331 Y-43.1951 F300.00
G01 X65.7508 Y-43.2037 F300.00
G01 X65.7715 Y-43.2113 F300.00
G01 X65.7905 Y-43.2160 F300.00
G01 X65.8099 Y-43.2189 F300.00
G01 X65.8307 Y-43.2200 F300.00
G01 X66.5020 Y-43.2200 F300.00
G01 X66.5216 Y-43.2191 F300.00
G01 X66.5459 Y-43.2155 F300.00
G01 X66.5625 Y-43.2113 F300.00
G01 X66.5810 Y-43.2047 F300.00
G01 X66.5987 Y-43.1963 F300.00
G01 X66.6135 Y-43.1875 F300.00
G01 X66.6322 Y-43.1737 F300.00
G01 X66.6458 Y-43.1613 F300.00
G01 X66.6605 Y-43.1449 F300.00
G01 X66.6720 Y-43.1290 F300.00
G01 X66.6808 Y-43.1142 F300.00
G01 X66.6882 Y-43.0987 F300.00
G01 X66.6958 Y-43.0780 F300.00
G01 X66.7005 Y-43.0590 F300.00
G01 X66.7034 Y-43.0396 F300.00
G01 X66.7045 Y-43.0188 F300.00
G01 X66.7044 Y-42.0700 F300.00
G01 X66.7034 Y-42.0504 F300.00
G01 X66.7005 Y-42.0310 F300.00
G01 X66.6958 Y-42.0120 F300.00
G01 X66.6900 Y-41.9958 F300.00
G01 X66.6796 Y-41.9736 F300.00
G01 X66.6707 Y-41.9590 F300.00
G01 X66.6582 Y-41.9423 F300.00
G01 X66.6458 Y-41.9287 F300.00
G01 X66.6313 Y-41.9155 F300.00
G01 X66.6155 Y-41.9038 F300.00
G01 X66.5987 Y-41.8937 F300.00
G01 X66.5810 Y-41.8853 F300.00
G01 X66.5625 Y-41.8787 F300.00
G01 X66.5435 Y-41.8740 F300.00
G01 X66.5229 Y-41.8710 F300.00
G01 X66.5020 Y-41.8700 F300.00
G01 X65.8320 Y-41.8700 F300.00
G01 X65.8111 Y-41.8710 F300.00
G01 X65.7881 Y-41.8745 F300.00
G01 X65.7715 Y-41.8787 F300.00
G01 X65.7530 Y-41.8853 F300.00
G01 X65.7353 Y-41.8937 F300.00
G01 X65.7205 Y-41.9025 F300.00
G01 X65.7008 Y-41.9171 F300.00
G01 X65.6882 Y-41.9287 F300.00
G01 X65.6758 Y-41.9423 F300.00
G01 X65.6620 Y-41.9610 F300.00
G01 X65.6532 Y-41.9758 F300.00
G01 X65.6448 Y-41.9935 F300.00
G01 X65.6382 Y-42.0120 F300.00
G01 X65.6340 Y-42.0286 F300.00
G00 Z2.0000
G00 X65.9387 Y-46.2780
G01 F60.00
G01 Z-0.1500
G01 F300.00
G01 X65.9460 Y-46.2785 F300.00
G01 X66.2597 Y-46.2784 F300.00
G01 X66.2658 Y-46.2775 F300.00
G01 X66.2717 Y-46.2760 F300.00
G01 X66.2774 Y-46.2737 F300.00
G01 X66.2827 Y-46.2707 F300.00
G01 X66.2877 Y-46.2672 F300.00
G01 X66.2922 Y-46.2630 F300.00
G01 X66.2962 Y-46.2583 F300.00
G01 X66.2995 Y-46.2531 F300.00
G01 X66.3022 Y-46.2476 F300.00
G01 X66.3042 Y-46.2418 F300.00
G01 X66.3055 Y-46.2358 F300.00
G01 X66.3060 Y-46.2297 F300.00
G01 X66.3060 Y-45.7273 F300.00
G01 X66.3055 Y-45.7212 F300.00
G01 X66.3042 Y-45.7152 F300.00
G01 X66.3022 Y-45.7094 F300.00
G01 X66.2989 Y-45.7028 F300.00
G01 X66.2954 Y-45.6977 F300.00
G01 X66.2914 Y-45.6931 F300.00
G01 X66.2868 Y-45.6891 F300.00
G01 X66.2806 Y-45.6850 F300.00
G01 X66.2751 Y-45.6823 F300.00
G01 X66.2693 Y-45.6803 F300.00
G01 X66.2633 Y-45.6790 F300.00
G01 X66.2572 Y-45.6785 F300.00
G01 X65.9435 Y-45.6786 F300.00
G01 X65.9375 Y-45.6792 F300.00
G01 X65.9315 Y-45.6807 F300.00
G01 X65.9257 Y-45.6828 F300.00
G01 X65.9203 Y-45.6856 F300.00
G01 X65.9152 Y-45.6891 F300.00
G01 X65.9106 Y-45.6931 F300.00
G01 X65.9066 Y-45.6977 F300.00
G01 X65.9025 Y-45.7039 F300.00
G01 X65.8998 Y-45.7094 F300.00
G01 X65.8975 Y-45.7163 F300.00
G01 X65.8964 Y-45.7224 F300.00
G01 X65.8960 Y-45.7285 F300.00
G01 X65.8961 Y-46.2322 F300.00
G01 X65.8972 Y-46.2395 F300.00
G01 X65.8998 Y-46.2476 F300.00
G01 X65.9038 Y-46.2553 F300.00
G01 X65.9090 Y-46.2621 F300.00
G01 X65.9152 Y-46.2679 F300.00
G01 X65.9224 Y-46.2726 F300.00
G01 X65.9303 Y-46.2760 F300.00
G01 X65.9387 Y-46.2780 F300.00
G00 Z2.0000
G00 X64.9899 Y-46.2781
G01 F60.00
G01 Z-0.1500
G01 F300.00
G01 X64.9960 Y-46.2785 F300.00
G01 X65.3097 Y-46.2784 F300.00
G01 X65.3158 Y-46.2775 F300.00
G01 X65.3217 Y-46.2760 F300.00
G01 X65.3274 Y-46.2737 F300.00
G01 X65.3327 Y-46.2707 F300.00
G01 X65.3377 Y-46.2672 F300.00
G01 X65.3422 Y-46.2630 F300.00
G01 X65.3462 Y-46.2583 F300.00
G01 X65.3495 Y-46.2531 F300.00
G01 X65.3522 Y-46.2476 F300.00
G01 X65.3542 Y-46.2418 F300.00
G01 X65.3555 Y-46.2358 F300.00
G01 X65.3560 Y-46.2297 F300.00
G01 X65.3560 Y-45.7273 F300.00
G01 X65.3555 Y-45.7212 F300.00
G01 X65.3542 Y-45.7152 F300.00
G01 X65.3522 Y-45.7094 F300.00
G01 X65.3489 Y-45.7028 F300.00
G01 X65.3454 Y-45.6977 F300.00
G01 X65.3414 Y-45.6931 F300.00
G01 X65.3368 Y-45.6891 F300.00
G01 X65.3306 Y-45.6850 F300.00
G01 X65.3251 Y-45.6823 F300.00
G01 X65.3193 Y-45.6803 F300.00
G01 X65.3133 Y-45.6790 F300.00
G01 X65.3072 Y-45.6785 F300.00
G01 X64.9935 Y-45.6786 F300.00
G01 X64.9875 Y-45.6792 F300.00
G01 X64.9815 Y-45.6807 F300.00
G01 X64.9757 Y-45.6828 F300.00
G01 X64.9703 Y-45.6856 F300.00
G01 X64.9652 Y-45.6891 F300.00
G01 X64.9606 Y-45.6931 F300.00
G01 X64.9566 Y-45.6977 F300.00
G01 X64.9525 Y-45.7039 F300.00
G01 X64.9498 Y-45.7094 F300.00
G01 X64.9475 Y-45.7163 F300.00
G01 X64.9464 Y-45.7224 F300.00
G01 X64.9460 Y-45.7285 F300.00
G01 X64.9461 Y-46.2322 F300.00
G01 X64.9475 Y-46.2407 F300.00
G01 X64.9503 Y-46.2488 F300.00
G01 X64.9544 Y-46.2563 F300.00
G01 X64.9598 Y-46.2630 F300.00
G01 X64.9662 Y-46.2687 F300.00
G01 X64.9735 Y-46.2732 F300.00
G01 X64.9815 Y-46.2763 F300.00
G01 X64.9899 Y-46.2781 F300.00
G00 Z2.0000
G00 X64.0387 Y-46.2780
G01 F60.00
G01 Z-0.1500
G01 F300.00
G01 X64.0460 Y-46.2785 F300.00
G01 X64.3597 Y-46.2784 F300.00
G01 X64.3658 Y-46.2775 F300.00
G01 X64.3717 Y-46.2760 F300.00
G01 X64.3774 Y-46.2737 F300.00
G01 X64.3827 Y-46.2707 F300.00
G01 X64.3877 Y-46.2672 F300.00
G01 X64.3922 Y-46.2630 F300.00
G01 X64.3962 Y-46.2583 F300.00
G01 X64.3995 Y-46.2531 F300.00
G01 X64.4022 Y-46.2476 F300.00
G01 X64.4042 Y-46.2418 F300.00
G01 X64.4055 Y-46.2358 F300.00
G01 X64.4060 Y-46.2297 F300.00
G01 X64.4060 Y-45.7273 F300.00
G01 X64.4055 Y-45.7212 F300.00
G01 X64.4042 Y-45.7152 F300.00
G01 X64.4022 Y-45.7094 F300.00
G01 X64.3989 Y-45.7028 F300.00
G01 X64.3954 Y-45.6977 F300.00
G01 X64.3914 Y-45.6931 F300.00
G01 X64.3868 Y-45.6891 F300.00
G01 X64.3806 Y-45.6850 F300.00
G01 X64.3751 Y-45.6823 F300.00
G01 X64.3693 Y-45.6803 F300.00
G01 X64.3633 Y-45.6790 F300.00
G01 X64.3572 Y-45.6785 F300.00
G01 X64.0435 Y-45.6786 F300.00
G01 X64.0375 Y-45.6792 F300.00
G01 X64.0315 Y-45.6807 F300.00
G01 X64.0257 Y-45.6828 F300.00
G01 X64.0203 Y-45.6856 F300.00
G01 X64.0152 Y-45.6891 F300.00
G01 X64.0106 Y-45.6931 F300.00
G01 X64.0066 Y-45.6977 F300.00
G01 X64.0025 Y-45.7039 F300.00
G01 X63.9998 Y-45.7094 F300.00
G01 X63.9975 Y-45.7163 F300.00
G01 X63.9964 Y-45.7224 F300.00
G01 X63.9960 Y-45.7285 F300.00
G01 X63.9961 Y-46.2322 F300.00
G01 X63.9975 Y-46.2407 F300.00
G01 X64.0003 Y-46.2488 F300.00
G01 X64.0038 Y-46.2553 F300.00
G01 X64.0090 Y-46.2621 F300.00
G01 X64.0152 Y-46.2679 F300.00
G01 X64.0224 Y-46.2726 F300.00
G01 X64.0303 Y-46.2760 F300.00
G01 X64.0387 Y-46.2780 F300.00
G00 Z2.0000
G00 X64.0399 Y-48.5981
G01 F60.00
G01 Z-0.1500
G01 F300.00
G01 X64.0460 Y-48.5985 F300.00
G01 X64.3597 Y-48.5984 F300.00
G01 X64.3658 Y-48.5975 F300.00
G01 X64.3717 Y-48.5960 F300.00
G01 X64.3774 Y-48.5937 F300.00
G01 X64.3827 Y-48.5907 F300.00
G01 X64.3877 Y-48.5872 F300.00
G01 X64.3922 Y-48.5830 F300.00
G01 X64.3962 Y-48.5783 F300.00
G01 X64.3995 Y-48.5731 F300.00
G01 X64.4022 Y-48.5676 F300.00
G01 X64.4042 Y-48.5618 F300.00
G01 X64.4055 Y-48.5558 F300.00
G01 X64.4060 Y-48.5497 F300.00
G01 X64.4060 Y-48.0473 F300.00
G01 X64.4055 Y-48.0412 F300.00
G01 X64.4042 Y-48.0352 F300.00
G01 X64.4022 Y-48.0294 F300.00
G01 X64.3989 Y-48.0228 F300.00
G01 X64.3954 Y-48.0177 F300.00
G01 X64.3914 Y-48.0131 F300.00
G01 X64.3868 Y-48.0091 F300.00
G01 X64.3806 Y-48.0050 F300.00
G01 X64.3751 Y-48.0023 F300.00
G01 X64.3693 Y-48.0003 F300.00
G01 X64.3633 Y-47.9990 F300.00
G01 X64.3572 Y-47.9985 F300.00
G01 X64.0435 Y-47.9986 F300.00
G01 X64.0375 Y-47.9992 F300.00
G01 X64.0315 Y-48.0007 F300.00
G01 X64.0257 Y-48.0028 F300.00
G01 X64.0203 Y-48.0056 F300.00
G01 X64.0152 Y-48.0091 F300.00
G01 X64.0106 Y-48.0131 F300.00
G01 X64.0066 Y-48.0177 F300.00
G01 X64.0025 Y-48.0239 F300.00
G01 X63.9998 Y-48.0294 F300.00
G01 X63.9975 Y-48.0363 F300.00
G01 X63.9964 Y-48.0424 F300.00
G01 X63.9960 Y-48.0485 F300.00
G01 X63.9961 Y-48.5522 F300.00
G01 X63.9975 Y-48.5607 F300.00
G01 X64.0003 Y-48.5688 F300.00
G01 X64.0044 Y-48.5763 F300.00
G01 X64.0098 Y-48.5830 F300.00
G01 X64.0162 Y-48.5887 F300.00
G01 X64.0235 Y-48.5932 F300.00
G01 X64.0315 Y-48.5963 F300.00
G01 X64.0399 Y-48.5981 F300.00
G00 Z2.0000
G00 X65.9387 Y-48.5980
G01 F60.00
G01 Z-0.1500
G01 F300.00
G01 X65.9460 Y-48.5985 F300.00
G01 X66.2597 Y-48.5984 F300.00
G01 X66.2658 Y-48.5975 F300.00
G01 X66.2717 Y-48.5960 F300.00
G01 X66.2774 Y-48.5937 F300.00
G01 X66.2827 Y-48.5907 F300.00
G01 X66.2877 Y-48.5872 F300.00
G01 X66.2922 Y-48.5830 F300.00
G01 X66.2962 Y-48.5783 F300.00
G01 X66.2995 Y-48.5731 F300.00
G01 X66.3022 Y-48.5676 F300.00
G01 X66.3042 Y-48.5618 F300.00
G01 X66.3055 Y-48.5558 F300.00
G01 X66.3060 Y-48.5497 F300.00
G01 X66.3060 Y-48.0473 F300.00
G01 X66.3055 Y-48.0412 F300.00
G01 X66.3042 Y-48.0352 F300.00
G01 X66.3022 Y-48.0294 F300.00
G01 X66.2989 Y-48.0228 F300.00
G01 X66.2954 Y-48.0177 F300.00
G01 X66.2914 Y-48.0131 F300.00
G01 X66.2868 Y-48.0091 F300.00
G01 X66.2806 Y-48.0050 F300.00
G01 X66.2751 Y-48.0023 F300.00
G01 X66.2693 Y-48.0003 F300.00
G01 X66.2633 Y-47.9990 F300.00
G01 X66.2572 Y-47.9985 F300.00
G01 X65.9435 Y-47.9986 F300.00
G01 X65.9375 Y-47.9992 F300.00
G01 X65.9315 Y-48.0007 F300.00
G01 X65.9257 Y-48.0028 F300.00
G01 X65.9203 Y-48.0056 F300.00
G01 X65.9152 Y-48.0091 F300.00
G01 X65.9106 Y-48.0131 F300.00
G01 X65.9066 Y-48.0177 F300.00
G01 X65.9025 Y-48.0239 F300.00
G01 X65.8998 Y-48.0294 F300.00
G01 X65.8975 Y-48.0363 F300.00
G01 X65.8964 Y-48.0424 F300.00
G01 X65.8960 Y-48.0485 F300.00
G01 X65.8961 Y-48.5522 F300.00
G01 X65.8972 Y-48.5595 F300.00
G01 X65.8998 Y-48.5676 F300.00
G01 X65.9038 Y-48.5753 F300.00
G01 X65.9090 Y-48.5821 F300.00
G01 X65.9152 Y-48.5879 F300.00
G01 X65.9224 Y-48.5926 F300.00
G01 X65.9303 Y-48.5960 F300.00
G01 X65.9387 Y-48.5980 F300.00
G00 Z2.0000
G00 X65.7610 Y-55.3636
G01 F60.00
G01 Z-0.1500
G01 F300.00
G01 X65.7576 Y-55.3854 F300.00
G01 X65.7565 Y-55.4075 F300.00
G01 X65.7566 Y-56.3550 F300.00
G01 X65.7576 Y-56.3746 F300.00
G01 X65.7605 Y-56.3940 F300.00
G01 X65.7652 Y-56.4130 F300.00
G01 X65.7710 Y-56.4292 F300.00
G01 X65.7814 Y-56.4514 F300.00
G01 X65.7903 Y-56.4660 F300.00
G01 X65.8028 Y-56.4827 F300.00
G01 X65.8152 Y-56.4963 F300.00
G01 X65.8316 Y-56.5110 F300.00
G01 X65.8455 Y-56.5212 F300.00
G01 X65.8601 Y-56.5301 F300.00
G01 X65.8778 Y-56.5387 F300.00
G01 X65.8985 Y-56.5463 F300.00
G01 X65.9175 Y-56.5510 F300.00
G01 X65.9369 Y-56.5539 F300.00
G01 X65.9577 Y-56.5550 F300.00
G01 X66.6290 Y-56.5550 F300.00
G01 X66.6486 Y-56.5541 F300.00
G01 X66.6729 Y-56.5505 F300.00
G01 X66.6895 Y-56.5463 F300.00
G01 X66.7080 Y-56.5397 F300.00
G01 X66.7257 Y-56.5313 F300.00
G01 X66.7405 Y-56.5225 F300.00
G01 X66.7592 Y-56.5087 F300.00
G01 X66.7728 Y-56.4963 F300.00
G01 X66.7875 Y-56.4799 F300.00
G01 X66.7990 Y-56.4640 F300.00
G01 X66.8078 Y-56.4492 F300.00
G01 X66.8152 Y-56.4337 F300.00
G01 X66.8228 Y-56.4130 F300.00
G01 X66.8275 Y-56.3940 F300.00
G01 X66.8304 Y-56.3746 F300.00
G01 X66.8315 Y-56.3538 F300.00
G01 X66.8314 Y-55.4050 F300.00
G01 X66.8304 Y-55.3854 F300.00
G01 X66.8275 Y-55.3660 F300.00
G01 X66.8228 Y-55.3470 F300.00
G01 X66.8170 Y-55.3308 F300.00
G01 X66.8066 Y-55.3086 F300.00
G01 X66.7977 Y-55.2940 F300.00
G01 X66.7852 Y-55.2773 F300.00
G01 X66.7728 Y-55.2637 F300.00
G01 X66.7583 Y-55.2505 F300.00
G01 X66.7425 Y-55.2388 F300.00
G01 X66.7257 Y-55.2287 F300.00
G01 X66.7080 Y-55.2203 F300.00
G01 X66.6895 Y-55.2137 F300.00
G01 X66.6705 Y-55.2090 F300.00
G01 X66.6499 Y-55.2060 F300.00
G01 X66.6290 Y-55.2050 F300.00
G01 X65.9590 Y-55.2050 F300.00
G01 X65.9381 Y-55.2060 F300.00
G01 X65.9151 Y-55.2095 F300.00
G01 X65.8985 Y-55.2137 F300.00
G01 X65.8800 Y-55.2203 F300.00
G01 X65.8623 Y-55.2287 F300.00
G01 X65.8475 Y-55.2375 F300.00
G01 X65.8278 Y-55.2521 F300.00
G01 X65.8152 Y-55.2637 F300.00
G01 X65.8028 Y-55.2773 F300.00
G01 X65.7890 Y-55.2960 F300.00
G01 X65.7802 Y-55.3108 F300.00
G01 X65.7718 Y-55.3285 F300.00
G01 X65.7652 Y-55.3470 F300.00
G01 X65.7610 Y-55.3636 F300.00
G00 Z2.0000
G00 X63.6857 Y-55.3648
G01 F60.00
G01 Z-0.1500
G01 F300.00
G01 X63.6826 Y-55.3854 F300.00
G01 X63.6815 Y-55.4075 F300.00
G01 X63.6816 Y-56.3550 F300.00
G01 X63.6826 Y-56.3746 F300.00
G01 X63.6855 Y-56.3940 F300.00
G01 X63.6902 Y-56.4130 F300.00
G01 X63.6960 Y-56.4292 F300.00
G01 X63.7064 Y-56.4514 F300.00
G01 X63.7153 Y-56.4660 F300.00
G01 X63.7278 Y-56.4827 F300.00
G01 X63.7402 Y-56.4963 F300.00
G01 X63.7566 Y-56.5110 F300.00
G01 X63.7705 Y-56.5212 F300.00
G01 X63.7851 Y-56.5301 F300.00
G01 X63.8028 Y-56.5387 F300.00
G01 X63.8235 Y-56.5463 F300.00
G01 X63.8425 Y-56.5510 F300.00
G01 X63.8619 Y-56.5539 F300.00
G01 X63.8827 Y-56.5550 F300.00
G01 X64.5540 Y-56.5550 F300.00
G01 X64.5736 Y-56.5541 F300.00
G01 X64.5979 Y-56.5505 F300.00
G01 X64.6145 Y-56.5463 F300.00
G01 X64.6330 Y-56.5397 F300.00
G01 X64.6507 Y-56.5313 F300.00
G01 X64.6655 Y-56.5225 F300.00
G01 X64.6842 Y-56.5087 F300.00
G01 X64.6978 Y-56.4963 F300.00
G01 X64.7125 Y-56.4799 F300.00
G01 X64.7240 Y-56.4640 F300.00
G01 X64.7328 Y-56.4492 F300.00
G01 X64.7402 Y-56.4337 F300.00
G01 X64.7478 Y-56.4130 F300.00
G01 X64.7525 Y-56.3940 F300.00
G01 X64.7554 Y-56.3746 F300.00
G01 X64.7565 Y-56.3538 F300.00
G01 X64.7564 Y-55.4050 F300.00
G01 X64.7554 Y-55.3854 F300.00
G01 X64.7525 Y-55.3660 F300.00
G01 X64.7478 Y-55.3470 F300.00
G01 X64.7420 Y-55.3308 F300.00
G01 X64.7316 Y-55.3086 F300.00
G01 X64.7227 Y-55.2940 F300.00
G01 X64.7102 Y-55.2773 F300.00
G01 X64.6978 Y-55.2637 F300.00
G01 X64.6833 Y-55.2505 F300.00
G01 X64.6675 Y-55.2388 F300.00
G01 X64.6507 Y-55.2287 F300.00
G01 X64.6330 Y-55.2203 F300.00
G01 X64.6145 Y-55.2137 F300.00
G01 X64.5955 Y-55.2090 F300.00
G01 X64.5749 Y-55.2060 F300.00
G01 X64.5540 Y-55.2050 F300.00
G01 X63.8840 Y-55.2050 F300.00
G01 X63.8631 Y-55.2060 F300.00
G01 X63.8401 Y-55.2095 F300.00
G01 X63.8235 Y-55.2137 F300.00
G01 X63.8050 Y-55.2203 F300.00
G01 X63.7873 Y-55.2287 F300.00
G01 X63.7725 Y-55.2375 F300.00
G01 X63.7528 Y-55.2521 F300.00
G01 X63.7402 Y-55.2637 F300.00
G01 X63.7270 Y-55.2782 F300.00
G01 X63.7153 Y-55.2940 F300.00
G01 X63.7064 Y-55.3086 F300.00
G01 X63.6960 Y-55.3308 F300.00
G01 X63.6902 Y-55.3470 F300.00
G01 X63.6857 Y-55.3648 F300.00
G00 Z2.0000
M05
G00 Z2.0000
G00 Z10.00
G00 X0.0 Y0.0


