(G-CODE GENERATED BY FLATCAM v8.994 - www.flatcam.org - Version Date: 2020/11/7)

(Name: matrix_clock_kicad-B_Cu.gbr_iso_combined_cnc)
(Type: G-code from Geometry)
(Units: MM)

(Created on Sunday, 11 December 2022 at 06:48)

(Specially modified by mattwach to work with the Sainsmart 3080 that I have.)

(TOOL DIAMETER: 0.39 mm)
(Feedrate_XY: 120.0 mm/min)
(Feedrate_Z: 60.0 mm/min)
(Feedrate rapids 1500.0 mm/min)

(Z_Cut: -0.05 mm)
(Z_Move: 1.0 mm)
(Z Start: None mm)
(Z End: 15.0 mm)
(X,Y End: 0.0000, 0.0000 mm)
(Steps per circle: 64)
(Preprocessor Geometry: default)

(X range:   -0.2325 ...   54.8425  mm)
(Y range:  -63.7325 ...    0.2325  mm)

(Spindle Speed: 10000.0 RPM)
G21
G90
G17
G94


G01 F120.00

M5             
G00 Z15.0000
G00 X0.0000 Y0.0000                
(MSG, Change to Tool Dia = 0.3900)
G00 Z15.0000
        
M03 S10000.0
G01 F120.00
G00 X3.0492 Y-3.9597
G01 F60.00
G01 Z-0.0500
G01 F120.00
G01 X3.1122 Y-4.0625 F120.00
G01 X3.1898 Y-4.1535 F120.00
G01 X3.2857 Y-4.2348 F120.00
G01 X3.3855 Y-4.2960 F120.00
G01 X3.4971 Y-4.3422 F120.00
G01 X3.6146 Y-4.3704 F120.00
G01 X3.7338 Y-4.3798 F120.00
G01 X3.8591 Y-4.3695 F120.00
G01 X3.9744 Y-4.3416 F120.00
G01 X4.0845 Y-4.2960 F120.00
G01 X4.1875 Y-4.2328 F120.00
G01 X4.2785 Y-4.1552 F120.00
G01 X4.3598 Y-4.0593 F120.00
G01 X4.4210 Y-3.9595 F120.00
G01 X4.4672 Y-3.8479 F120.00
G01 X4.4954 Y-3.7304 F120.00
G01 X4.5049 Y-3.6100 F120.00
G01 X4.4954 Y-3.4896 F120.00
G01 X4.4715 Y-3.3901 F120.00
G01 X4.4672 Y-3.3721 F120.00
G01 X4.4210 Y-3.2605 F120.00
G01 X4.3578 Y-3.1575 F120.00
G01 X4.2802 Y-3.0665 F120.00
G01 X4.1852 Y-2.9860 F120.00
G01 X4.0811 Y-2.9226 F120.00
G01 X3.9729 Y-2.8778 F120.00
G01 X3.8554 Y-2.8496 F120.00
G01 X3.7362 Y-2.8402 F120.00
G01 X3.6109 Y-2.8505 F120.00
G01 X3.4956 Y-2.8784 F120.00
G01 X3.3855 Y-2.9240 F120.00
G01 X3.2825 Y-2.9872 F120.00
G01 X3.1915 Y-3.0648 F120.00
G01 X3.1102 Y-3.1607 F120.00
G01 X3.0478 Y-3.2635 F120.00
G01 X3.0028 Y-3.3721 F120.00
G01 X2.9746 Y-3.4896 F120.00
G01 X2.9652 Y-3.6088 F120.00
G01 X2.9755 Y-3.7341 F120.00
G01 X3.0041 Y-3.8510 F120.00
G01 X3.0492 Y-3.9597 F120.00
G00 Z1.0000
G00 X2.9970 Y-4.3480
G01 F60.00
G01 Z-0.0500
G01 F120.00
G01 X3.1215 Y-4.4544 F120.00
G01 X3.2612 Y-4.5400 F120.00
G01 X3.4125 Y-4.6026 F120.00
G01 X3.5717 Y-4.6409 F120.00
G01 X3.7350 Y-4.6537 F120.00
G01 X3.8983 Y-4.6409 F120.00
G01 X4.0575 Y-4.6026 F120.00
G01 X4.2088 Y-4.5400 F120.00
G01 X4.3485 Y-4.4544 F120.00
G01 X4.4730 Y-4.3480 F120.00
G01 X4.5794 Y-4.2235 F120.00
G01 X4.6650 Y-4.0838 F120.00
G01 X4.7276 Y-3.9325 F120.00
G01 X4.7594 Y-3.8002 F120.00
G01 X4.7659 Y-3.7733 F120.00
G01 X4.7787 Y-3.6100 F120.00
G01 X4.7659 Y-3.4467 F120.00
G01 X4.7370 Y-3.3264 F120.00
G01 X4.7276 Y-3.2875 F120.00
G01 X4.6650 Y-3.1362 F120.00
G01 X4.5794 Y-2.9965 F120.00
G01 X4.4730 Y-2.8720 F120.00
G01 X4.3485 Y-2.7656 F120.00
G01 X4.2088 Y-2.6800 F120.00
G01 X4.0575 Y-2.6174 F120.00
G01 X3.8983 Y-2.5791 F120.00
G01 X3.7350 Y-2.5663 F120.00
G01 X3.5717 Y-2.5791 F120.00
G01 X3.4125 Y-2.6174 F120.00
G01 X3.2612 Y-2.6800 F120.00
G01 X3.1215 Y-2.7656 F120.00
G01 X2.9970 Y-2.8720 F120.00
G01 X2.8906 Y-2.9965 F120.00
G01 X2.8050 Y-3.1362 F120.00
G01 X2.7424 Y-3.2875 F120.00
G01 X2.7041 Y-3.4467 F120.00
G01 X2.6913 Y-3.6100 F120.00
G01 X2.7041 Y-3.7733 F120.00
G01 X2.7424 Y-3.9325 F120.00
G01 X2.7976 Y-4.0659 F120.00
G01 X2.8050 Y-4.0838 F120.00
G01 X2.8906 Y-4.2235 F120.00
G01 X2.9970 Y-4.3480 F120.00
G00 Z1.0000
G00 X2.8033 Y-4.5417
G01 F60.00
G01 Z-0.0500
G01 F120.00
G01 X2.9606 Y-4.6759 F120.00
G01 X3.1368 Y-4.7840 F120.00
G01 X3.3278 Y-4.8631 F120.00
G01 X3.5289 Y-4.9113 F120.00
G01 X3.7350 Y-4.9276 F120.00
G01 X3.9411 Y-4.9113 F120.00
G01 X4.1422 Y-4.8631 F120.00
G01 X4.3332 Y-4.7840 F120.00
G01 X4.5094 Y-4.6759 F120.00
G01 X4.6667 Y-4.5417 F120.00
G01 X4.8009 Y-4.3844 F120.00
G01 X4.9090 Y-4.2082 F120.00
G01 X4.9881 Y-4.0172 F120.00
G01 X5.0248 Y-3.8640 F120.00
G01 X5.0363 Y-3.8161 F120.00
G01 X5.0526 Y-3.6100 F120.00
G01 X5.0363 Y-3.4039 F120.00
G01 X5.0024 Y-3.2626 F120.00
G01 X4.9881 Y-3.2029 F120.00
G01 X4.9090 Y-3.0118 F120.00
G01 X4.8009 Y-2.8356 F120.00
G01 X4.6667 Y-2.6783 F120.00
G01 X4.5094 Y-2.5441 F120.00
G01 X4.3332 Y-2.4360 F120.00
G01 X4.1422 Y-2.3569 F120.00
G01 X3.9411 Y-2.3087 F120.00
G01 X3.7350 Y-2.2924 F120.00
G01 X3.5289 Y-2.3087 F120.00
G01 X3.3278 Y-2.3569 F120.00
G01 X3.1368 Y-2.4360 F120.00
G01 X2.9606 Y-2.5441 F120.00
G01 X2.8033 Y-2.6783 F120.00
G01 X2.6691 Y-2.8356 F120.00
G01 X2.5610 Y-3.0118 F120.00
G01 X2.4819 Y-3.2029 F120.00
G01 X2.4380 Y-3.3857 F120.00
G01 X2.4337 Y-3.4039 F120.00
G01 X2.4174 Y-3.6100 F120.00
G01 X2.4337 Y-3.8161 F120.00
G01 X2.4819 Y-4.0172 F120.00
G01 X2.5454 Y-4.1703 F120.00
G01 X2.5610 Y-4.2082 F120.00
G01 X2.6691 Y-4.3844 F120.00
G01 X2.8033 Y-4.5417 F120.00
G00 Z1.0000
G00 X3.4009 Y-11.2059
G01 F60.00
G01 Z-0.0500
G01 F120.00
G01 X3.4029 Y-11.1917 F120.00
G01 X3.4058 Y-11.1776 F120.00
G01 X3.4098 Y-11.1638 F120.00
G01 X3.4148 Y-11.1504 F120.00
G01 X3.4208 Y-11.1373 F120.00
G01 X3.4277 Y-11.1248 F120.00
G01 X3.4356 Y-11.1127 F120.00
G01 X3.4443 Y-11.1013 F120.00
G01 X3.4538 Y-11.0905 F120.00
G01 X3.4640 Y-11.0805 F120.00
G01 X3.4750 Y-11.0713 F120.00
G01 X3.4867 Y-11.0629 F120.00
G01 X3.4989 Y-11.0553 F120.00
G01 X3.5116 Y-11.0487 F120.00
G01 X3.5248 Y-11.0431 F120.00
G01 X3.5384 Y-11.0384 F120.00
G01 X3.5476 Y-11.0358 F120.00
G01 X3.5617 Y-11.0329 F120.00
G01 X3.5759 Y-11.0309 F120.00
G01 X3.5902 Y-11.0301 F120.00
G01 X3.9960 Y-11.0300 F120.00
G01 X3.9960 Y-10.9120 F120.00
G01 X3.5575 Y-10.9120 F120.00
G01 X3.5303 Y-10.9150 F120.00
G01 X3.4431 Y-10.9476 F120.00
G01 X3.3714 Y-11.0014 F120.00
G01 X3.3176 Y-11.0731 F120.00
G01 X3.2850 Y-11.1603 F120.00
G01 X3.2820 Y-11.1875 F120.00
G01 X3.2820 Y-11.6260 F120.00
G01 X3.4000 Y-11.6260 F120.00
G01 X3.4000 Y-11.2250 F120.00
G01 X3.4009 Y-11.2059 F120.00
G00 Z1.0000
G00 X3.2820 Y-12.6085
G01 F60.00
G01 Z-0.0500
G01 F120.00
G01 X3.3665 Y-12.5240 F120.00
G01 X3.2820 Y-12.5240 F120.00
G01 X3.2820 Y-12.6085 F120.00
G00 Z1.0000
G00 X5.0214 Y-13.4135
G01 F60.00
G01 Z-0.0500
G01 F120.00
G01 X5.0252 Y-13.3930 F120.00
G01 X4.9385 Y-13.3930 F120.00
G01 X4.9599 Y-13.4019 F120.00
G01 X5.0190 Y-13.4296 F120.00
G01 X5.0214 Y-13.4135 F120.00
G00 Z1.0000
G00 X5.1770 Y-15.3605
G01 F60.00
G01 Z-0.0500
G01 F120.00
G01 X5.1873 Y-15.3505 F120.00
G01 X5.2238 Y-15.3103 F120.00
G01 X10.7898 Y-15.3102 F120.00
G01 X10.8531 Y-15.3069 F120.00
G01 X10.9112 Y-15.2985 F120.00
G01 X10.9300 Y-15.2948 F120.00
G01 X10.9868 Y-15.2803 F120.00
G01 X11.0511 Y-15.2573 F120.00
G01 X11.1042 Y-15.2325 F120.00
G01 X11.1211 Y-15.2234 F120.00
G01 X11.1713 Y-15.1931 F120.00
G01 X11.2261 Y-15.1524 F120.00
G01 X11.2766 Y-15.1066 F120.00
G01 X23.7830 Y-2.6003 F120.00
G01 X47.9720 Y-2.6003 F120.00
G01 X48.8347 Y-3.4630 F120.00
G01 X48.8347 Y-13.0470 F120.00
G01 X47.6868 Y-14.1950 F120.00
G01 X44.2254 Y-14.1952 F120.00
G01 X44.2111 Y-14.1965 F120.00
G01 X44.1923 Y-14.1997 F120.00
G01 X44.1738 Y-14.2048 F120.00
G01 X44.1560 Y-14.2117 F120.00
G01 X44.1389 Y-14.2203 F120.00
G01 X44.1267 Y-14.2279 F120.00
G01 X44.1113 Y-14.2393 F120.00
G01 X44.0971 Y-14.2521 F120.00
G01 X44.0843 Y-14.2663 F120.00
G01 X44.0729 Y-14.2817 F120.00
G01 X44.0630 Y-14.2981 F120.00
G01 X44.0548 Y-14.3154 F120.00
G01 X44.0484 Y-14.3334 F120.00
G01 X44.0437 Y-14.3520 F120.00
G01 X44.0415 Y-14.3661 F120.00
G01 X44.0401 Y-14.3852 F120.00
G01 X44.0402 Y-16.0996 F120.00
G01 X44.0409 Y-16.1091 F120.00
G01 X44.0429 Y-16.1233 F120.00
G01 X44.0458 Y-16.1374 F120.00
G01 X44.0498 Y-16.1512 F120.00
G01 X44.0548 Y-16.1646 F120.00
G01 X44.0587 Y-16.1734 F120.00
G01 X44.0653 Y-16.1861 F120.00
G01 X44.0729 Y-16.1983 F120.00
G01 X44.0813 Y-16.2100 F120.00
G01 X44.0905 Y-16.2210 F120.00
G01 X44.1005 Y-16.2312 F120.00
G01 X44.1076 Y-16.2377 F120.00
G01 X44.1150 Y-16.2437 F120.00
G01 X44.1267 Y-16.2521 F120.00
G01 X44.1389 Y-16.2597 F120.00
G01 X44.1473 Y-16.2642 F120.00
G01 X44.1648 Y-16.2719 F120.00
G01 X44.1784 Y-16.2766 F120.00
G01 X44.1876 Y-16.2792 F120.00
G01 X44.1970 Y-16.2813 F120.00
G01 X44.2111 Y-16.2835 F120.00
G01 X44.2207 Y-16.2845 F120.00
G01 X44.2350 Y-16.2850 F120.00
G01 X47.7350 Y-16.2850 F120.00
G01 X47.7493 Y-16.2845 F120.00
G01 X47.7636 Y-16.2829 F120.00
G01 X47.7730 Y-16.2813 F120.00
G01 X47.7870 Y-16.2779 F120.00
G01 X47.7962 Y-16.2752 F120.00
G01 X47.8096 Y-16.2702 F120.00
G01 X47.8227 Y-16.2642 F120.00
G01 X47.8311 Y-16.2597 F120.00
G01 X47.8393 Y-16.2547 F120.00
G01 X47.8512 Y-16.2466 F120.00
G01 X47.8587 Y-16.2407 F120.00
G01 X47.8695 Y-16.2312 F120.00
G01 X47.8762 Y-16.2245 F120.00
G01 X47.8857 Y-16.2137 F120.00
G01 X47.8944 Y-16.2023 F120.00
G01 X47.8997 Y-16.1943 F120.00
G01 X47.9047 Y-16.1861 F120.00
G01 X47.9113 Y-16.1734 F120.00
G01 X47.9186 Y-16.1557 F120.00
G01 X47.9229 Y-16.1420 F120.00
G01 X47.9263 Y-16.1280 F120.00
G01 X47.9285 Y-16.1139 F120.00
G01 X47.9298 Y-16.0996 F120.00
G01 X47.9300 Y-15.8642 F120.00
G01 X47.9485 Y-15.8554 F120.00
G01 X47.9569 Y-15.8508 F120.00
G01 X48.0032 Y-15.8232 F120.00
G01 X48.0152 Y-15.8154 F120.00
G01 X48.0661 Y-15.7774 F120.00
G01 X48.1132 Y-15.7350 F120.00
G01 X50.0250 Y-13.8232 F120.00
G01 X50.0674 Y-13.7761 F120.00
G01 X50.1026 Y-13.7291 F120.00
G01 X50.1132 Y-13.7132 F120.00
G01 X50.1432 Y-13.6627 F120.00
G01 X50.1723 Y-13.6011 F120.00
G01 X50.1923 Y-13.5459 F120.00
G01 X50.1979 Y-13.5276 F120.00
G01 X50.2098 Y-13.4800 F120.00
G01 X50.2128 Y-13.4659 F120.00
G01 X50.2219 Y-13.4031 F120.00
G01 X50.2253 Y-13.3350 F120.00
G01 X50.2253 Y-3.1750 F120.00
G01 X50.2226 Y-3.1164 F120.00
G01 X50.2207 Y-3.0974 F120.00
G01 X50.2119 Y-3.0394 F120.00
G01 X50.1966 Y-2.9778 F120.00
G01 X50.1923 Y-2.9641 F120.00
G01 X50.1723 Y-2.9089 F120.00
G01 X50.1475 Y-2.8558 F120.00
G01 X50.1384 Y-2.8389 F120.00
G01 X50.1081 Y-2.7887 F120.00
G01 X50.0733 Y-2.7415 F120.00
G01 X50.0644 Y-2.7303 F120.00
G01 X50.0282 Y-2.6903 F120.00
G01 X48.7482 Y-1.4100 F120.00
G01 X48.7011 Y-1.3676 F120.00
G01 X48.6463 Y-1.3269 F120.00
G01 X48.5877 Y-1.2918 F120.00
G01 X48.5348 Y-1.2666 F120.00
G01 X48.5216 Y-1.2609 F120.00
G01 X48.4709 Y-1.2427 F120.00
G01 X48.4526 Y-1.2371 F120.00
G01 X48.3956 Y-1.2231 F120.00
G01 X48.3376 Y-1.2143 F120.00
G01 X48.3234 Y-1.2127 F120.00
G01 X48.2600 Y-1.2097 F120.00
G01 X23.4950 Y-1.2097 F120.00
G01 X23.4364 Y-1.2124 F120.00
G01 X23.4174 Y-1.2143 F120.00
G01 X23.3594 Y-1.2231 F120.00
G01 X23.2978 Y-1.2384 F120.00
G01 X23.2841 Y-1.2427 F120.00
G01 X23.2289 Y-1.2627 F120.00
G01 X23.1758 Y-1.2875 F120.00
G01 X23.1589 Y-1.2966 F120.00
G01 X23.1087 Y-1.3269 F120.00
G01 X23.0615 Y-1.3617 F120.00
G01 X23.0467 Y-1.3738 F120.00
G01 X23.0034 Y-1.4134 F120.00
G01 X10.4970 Y-13.9197 F120.00
G01 X5.2238 Y-13.9197 F120.00
G01 X5.1905 Y-13.8830 F120.00
G01 X5.1805 Y-13.8727 F120.00
G01 X5.1116 Y-13.8103 F120.00
G01 X5.1004 Y-13.8013 F120.00
G01 X5.0295 Y-13.7488 F120.00
G01 X5.0175 Y-13.7410 F120.00
G01 X4.9376 Y-13.6934 F120.00
G01 X4.8493 Y-13.6514 F120.00
G01 X4.8360 Y-13.6461 F120.00
G01 X4.7483 Y-13.6150 F120.00
G01 X4.6489 Y-13.5901 F120.00
G01 X4.5474 Y-13.5750 F120.00
G01 X4.4450 Y-13.5700 F120.00
G01 X4.3426 Y-13.5750 F120.00
G01 X4.2411 Y-13.5901 F120.00
G01 X4.1417 Y-13.6150 F120.00
G01 X4.0451 Y-13.6495 F120.00
G01 X3.9524 Y-13.6934 F120.00
G01 X3.8644 Y-13.7461 F120.00
G01 X3.7821 Y-13.8072 F120.00
G01 X3.7061 Y-13.8761 F120.00
G01 X3.6372 Y-13.9521 F120.00
G01 X3.5761 Y-14.0344 F120.00
G01 X3.5234 Y-14.1224 F120.00
G01 X3.4795 Y-14.2151 F120.00
G01 X3.4450 Y-14.3117 F120.00
G01 X3.4201 Y-14.4111 F120.00
G01 X3.4050 Y-14.5126 F120.00
G01 X3.4000 Y-14.6150 F120.00
G01 X3.4050 Y-14.7174 F120.00
G01 X3.4201 Y-14.8189 F120.00
G01 X3.4450 Y-14.9183 F120.00
G01 X3.4795 Y-15.0149 F120.00
G01 X3.5234 Y-15.1076 F120.00
G01 X3.5761 Y-15.1956 F120.00
G01 X3.6372 Y-15.2779 F120.00
G01 X3.7061 Y-15.3539 F120.00
G01 X3.7821 Y-15.4228 F120.00
G01 X3.8644 Y-15.4839 F120.00
G01 X3.9524 Y-15.5366 F120.00
G01 X4.0451 Y-15.5805 F120.00
G01 X4.1417 Y-15.6150 F120.00
G01 X4.2411 Y-15.6399 F120.00
G01 X4.3426 Y-15.6550 F120.00
G01 X4.4450 Y-15.6600 F120.00
G01 X4.5474 Y-15.6550 F120.00
G01 X4.6489 Y-15.6399 F120.00
G01 X4.7483 Y-15.6150 F120.00
G01 X4.8449 Y-15.5805 F120.00
G01 X4.9376 Y-15.5366 F120.00
G01 X5.0256 Y-15.4839 F120.00
G01 X5.1079 Y-15.4228 F120.00
G01 X5.1770 Y-15.3605 F120.00
G00 Z1.0000
G00 X3.6901 Y-15.5054
G01 F60.00
G01 Z-0.0500
G01 F120.00
G01 X3.6914 Y-15.5067 F120.00
G01 X3.8575 Y-15.6252 F120.00
G01 X3.8692 Y-15.6342 F120.00
G01 X3.8802 Y-15.6441 F120.00
G01 X3.9075 Y-15.6707 F120.00
G01 X3.9174 Y-15.6810 F120.00
G01 X3.9292 Y-15.6958 F120.00
G01 X3.9396 Y-15.7116 F120.00
G01 X3.9464 Y-15.7241 F120.00
G01 X3.9522 Y-15.7371 F120.00
G01 X3.9807 Y-15.8125 F120.00
G01 X3.9837 Y-15.8217 F120.00
G01 X3.9873 Y-15.8358 F120.00
G01 X3.9904 Y-15.8549 F120.00
G01 X3.9913 Y-15.8645 F120.00
G01 X3.9917 Y-15.8791 F120.00
G01 X3.9910 Y-15.8936 F120.00
G01 X3.9899 Y-15.9032 F120.00
G01 X3.9874 Y-15.9175 F120.00
G01 X3.9716 Y-15.9917 F120.00
G01 X3.9662 Y-16.0102 F120.00
G01 X3.9589 Y-16.0282 F120.00
G01 X3.9499 Y-16.0454 F120.00
G01 X3.9421 Y-16.0576 F120.00
G01 X3.9334 Y-16.0692 F120.00
G01 X3.9238 Y-16.0801 F120.00
G01 X3.8705 Y-16.1340 F120.00
G01 X3.8568 Y-16.1466 F120.00
G01 X3.8420 Y-16.1578 F120.00
G01 X3.8302 Y-16.1652 F120.00
G01 X3.7989 Y-16.1826 F120.00
G01 X3.6488 Y-16.3011 F120.00
G01 X3.5200 Y-16.4427 F120.00
G01 X3.4161 Y-16.6033 F120.00
G01 X3.3398 Y-16.7788 F120.00
G01 X3.2932 Y-16.9643 F120.00
G01 X3.2770 Y-17.1606 F120.00
G01 X3.2782 Y-17.2064 F120.00
G01 X3.3039 Y-17.4017 F120.00
G01 X3.3595 Y-17.5848 F120.00
G01 X3.4443 Y-17.7563 F120.00
G01 X3.5559 Y-17.9117 F120.00
G01 X3.6914 Y-18.0467 F120.00
G01 X3.8654 Y-18.1711 F120.00
G01 X3.8766 Y-18.1807 F120.00
G01 X3.9075 Y-18.2107 F120.00
G01 X3.9142 Y-18.2175 F120.00
G01 X3.9235 Y-18.2283 F120.00
G01 X3.9292 Y-18.2358 F120.00
G01 X3.9372 Y-18.2476 F120.00
G01 X3.9420 Y-18.2558 F120.00
G01 X3.9485 Y-18.2684 F120.00
G01 X3.9540 Y-18.2815 F120.00
G01 X3.9823 Y-18.3571 F120.00
G01 X3.9873 Y-18.3758 F120.00
G01 X3.9904 Y-18.3949 F120.00
G01 X3.9917 Y-18.4142 F120.00
G01 X3.9910 Y-18.4336 F120.00
G01 X3.9892 Y-18.4480 F120.00
G01 X3.9874 Y-18.4575 F120.00
G01 X3.9726 Y-18.5269 F120.00
G01 X3.9677 Y-18.5457 F120.00
G01 X3.9609 Y-18.5638 F120.00
G01 X3.9523 Y-18.5812 F120.00
G01 X3.9421 Y-18.5976 F120.00
G01 X3.9334 Y-18.6092 F120.00
G01 X3.9204 Y-18.6236 F120.00
G01 X3.8705 Y-18.6740 F120.00
G01 X3.8568 Y-18.6866 F120.00
G01 X3.8458 Y-18.6951 F120.00
G01 X3.8342 Y-18.7028 F120.00
G01 X3.7989 Y-18.7226 F120.00
G01 X3.6488 Y-18.8411 F120.00
G01 X3.5200 Y-18.9827 F120.00
G01 X3.4161 Y-19.1433 F120.00
G01 X3.3398 Y-19.3188 F120.00
G01 X3.2932 Y-19.5043 F120.00
G01 X3.2770 Y-19.7006 F120.00
G01 X3.2782 Y-19.7464 F120.00
G01 X3.3039 Y-19.9417 F120.00
G01 X3.3595 Y-20.1248 F120.00
G01 X3.4443 Y-20.2963 F120.00
G01 X3.5559 Y-20.4517 F120.00
G01 X3.6914 Y-20.5867 F120.00
G01 X3.8472 Y-20.6978 F120.00
G01 X4.0190 Y-20.7820 F120.00
G01 X4.2023 Y-20.8370 F120.00
G01 X4.3920 Y-20.8613 F120.00
G01 X4.5832 Y-20.8543 F120.00
G01 X4.7707 Y-20.8161 F120.00
G01 X4.9495 Y-20.7479 F120.00
G01 X5.1146 Y-20.6514 F120.00
G01 X5.2619 Y-20.5291 F120.00
G01 X5.4041 Y-20.3653 F120.00
G01 X5.4144 Y-20.3553 F120.00
G01 X5.4244 Y-20.3469 F120.00
G01 X5.4443 Y-20.3282 F120.00
G01 X5.4516 Y-20.3220 F120.00
G01 X5.4632 Y-20.3133 F120.00
G01 X5.4754 Y-20.3055 F120.00
G01 X5.4881 Y-20.2986 F120.00
G01 X5.5013 Y-20.2927 F120.00
G01 X5.5148 Y-20.2878 F120.00
G01 X5.5965 Y-20.2640 F120.00
G01 X5.6148 Y-20.2605 F120.00
G01 X5.6286 Y-20.2590 F120.00
G01 X5.6379 Y-20.2586 F120.00
G01 X24.0298 Y-20.2587 F120.00
G01 X24.0436 Y-20.2599 F120.00
G01 X24.0574 Y-20.2620 F120.00
G01 X24.1143 Y-20.2743 F120.00
G01 X24.1284 Y-20.2780 F120.00
G01 X24.1423 Y-20.2827 F120.00
G01 X24.1557 Y-20.2884 F120.00
G01 X24.1687 Y-20.2951 F120.00
G01 X24.1812 Y-20.3027 F120.00
G01 X24.1930 Y-20.3113 F120.00
G01 X24.2005 Y-20.3175 F120.00
G01 X24.2578 Y-20.3672 F120.00
G01 X24.2715 Y-20.3810 F120.00
G01 X24.2837 Y-20.3960 F120.00
G01 X24.2944 Y-20.4121 F120.00
G01 X24.3034 Y-20.4293 F120.00
G01 X24.3106 Y-20.4472 F120.00
G01 X24.3360 Y-20.5335 F120.00
G01 X24.3395 Y-20.5517 F120.00
G01 X24.3413 Y-20.5702 F120.00
G01 X24.3415 Y-21.2076 F120.00
G01 X24.3445 Y-21.2349 F120.00
G01 X24.3772 Y-21.3221 F120.00
G01 X24.4394 Y-21.4055 F120.00
G01 X24.4566 Y-21.4326 F120.00
G01 X24.4651 Y-21.4491 F120.00
G01 X24.4720 Y-21.4664 F120.00
G01 X24.4773 Y-21.4842 F120.00
G01 X24.4934 Y-21.5581 F120.00
G01 X24.4959 Y-21.5724 F120.00
G01 X24.4976 Y-21.5917 F120.00
G01 X24.4977 Y-21.6062 F120.00
G01 X24.4966 Y-21.6207 F120.00
G01 X24.4936 Y-21.6398 F120.00
G01 X24.4900 Y-21.6539 F120.00
G01 X24.4871 Y-21.6632 F120.00
G01 X24.4589 Y-21.7386 F120.00
G01 X24.4553 Y-21.7471 F120.00
G01 X24.4490 Y-21.7595 F120.00
G01 X24.4394 Y-21.7754 F120.00
G01 X24.3776 Y-21.8581 F120.00
G01 X24.3450 Y-21.9453 F120.00
G01 X24.3420 Y-21.9725 F120.00
G01 X24.3420 Y-22.4110 F120.00
G01 X24.4600 Y-22.4110 F120.00
G01 X24.4601 Y-22.0052 F120.00
G01 X24.4605 Y-21.9957 F120.00
G01 X24.4621 Y-21.9814 F120.00
G01 X24.4647 Y-21.9673 F120.00
G01 X24.4671 Y-21.9580 F120.00
G01 X24.4714 Y-21.9443 F120.00
G01 X24.4767 Y-21.9310 F120.00
G01 X24.4830 Y-21.9181 F120.00
G01 X24.4903 Y-21.9057 F120.00
G01 X24.4984 Y-21.8938 F120.00
G01 X24.5073 Y-21.8826 F120.00
G01 X24.5171 Y-21.8721 F120.00
G01 X24.5276 Y-21.8623 F120.00
G01 X24.5388 Y-21.8534 F120.00
G01 X24.5507 Y-21.8453 F120.00
G01 X24.5631 Y-21.8380 F120.00
G01 X24.5760 Y-21.8317 F120.00
G01 X24.5893 Y-21.8264 F120.00
G01 X24.6030 Y-21.8221 F120.00
G01 X24.6170 Y-21.8187 F120.00
G01 X24.6311 Y-21.8165 F120.00
G01 X24.6407 Y-21.8155 F120.00
G01 X24.6550 Y-21.8150 F120.00
G01 X28.1598 Y-21.8151 F120.00
G01 X28.1789 Y-21.8165 F120.00
G01 X28.1977 Y-21.8197 F120.00
G01 X28.2162 Y-21.8248 F120.00
G01 X28.2340 Y-21.8317 F120.00
G01 X28.2511 Y-21.8403 F120.00
G01 X28.2673 Y-21.8506 F120.00
G01 X28.2824 Y-21.8623 F120.00
G01 X28.2956 Y-21.8749 F120.00
G01 X28.3810 Y-21.7895 F120.00
G01 X28.3680 Y-21.7714 F120.00
G01 X28.3558 Y-21.7522 F120.00
G01 X28.3489 Y-21.7401 F120.00
G01 X28.3430 Y-21.7275 F120.00
G01 X28.3395 Y-21.7188 F120.00
G01 X28.3351 Y-21.7056 F120.00
G01 X28.3327 Y-21.6966 F120.00
G01 X28.3157 Y-21.6180 F120.00
G01 X28.3130 Y-21.5988 F120.00
G01 X28.3122 Y-21.5843 F120.00
G01 X28.3129 Y-21.5649 F120.00
G01 X28.3155 Y-21.5457 F120.00
G01 X28.3187 Y-21.5316 F120.00
G01 X28.3245 Y-21.5131 F120.00
G01 X28.3494 Y-21.4466 F120.00
G01 X28.3547 Y-21.4337 F120.00
G01 X28.3610 Y-21.4213 F120.00
G01 X28.3656 Y-21.4133 F120.00
G01 X28.3733 Y-21.4017 F120.00
G01 X28.4328 Y-21.3221 F120.00
G01 X28.4655 Y-21.2349 F120.00
G01 X28.4685 Y-21.2076 F120.00
G01 X28.4685 Y-20.3640 F120.00
G01 X28.4690 Y-20.3455 F120.00
G01 X28.4721 Y-20.2915 F120.00
G01 X28.4698 Y-20.2692 F120.00
G01 X28.4685 Y-20.2402 F120.00
G01 X28.4685 Y-19.4324 F120.00
G01 X28.4655 Y-19.4051 F120.00
G01 X28.4328 Y-19.3179 F120.00
G01 X28.3709 Y-19.2349 F120.00
G01 X28.3537 Y-19.2078 F120.00
G01 X28.3472 Y-19.1955 F120.00
G01 X28.3415 Y-19.1827 F120.00
G01 X28.3368 Y-19.1696 F120.00
G01 X28.3330 Y-19.1562 F120.00
G01 X28.3160 Y-19.0775 F120.00
G01 X28.3133 Y-19.0584 F120.00
G01 X28.3125 Y-19.0390 F120.00
G01 X28.3132 Y-19.0245 F120.00
G01 X28.3150 Y-19.0101 F120.00
G01 X28.3178 Y-18.9958 F120.00
G01 X28.3203 Y-18.9865 F120.00
G01 X28.3249 Y-18.9727 F120.00
G01 X28.3532 Y-18.8976 F120.00
G01 X28.3613 Y-18.8809 F120.00
G01 X28.3709 Y-18.8650 F120.00
G01 X28.4328 Y-18.7821 F120.00
G01 X28.4655 Y-18.6949 F120.00
G01 X28.4685 Y-18.6676 F120.00
G01 X28.4685 Y-17.8240 F120.00
G01 X28.4690 Y-17.8055 F120.00
G01 X28.4721 Y-17.7515 F120.00
G01 X28.4698 Y-17.7292 F120.00
G01 X28.4685 Y-17.7002 F120.00
G01 X28.4685 Y-16.8924 F120.00
G01 X28.4655 Y-16.8651 F120.00
G01 X28.4328 Y-16.7779 F120.00
G01 X28.3709 Y-16.6949 F120.00
G01 X28.3537 Y-16.6678 F120.00
G01 X28.3472 Y-16.6555 F120.00
G01 X28.3415 Y-16.6427 F120.00
G01 X28.3368 Y-16.6296 F120.00
G01 X28.3330 Y-16.6162 F120.00
G01 X28.3160 Y-16.5375 F120.00
G01 X28.3133 Y-16.5184 F120.00
G01 X28.3125 Y-16.4990 F120.00
G01 X28.3132 Y-16.4845 F120.00
G01 X28.3150 Y-16.4701 F120.00
G01 X28.3178 Y-16.4558 F120.00
G01 X28.3203 Y-16.4465 F120.00
G01 X28.3249 Y-16.4327 F120.00
G01 X28.3532 Y-16.3576 F120.00
G01 X28.3613 Y-16.3409 F120.00
G01 X28.3709 Y-16.3250 F120.00
G01 X28.4328 Y-16.2421 F120.00
G01 X28.4655 Y-16.1549 F120.00
G01 X28.4685 Y-16.1276 F120.00
G01 X28.4685 Y-15.2840 F120.00
G01 X28.4690 Y-15.2655 F120.00
G01 X28.4721 Y-15.2115 F120.00
G01 X28.4698 Y-15.1892 F120.00
G01 X28.4685 Y-15.1602 F120.00
G01 X28.4685 Y-14.3524 F120.00
G01 X28.4655 Y-14.3251 F120.00
G01 X28.4328 Y-14.2379 F120.00
G01 X28.3709 Y-14.1549 F120.00
G01 X28.3537 Y-14.1278 F120.00
G01 X28.3472 Y-14.1155 F120.00
G01 X28.3415 Y-14.1027 F120.00
G01 X28.3368 Y-14.0896 F120.00
G01 X28.3330 Y-14.0762 F120.00
G01 X28.3160 Y-13.9975 F120.00
G01 X28.3133 Y-13.9784 F120.00
G01 X28.3125 Y-13.9590 F120.00
G01 X28.3132 Y-13.9445 F120.00
G01 X28.3143 Y-13.9349 F120.00
G01 X28.3167 Y-13.9206 F120.00
G01 X28.3203 Y-13.9065 F120.00
G01 X28.3249 Y-13.8927 F120.00
G01 X28.3532 Y-13.8176 F120.00
G01 X28.3613 Y-13.8009 F120.00
G01 X28.3709 Y-13.7850 F120.00
G01 X28.4328 Y-13.7021 F120.00
G01 X28.4655 Y-13.6149 F120.00
G01 X28.4685 Y-13.5876 F120.00
G01 X28.4685 Y-12.7440 F120.00
G01 X28.4690 Y-12.7255 F120.00
G01 X28.4721 Y-12.6715 F120.00
G01 X28.4698 Y-12.6492 F120.00
G01 X28.4685 Y-12.6202 F120.00
G01 X28.4685 Y-11.8124 F120.00
G01 X28.4655 Y-11.7851 F120.00
G01 X28.4328 Y-11.6979 F120.00
G01 X28.3760 Y-11.6221 F120.00
G01 X28.3680 Y-11.6106 F120.00
G01 X28.3558 Y-11.5914 F120.00
G01 X28.3489 Y-11.5792 F120.00
G01 X28.3430 Y-11.5666 F120.00
G01 X28.3365 Y-11.5492 F120.00
G01 X28.3317 Y-11.5313 F120.00
G01 X28.3166 Y-11.4619 F120.00
G01 X28.3141 Y-11.4476 F120.00
G01 X28.3126 Y-11.4331 F120.00
G01 X28.3122 Y-11.4234 F120.00
G01 X28.3126 Y-11.4089 F120.00
G01 X28.3147 Y-11.3897 F120.00
G01 X28.3187 Y-11.3707 F120.00
G01 X28.3214 Y-11.3614 F120.00
G01 X28.3254 Y-11.3499 F120.00
G01 X28.1790 Y-11.2035 F120.00
G01 X28.1693 Y-11.2045 F120.00
G01 X28.1550 Y-11.2050 F120.00
G01 X24.6550 Y-11.2050 F120.00
G01 X24.6407 Y-11.2045 F120.00
G01 X24.6264 Y-11.2029 F120.00
G01 X24.6123 Y-11.2003 F120.00
G01 X24.5984 Y-11.1966 F120.00
G01 X24.5848 Y-11.1919 F120.00
G01 X24.5716 Y-11.1863 F120.00
G01 X24.5589 Y-11.1797 F120.00
G01 X24.5467 Y-11.1721 F120.00
G01 X24.5350 Y-11.1637 F120.00
G01 X24.5240 Y-11.1545 F120.00
G01 X24.5138 Y-11.1445 F120.00
G01 X24.5043 Y-11.1337 F120.00
G01 X24.4956 Y-11.1223 F120.00
G01 X24.4877 Y-11.1102 F120.00
G01 X24.4808 Y-11.0977 F120.00
G01 X24.4748 Y-11.0846 F120.00
G01 X24.4714 Y-11.0757 F120.00
G01 X24.4671 Y-11.0620 F120.00
G01 X24.4647 Y-11.0527 F120.00
G01 X24.4621 Y-11.0386 F120.00
G01 X24.4609 Y-11.0291 F120.00
G01 X24.4601 Y-11.0148 F120.00
G01 X24.4600 Y-10.6090 F120.00
G01 X24.3420 Y-10.6090 F120.00
G01 X24.3420 Y-11.0475 F120.00
G01 X24.3450 Y-11.0747 F120.00
G01 X24.3776 Y-11.1619 F120.00
G01 X24.4394 Y-11.2447 F120.00
G01 X24.4566 Y-11.2718 F120.00
G01 X24.4632 Y-11.2841 F120.00
G01 X24.4670 Y-11.2925 F120.00
G01 X24.4735 Y-11.3100 F120.00
G01 X24.4773 Y-11.3234 F120.00
G01 X24.4934 Y-11.3973 F120.00
G01 X24.4965 Y-11.4164 F120.00
G01 X24.4976 Y-11.4309 F120.00
G01 X24.4978 Y-11.4406 F120.00
G01 X24.4971 Y-11.4551 F120.00
G01 X24.4960 Y-11.4647 F120.00
G01 X24.4936 Y-11.4790 F120.00
G01 X24.4900 Y-11.4931 F120.00
G01 X24.4855 Y-11.5069 F120.00
G01 X24.4572 Y-11.5820 F120.00
G01 X24.4490 Y-11.5987 F120.00
G01 X24.4394 Y-11.6145 F120.00
G01 X24.3772 Y-11.6979 F120.00
G01 X24.3445 Y-11.7851 F120.00
G01 X24.3415 Y-11.8124 F120.00
G01 X24.3415 Y-13.5876 F120.00
G01 X24.3445 Y-13.6149 F120.00
G01 X24.3772 Y-13.7021 F120.00
G01 X24.4391 Y-13.7851 F120.00
G01 X24.4563 Y-13.8122 F120.00
G01 X24.4628 Y-13.8245 F120.00
G01 X24.4685 Y-13.8373 F120.00
G01 X24.4732 Y-13.8504 F120.00
G01 X24.4770 Y-13.8638 F120.00
G01 X24.4940 Y-13.9425 F120.00
G01 X24.4967 Y-13.9616 F120.00
G01 X24.4975 Y-13.9810 F120.00
G01 X24.4968 Y-13.9955 F120.00
G01 X24.4950 Y-14.0099 F120.00
G01 X24.4922 Y-14.0242 F120.00
G01 X24.4897 Y-14.0335 F120.00
G01 X24.4851 Y-14.0473 F120.00
G01 X24.4568 Y-14.1224 F120.00
G01 X24.4487 Y-14.1391 F120.00
G01 X24.4391 Y-14.1550 F120.00
G01 X24.3772 Y-14.2379 F120.00
G01 X24.3445 Y-14.3251 F120.00
G01 X24.3415 Y-14.3524 F120.00
G01 X24.3415 Y-16.1276 F120.00
G01 X24.3445 Y-16.1549 F120.00
G01 X24.3772 Y-16.2421 F120.00
G01 X24.4391 Y-16.3251 F120.00
G01 X24.4563 Y-16.3522 F120.00
G01 X24.4628 Y-16.3645 F120.00
G01 X24.4685 Y-16.3773 F120.00
G01 X24.4732 Y-16.3904 F120.00
G01 X24.4770 Y-16.4038 F120.00
G01 X24.4940 Y-16.4825 F120.00
G01 X24.4956 Y-16.4920 F120.00
G01 X24.4971 Y-16.5065 F120.00
G01 X24.4974 Y-16.5258 F120.00
G01 X24.4963 Y-16.5403 F120.00
G01 X24.4950 Y-16.5499 F120.00
G01 X24.4922 Y-16.5642 F120.00
G01 X24.4883 Y-16.5782 F120.00
G01 X24.4603 Y-16.6538 F120.00
G01 X24.4530 Y-16.6709 F120.00
G01 X24.4465 Y-16.6832 F120.00
G01 X24.4364 Y-16.6988 F120.00
G01 X24.3772 Y-16.7779 F120.00
G01 X24.3445 Y-16.8651 F120.00
G01 X24.3415 Y-16.8924 F120.00
G01 X24.3413 Y-16.9048 F120.00
G01 X24.3406 Y-16.9140 F120.00
G01 X24.3388 Y-16.9278 F120.00
G01 X24.3233 Y-16.9988 F120.00
G01 X24.3190 Y-17.0127 F120.00
G01 X24.3136 Y-17.0263 F120.00
G01 X24.3073 Y-17.0395 F120.00
G01 X24.2999 Y-17.0521 F120.00
G01 X24.2945 Y-17.0602 F120.00
G01 X24.2856 Y-17.0718 F120.00
G01 X24.2328 Y-17.1328 F120.00
G01 X24.2261 Y-17.1398 F120.00
G01 X24.2154 Y-17.1497 F120.00
G01 X24.2079 Y-17.1558 F120.00
G01 X24.1961 Y-17.1642 F120.00
G01 X24.1879 Y-17.1694 F120.00
G01 X24.1751 Y-17.1763 F120.00
G01 X24.1618 Y-17.1822 F120.00
G01 X24.1528 Y-17.1856 F120.00
G01 X24.0754 Y-17.2086 F120.00
G01 X24.0574 Y-17.2130 F120.00
G01 X24.0390 Y-17.2156 F120.00
G01 X24.0205 Y-17.2165 F120.00
G01 X5.9103 Y-17.2165 F120.00
G01 X5.8969 Y-17.2160 F120.00
G01 X5.8790 Y-17.2140 F120.00
G01 X5.8392 Y-17.2075 F120.00
G01 X5.8249 Y-17.2046 F120.00
G01 X5.8064 Y-17.1992 F120.00
G01 X5.7929 Y-17.1939 F120.00
G01 X5.7841 Y-17.1899 F120.00
G01 X5.7713 Y-17.1830 F120.00
G01 X5.7631 Y-17.1778 F120.00
G01 X5.6969 Y-17.1318 F120.00
G01 X5.6892 Y-17.1259 F120.00
G01 X5.6783 Y-17.1163 F120.00
G01 X5.6714 Y-17.1095 F120.00
G01 X5.6618 Y-17.0986 F120.00
G01 X5.6529 Y-17.0871 F120.00
G01 X5.6475 Y-17.0791 F120.00
G01 X5.6402 Y-17.0665 F120.00
G01 X5.6359 Y-17.0579 F120.00
G01 X5.6015 Y-16.9747 F120.00
G01 X5.5960 Y-16.9570 F120.00
G01 X5.5940 Y-16.9480 F120.00
G01 X5.5921 Y-16.9372 F120.00
G01 X5.5407 Y-16.7519 F120.00
G01 X5.4601 Y-16.5783 F120.00
G01 X5.3523 Y-16.4203 F120.00
G01 X5.2201 Y-16.2819 F120.00
G01 X5.0670 Y-16.1670 F120.00
G01 X5.0532 Y-16.1589 F120.00
G01 X5.0384 Y-16.1483 F120.00
G01 X4.9944 Y-16.1121 F120.00
G01 X4.9836 Y-16.1025 F120.00
G01 X4.9703 Y-16.0885 F120.00
G01 X4.9585 Y-16.0732 F120.00
G01 X4.9507 Y-16.0610 F120.00
G01 X4.9417 Y-16.0439 F120.00
G01 X4.9111 Y-15.9693 F120.00
G01 X4.9077 Y-15.9603 F120.00
G01 X4.9034 Y-15.9464 F120.00
G01 X4.9002 Y-15.9322 F120.00
G01 X4.8986 Y-15.9227 F120.00
G01 X4.8975 Y-15.9130 F120.00
G01 X4.8968 Y-15.8985 F120.00
G01 X4.8969 Y-15.8888 F120.00
G01 X4.8980 Y-15.8744 F120.00
G01 X4.9001 Y-15.8600 F120.00
G01 X4.9132 Y-15.7902 F120.00
G01 X4.9164 Y-15.7760 F120.00
G01 X4.9223 Y-15.7576 F120.00
G01 X4.9300 Y-15.7398 F120.00
G01 X4.9394 Y-15.7229 F120.00
G01 X4.9504 Y-15.7070 F120.00
G01 X4.9630 Y-15.6923 F120.00
G01 X5.0150 Y-15.6373 F120.00
G01 X5.0286 Y-15.6248 F120.00
G01 X5.0396 Y-15.6162 F120.00
G01 X5.0552 Y-15.6061 F120.00
G01 X5.1146 Y-15.5714 F120.00
G01 X5.2022 Y-15.4988 F120.00
G01 X5.2272 Y-15.4807 F120.00
G01 X5.2438 Y-15.4709 F120.00
G01 X5.2613 Y-15.4627 F120.00
G01 X5.2749 Y-15.4578 F120.00
G01 X5.3477 Y-15.4364 F120.00
G01 X5.3657 Y-15.4320 F120.00
G01 X5.3749 Y-15.4305 F120.00
G01 X5.3887 Y-15.4290 F120.00
G01 X5.4026 Y-15.4285 F120.00
G01 X10.7310 Y-15.4285 F120.00
G01 X10.7567 Y-15.4295 F120.00
G01 X10.7879 Y-15.4324 F120.00
G01 X10.8119 Y-15.4300 F120.00
G01 X10.8286 Y-15.4288 F120.00
G01 X10.8721 Y-15.4239 F120.00
G01 X10.9509 Y-15.4159 F120.00
G01 X11.0265 Y-15.3919 F120.00
G01 X11.1033 Y-15.3684 F120.00
G01 X11.1728 Y-15.3302 F120.00
G01 X11.2436 Y-15.2922 F120.00
G01 X11.3042 Y-15.2413 F120.00
G01 X11.3333 Y-15.2174 F120.00
G01 X11.3452 Y-15.2069 F120.00
G01 X11.3690 Y-15.1869 F120.00
G01 X11.3841 Y-15.1683 F120.00
G01 X11.4040 Y-15.1465 F120.00
G01 X23.7379 Y-2.8125 F120.00
G01 X23.7494 Y-2.8019 F120.00
G01 X23.7744 Y-2.7817 F120.00
G01 X23.7820 Y-2.7758 F120.00
G01 X23.7940 Y-2.7678 F120.00
G01 X23.8064 Y-2.7607 F120.00
G01 X23.8194 Y-2.7545 F120.00
G01 X23.8328 Y-2.7493 F120.00
G01 X23.8419 Y-2.7464 F120.00
G01 X23.9100 Y-2.7264 F120.00
G01 X23.9235 Y-2.7230 F120.00
G01 X23.9326 Y-2.7212 F120.00
G01 X23.9464 Y-2.7194 F120.00
G01 X23.9649 Y-2.7185 F120.00
G01 X47.7901 Y-2.7185 F120.00
G01 X47.8057 Y-2.7191 F120.00
G01 X47.8425 Y-2.7231 F120.00
G01 X47.8566 Y-2.7255 F120.00
G01 X47.8751 Y-2.7303 F120.00
G01 X47.8931 Y-2.7369 F120.00
G01 X47.9061 Y-2.7430 F120.00
G01 X47.9726 Y-2.7793 F120.00
G01 X47.9846 Y-2.7864 F120.00
G01 X47.9923 Y-2.7916 F120.00
G01 X47.9997 Y-2.7971 F120.00
G01 X48.0103 Y-2.8061 F120.00
G01 X48.6261 Y-3.4217 F120.00
G01 X48.6364 Y-3.4335 F120.00
G01 X48.6563 Y-3.4582 F120.00
G01 X48.6619 Y-3.4659 F120.00
G01 X48.6720 Y-3.4822 F120.00
G01 X48.6805 Y-3.4994 F120.00
G01 X48.6872 Y-3.5173 F120.00
G01 X48.7099 Y-3.5945 F120.00
G01 X48.7138 Y-3.6126 F120.00
G01 X48.7160 Y-3.6310 F120.00
G01 X48.7165 Y-3.6449 F120.00
G01 X48.7165 Y-12.8651 F120.00
G01 X48.7162 Y-12.8755 F120.00
G01 X48.7154 Y-12.8859 F120.00
G01 X48.7119 Y-12.9175 F120.00
G01 X48.7095 Y-12.9316 F120.00
G01 X48.7061 Y-12.9455 F120.00
G01 X48.7016 Y-12.9592 F120.00
G01 X48.6962 Y-12.9725 F120.00
G01 X48.6920 Y-12.9811 F120.00
G01 X48.6535 Y-13.0517 F120.00
G01 X48.6461 Y-13.0635 F120.00
G01 X48.6379 Y-13.0747 F120.00
G01 X48.6257 Y-13.0887 F120.00
G01 X48.5965 Y-13.1181 F120.00
G01 X48.5813 Y-13.1323 F120.00
G01 X48.5663 Y-13.1443 F120.00
G01 X48.5543 Y-13.1523 F120.00
G01 X48.5374 Y-13.1616 F120.00
G01 X48.4684 Y-13.1932 F120.00
G01 X48.4504 Y-13.2003 F120.00
G01 X48.4318 Y-13.2057 F120.00
G01 X48.4128 Y-13.2091 F120.00
G01 X48.3935 Y-13.2107 F120.00
G01 X48.3741 Y-13.2103 F120.00
G01 X48.3597 Y-13.2088 F120.00
G01 X48.2846 Y-13.1980 F120.00
G01 X48.2704 Y-13.1950 F120.00
G01 X48.2611 Y-13.1924 F120.00
G01 X48.2428 Y-13.1860 F120.00
G01 X48.2253 Y-13.1777 F120.00
G01 X48.2087 Y-13.1677 F120.00
G01 X48.1932 Y-13.1562 F120.00
G01 X48.1286 Y-13.1000 F120.00
G01 X48.1153 Y-13.0860 F120.00
G01 X48.1092 Y-13.0785 F120.00
G01 X48.1008 Y-13.0667 F120.00
G01 X48.0932 Y-13.0542 F120.00
G01 X48.0887 Y-13.0457 F120.00
G01 X48.0810 Y-13.0279 F120.00
G01 X48.0764 Y-13.0141 F120.00
G01 X48.0551 Y-12.9415 F120.00
G01 X48.0520 Y-12.9280 F120.00
G01 X48.0499 Y-12.9142 F120.00
G01 X48.0487 Y-12.9004 F120.00
G01 X48.0485 Y-12.8911 F120.00
G01 X48.0485 Y-11.8124 F120.00
G01 X48.0455 Y-11.7851 F120.00
G01 X48.0128 Y-11.6979 F120.00
G01 X47.9506 Y-11.6145 F120.00
G01 X47.9334 Y-11.5874 F120.00
G01 X47.9268 Y-11.5751 F120.00
G01 X47.9212 Y-11.5623 F120.00
G01 X47.9165 Y-11.5492 F120.00
G01 X47.9127 Y-11.5358 F120.00
G01 X47.8966 Y-11.4619 F120.00
G01 X47.8935 Y-11.4428 F120.00
G01 X47.8922 Y-11.4234 F120.00
G01 X47.8926 Y-11.4089 F120.00
G01 X47.8940 Y-11.3945 F120.00
G01 X47.8964 Y-11.3802 F120.00
G01 X47.9000 Y-11.3661 F120.00
G01 X47.9045 Y-11.3523 F120.00
G01 X47.9328 Y-11.2772 F120.00
G01 X47.9410 Y-11.2605 F120.00
G01 X47.9506 Y-11.2446 F120.00
G01 X48.0124 Y-11.1619 F120.00
G01 X48.0450 Y-11.0747 F120.00
G01 X48.0480 Y-11.0475 F120.00
G01 X48.0480 Y-10.6090 F120.00
G01 X47.9300 Y-10.6090 F120.00
G01 X47.9299 Y-11.0148 F120.00
G01 X47.9291 Y-11.0291 F120.00
G01 X47.9279 Y-11.0386 F120.00
G01 X47.9263 Y-11.0480 F120.00
G01 X47.9229 Y-11.0620 F120.00
G01 X47.9186 Y-11.0757 F120.00
G01 X47.9133 Y-11.0890 F120.00
G01 X47.9070 Y-11.1019 F120.00
G01 X47.8997 Y-11.1143 F120.00
G01 X47.8916 Y-11.1262 F120.00
G01 X47.8827 Y-11.1374 F120.00
G01 X47.8729 Y-11.1479 F120.00
G01 X47.8624 Y-11.1577 F120.00
G01 X47.8512 Y-11.1666 F120.00
G01 X47.8393 Y-11.1747 F120.00
G01 X47.8269 Y-11.1820 F120.00
G01 X47.8140 Y-11.1883 F120.00
G01 X47.8007 Y-11.1936 F120.00
G01 X47.7916 Y-11.1966 F120.00
G01 X47.7777 Y-11.2003 F120.00
G01 X47.7636 Y-11.2029 F120.00
G01 X47.7493 Y-11.2045 F120.00
G01 X47.7350 Y-11.2050 F120.00
G01 X44.2350 Y-11.2050 F120.00
G01 X44.2207 Y-11.2045 F120.00
G01 X44.2064 Y-11.2029 F120.00
G01 X44.1923 Y-11.2003 F120.00
G01 X44.1738 Y-11.1952 F120.00
G01 X44.1604 Y-11.1902 F120.00
G01 X44.1473 Y-11.1842 F120.00
G01 X44.1307 Y-11.1747 F120.00
G01 X44.1188 Y-11.1666 F120.00
G01 X44.1076 Y-11.1577 F120.00
G01 X44.0971 Y-11.1479 F120.00
G01 X44.0873 Y-11.1374 F120.00
G01 X44.0784 Y-11.1262 F120.00
G01 X44.0703 Y-11.1143 F120.00
G01 X44.0630 Y-11.1019 F120.00
G01 X44.0567 Y-11.0890 F120.00
G01 X44.0498 Y-11.0712 F120.00
G01 X44.0458 Y-11.0574 F120.00
G01 X44.0429 Y-11.0433 F120.00
G01 X44.0409 Y-11.0291 F120.00
G01 X44.0401 Y-11.0148 F120.00
G01 X44.0400 Y-10.6090 F120.00
G01 X43.9220 Y-10.6090 F120.00
G01 X43.9220 Y-11.0475 F120.00
G01 X43.9250 Y-11.0747 F120.00
G01 X43.9576 Y-11.1619 F120.00
G01 X44.0194 Y-11.2447 F120.00
G01 X44.0366 Y-11.2718 F120.00
G01 X44.0411 Y-11.2799 F120.00
G01 X44.0470 Y-11.2925 F120.00
G01 X44.0520 Y-11.3055 F120.00
G01 X44.0573 Y-11.3234 F120.00
G01 X44.0734 Y-11.3973 F120.00
G01 X44.0759 Y-11.4116 F120.00
G01 X44.0770 Y-11.4212 F120.00
G01 X44.0778 Y-11.4406 F120.00
G01 X44.0771 Y-11.4551 F120.00
G01 X44.0753 Y-11.4695 F120.00
G01 X44.0725 Y-11.4837 F120.00
G01 X44.0700 Y-11.4931 F120.00
G01 X44.0655 Y-11.5069 F120.00
G01 X44.0372 Y-11.5820 F120.00
G01 X44.0290 Y-11.5987 F120.00
G01 X44.0194 Y-11.6145 F120.00
G01 X43.9572 Y-11.6979 F120.00
G01 X43.9245 Y-11.7851 F120.00
G01 X43.9215 Y-11.8124 F120.00
G01 X43.9215 Y-12.6382 F120.00
G01 X43.9207 Y-12.6605 F120.00
G01 X43.9170 Y-12.7056 F120.00
G01 X43.9182 Y-12.7514 F120.00
G01 X43.9200 Y-12.7687 F120.00
G01 X43.9215 Y-12.7979 F120.00
G01 X43.9215 Y-13.5876 F120.00
G01 X43.9245 Y-13.6149 F120.00
G01 X43.9572 Y-13.7021 F120.00
G01 X44.0191 Y-13.7851 F120.00
G01 X44.0363 Y-13.8122 F120.00
G01 X44.0428 Y-13.8245 F120.00
G01 X44.0485 Y-13.8373 F120.00
G01 X44.0532 Y-13.8504 F120.00
G01 X44.0570 Y-13.8638 F120.00
G01 X44.0740 Y-13.9425 F120.00
G01 X44.0767 Y-13.9616 F120.00
G01 X44.0775 Y-13.9810 F120.00
G01 X44.0768 Y-13.9955 F120.00
G01 X44.0757 Y-14.0051 F120.00
G01 X44.0733 Y-14.0194 F120.00
G01 X44.0697 Y-14.0335 F120.00
G01 X44.0651 Y-14.0473 F120.00
G01 X44.0368 Y-14.1224 F120.00
G01 X44.0287 Y-14.1391 F120.00
G01 X44.0191 Y-14.1550 F120.00
G01 X43.9572 Y-14.2379 F120.00
G01 X43.9245 Y-14.3251 F120.00
G01 X43.9215 Y-14.3524 F120.00
G01 X43.9215 Y-15.1782 F120.00
G01 X43.9207 Y-15.2005 F120.00
G01 X43.9170 Y-15.2456 F120.00
G01 X43.9182 Y-15.2914 F120.00
G01 X43.9200 Y-15.3087 F120.00
G01 X43.9215 Y-15.3379 F120.00
G01 X43.9215 Y-16.1276 F120.00
G01 X43.9245 Y-16.1549 F120.00
G01 X43.9572 Y-16.2421 F120.00
G01 X44.0191 Y-16.3251 F120.00
G01 X44.0363 Y-16.3522 F120.00
G01 X44.0428 Y-16.3645 F120.00
G01 X44.0485 Y-16.3773 F120.00
G01 X44.0532 Y-16.3904 F120.00
G01 X44.0570 Y-16.4038 F120.00
G01 X44.0740 Y-16.4825 F120.00
G01 X44.0767 Y-16.5016 F120.00
G01 X44.0775 Y-16.5210 F120.00
G01 X44.0768 Y-16.5355 F120.00
G01 X44.0750 Y-16.5499 F120.00
G01 X44.0733 Y-16.5594 F120.00
G01 X44.0697 Y-16.5735 F120.00
G01 X44.0651 Y-16.5873 F120.00
G01 X44.0368 Y-16.6624 F120.00
G01 X44.0287 Y-16.6791 F120.00
G01 X44.0191 Y-16.6950 F120.00
G01 X43.9572 Y-16.7779 F120.00
G01 X43.9245 Y-16.8651 F120.00
G01 X43.9215 Y-16.8924 F120.00
G01 X43.9215 Y-17.7182 F120.00
G01 X43.9207 Y-17.7405 F120.00
G01 X43.9170 Y-17.7856 F120.00
G01 X43.9182 Y-17.8314 F120.00
G01 X43.9200 Y-17.8487 F120.00
G01 X43.9215 Y-17.8779 F120.00
G01 X43.9215 Y-18.6676 F120.00
G01 X43.9245 Y-18.6949 F120.00
G01 X43.9572 Y-18.7821 F120.00
G01 X44.0191 Y-18.8651 F120.00
G01 X44.0363 Y-18.8922 F120.00
G01 X44.0428 Y-18.9045 F120.00
G01 X44.0485 Y-18.9173 F120.00
G01 X44.0532 Y-18.9304 F120.00
G01 X44.0570 Y-18.9438 F120.00
G01 X44.0740 Y-19.0225 F120.00
G01 X44.0767 Y-19.0416 F120.00
G01 X44.0775 Y-19.0610 F120.00
G01 X44.0768 Y-19.0755 F120.00
G01 X44.0750 Y-19.0899 F120.00
G01 X44.0722 Y-19.1042 F120.00
G01 X44.0697 Y-19.1135 F120.00
G01 X44.0651 Y-19.1273 F120.00
G01 X44.0368 Y-19.2024 F120.00
G01 X44.0287 Y-19.2191 F120.00
G01 X44.0191 Y-19.2350 F120.00
G01 X43.9572 Y-19.3179 F120.00
G01 X43.9245 Y-19.4051 F120.00
G01 X43.9215 Y-19.4324 F120.00
G01 X43.9215 Y-20.2582 F120.00
G01 X43.9207 Y-20.2805 F120.00
G01 X43.9170 Y-20.3256 F120.00
G01 X43.9182 Y-20.3714 F120.00
G01 X43.9200 Y-20.3887 F120.00
G01 X43.9215 Y-20.4179 F120.00
G01 X43.9215 Y-21.2076 F120.00
G01 X43.9245 Y-21.2349 F120.00
G01 X43.9572 Y-21.3221 F120.00
G01 X44.0191 Y-21.4051 F120.00
G01 X44.0363 Y-21.4322 F120.00
G01 X44.0428 Y-21.4445 F120.00
G01 X44.0485 Y-21.4573 F120.00
G01 X44.0532 Y-21.4704 F120.00
G01 X44.0570 Y-21.4838 F120.00
G01 X44.0740 Y-21.5625 F120.00
G01 X44.0767 Y-21.5816 F120.00
G01 X44.0775 Y-21.6010 F120.00
G01 X44.0768 Y-21.6155 F120.00
G01 X44.0750 Y-21.6299 F120.00
G01 X44.0733 Y-21.6394 F120.00
G01 X44.0697 Y-21.6535 F120.00
G01 X44.0651 Y-21.6673 F120.00
G01 X44.0368 Y-21.7424 F120.00
G01 X44.0287 Y-21.7591 F120.00
G01 X44.0191 Y-21.7750 F120.00
G01 X43.9572 Y-21.8579 F120.00
G01 X43.9245 Y-21.9451 F120.00
G01 X43.9215 Y-21.9724 F120.00
G01 X43.9215 Y-23.7476 F120.00
G01 X43.9245 Y-23.7749 F120.00
G01 X43.9572 Y-23.8621 F120.00
G01 X44.0191 Y-23.9451 F120.00
G01 X44.0363 Y-23.9722 F120.00
G01 X44.0428 Y-23.9845 F120.00
G01 X44.0485 Y-23.9973 F120.00
G01 X44.0532 Y-24.0104 F120.00
G01 X44.0570 Y-24.0238 F120.00
G01 X44.0740 Y-24.1025 F120.00
G01 X44.0767 Y-24.1216 F120.00
G01 X44.0775 Y-24.1410 F120.00
G01 X44.0768 Y-24.1555 F120.00
G01 X44.0750 Y-24.1699 F120.00
G01 X44.0733 Y-24.1794 F120.00
G01 X44.0697 Y-24.1935 F120.00
G01 X44.0651 Y-24.2073 F120.00
G01 X44.0368 Y-24.2824 F120.00
G01 X44.0287 Y-24.2991 F120.00
G01 X44.0191 Y-24.3150 F120.00
G01 X43.9572 Y-24.3979 F120.00
G01 X43.9245 Y-24.4851 F120.00
G01 X43.9215 Y-24.5124 F120.00
G01 X43.9215 Y-25.3382 F120.00
G01 X43.9207 Y-25.3605 F120.00
G01 X43.9170 Y-25.4056 F120.00
G01 X43.9182 Y-25.4514 F120.00
G01 X43.9200 Y-25.4687 F120.00
G01 X43.9215 Y-25.4979 F120.00
G01 X43.9215 Y-26.2876 F120.00
G01 X43.9245 Y-26.3149 F120.00
G01 X43.9572 Y-26.4021 F120.00
G01 X44.0191 Y-26.4851 F120.00
G01 X44.0363 Y-26.5122 F120.00
G01 X44.0428 Y-26.5245 F120.00
G01 X44.0485 Y-26.5373 F120.00
G01 X44.0532 Y-26.5504 F120.00
G01 X44.0570 Y-26.5638 F120.00
G01 X44.0740 Y-26.6425 F120.00
G01 X44.0767 Y-26.6616 F120.00
G01 X44.0775 Y-26.6810 F120.00
G01 X44.0768 Y-26.6955 F120.00
G01 X44.0750 Y-26.7099 F120.00
G01 X44.0733 Y-26.7194 F120.00
G01 X44.0697 Y-26.7335 F120.00
G01 X44.0651 Y-26.7473 F120.00
G01 X44.0368 Y-26.8224 F120.00
G01 X44.0287 Y-26.8391 F120.00
G01 X44.0191 Y-26.8550 F120.00
G01 X43.9572 Y-26.9379 F120.00
G01 X43.9245 Y-27.0251 F120.00
G01 X43.9215 Y-27.0524 F120.00
G01 X43.9215 Y-27.8782 F120.00
G01 X43.9207 Y-27.9005 F120.00
G01 X43.9170 Y-27.9456 F120.00
G01 X43.9182 Y-27.9914 F120.00
G01 X43.9200 Y-28.0087 F120.00
G01 X43.9215 Y-28.0379 F120.00
G01 X43.9215 Y-28.8276 F120.00
G01 X43.9245 Y-28.8549 F120.00
G01 X43.9572 Y-28.9421 F120.00
G01 X44.0191 Y-29.0251 F120.00
G01 X44.0363 Y-29.0522 F120.00
G01 X44.0428 Y-29.0645 F120.00
G01 X44.0485 Y-29.0773 F120.00
G01 X44.0532 Y-29.0904 F120.00
G01 X44.0570 Y-29.1038 F120.00
G01 X44.0740 Y-29.1825 F120.00
G01 X44.0767 Y-29.2016 F120.00
G01 X44.0775 Y-29.2210 F120.00
G01 X44.0768 Y-29.2355 F120.00
G01 X44.0750 Y-29.2499 F120.00
G01 X44.0733 Y-29.2594 F120.00
G01 X44.0697 Y-29.2735 F120.00
G01 X44.0651 Y-29.2873 F120.00
G01 X44.0368 Y-29.3624 F120.00
G01 X44.0287 Y-29.3791 F120.00
G01 X44.0191 Y-29.3950 F120.00
G01 X43.9572 Y-29.4779 F120.00
G01 X43.9245 Y-29.5651 F120.00
G01 X43.9215 Y-29.5924 F120.00
G01 X43.9215 Y-30.4182 F120.00
G01 X43.9207 Y-30.4405 F120.00
G01 X43.9170 Y-30.4856 F120.00
G01 X43.9182 Y-30.5314 F120.00
G01 X43.9200 Y-30.5487 F120.00
G01 X43.9215 Y-30.5779 F120.00
G01 X43.9215 Y-31.3676 F120.00
G01 X43.9245 Y-31.3949 F120.00
G01 X43.9572 Y-31.4821 F120.00
G01 X44.0191 Y-31.5651 F120.00
G01 X44.0363 Y-31.5922 F120.00
G01 X44.0428 Y-31.6045 F120.00
G01 X44.0485 Y-31.6173 F120.00
G01 X44.0532 Y-31.6304 F120.00
G01 X44.0570 Y-31.6438 F120.00
G01 X44.0740 Y-31.7225 F120.00
G01 X44.0767 Y-31.7416 F120.00
G01 X44.0775 Y-31.7610 F120.00
G01 X44.0768 Y-31.7755 F120.00
G01 X44.0750 Y-31.7899 F120.00
G01 X44.0722 Y-31.8042 F120.00
G01 X44.0697 Y-31.8135 F120.00
G01 X44.0651 Y-31.8273 F120.00
G01 X44.0368 Y-31.9024 F120.00
G01 X44.0287 Y-31.9191 F120.00
G01 X44.0191 Y-31.9350 F120.00
G01 X43.9572 Y-32.0179 F120.00
G01 X43.9245 Y-32.1051 F120.00
G01 X43.9215 Y-32.1324 F120.00
G01 X43.9215 Y-32.9582 F120.00
G01 X43.9207 Y-32.9805 F120.00
G01 X43.9170 Y-33.0256 F120.00
G01 X43.9182 Y-33.0714 F120.00
G01 X43.9200 Y-33.0887 F120.00
G01 X43.9215 Y-33.1179 F120.00
G01 X43.9215 Y-33.9076 F120.00
G01 X43.9245 Y-33.9349 F120.00
G01 X43.9572 Y-34.0221 F120.00
G01 X44.0194 Y-34.1055 F120.00
G01 X44.0366 Y-34.1326 F120.00
G01 X44.0432 Y-34.1449 F120.00
G01 X44.0488 Y-34.1577 F120.00
G01 X44.0535 Y-34.1708 F120.00
G01 X44.0573 Y-34.1842 F120.00
G01 X44.0743 Y-34.2629 F120.00
G01 X44.0770 Y-34.2821 F120.00
G01 X44.0778 Y-34.3014 F120.00
G01 X44.0771 Y-34.3159 F120.00
G01 X44.0753 Y-34.3303 F120.00
G01 X44.0736 Y-34.3398 F120.00
G01 X44.0700 Y-34.3539 F120.00
G01 X44.0655 Y-34.3677 F120.00
G01 X44.0406 Y-34.4342 F120.00
G01 X44.0353 Y-34.4471 F120.00
G01 X44.0268 Y-34.4636 F120.00
G01 X44.0167 Y-34.4792 F120.00
G01 X43.9576 Y-34.5581 F120.00
G01 X43.9250 Y-34.6453 F120.00
G01 X43.9220 Y-34.6725 F120.00
G01 X43.9220 Y-35.1110 F120.00
G01 X44.0400 Y-35.1110 F120.00
G01 X44.0401 Y-34.7052 F120.00
G01 X44.0409 Y-34.6909 F120.00
G01 X44.0421 Y-34.6814 F120.00
G01 X44.0447 Y-34.6673 F120.00
G01 X44.0471 Y-34.6580 F120.00
G01 X44.0514 Y-34.6443 F120.00
G01 X44.0567 Y-34.6310 F120.00
G01 X44.0630 Y-34.6181 F120.00
G01 X44.0703 Y-34.6057 F120.00
G01 X44.0784 Y-34.5938 F120.00
G01 X44.0873 Y-34.5826 F120.00
G01 X44.0971 Y-34.5721 F120.00
G01 X44.1076 Y-34.5623 F120.00
G01 X44.1188 Y-34.5534 F120.00
G01 X44.1307 Y-34.5453 F120.00
G01 X44.1431 Y-34.5380 F120.00
G01 X44.1560 Y-34.5317 F120.00
G01 X44.1648 Y-34.5281 F120.00
G01 X44.1784 Y-34.5234 F120.00
G01 X44.1923 Y-34.5197 F120.00
G01 X44.2064 Y-34.5171 F120.00
G01 X44.2207 Y-34.5155 F120.00
G01 X44.2350 Y-34.5150 F120.00
G01 X47.7350 Y-34.5150 F120.00
G01 X47.7493 Y-34.5155 F120.00
G01 X47.7636 Y-34.5171 F120.00
G01 X47.7777 Y-34.5197 F120.00
G01 X47.7962 Y-34.5248 F120.00
G01 X47.8096 Y-34.5298 F120.00
G01 X47.8227 Y-34.5358 F120.00
G01 X47.8352 Y-34.5427 F120.00
G01 X47.8473 Y-34.5506 F120.00
G01 X47.8587 Y-34.5593 F120.00
G01 X47.8695 Y-34.5688 F120.00
G01 X47.8795 Y-34.5790 F120.00
G01 X47.8916 Y-34.5938 F120.00
G01 X47.8997 Y-34.6057 F120.00
G01 X47.9092 Y-34.6223 F120.00
G01 X47.9152 Y-34.6354 F120.00
G01 X47.9202 Y-34.6488 F120.00
G01 X47.9242 Y-34.6626 F120.00
G01 X47.9271 Y-34.6767 F120.00
G01 X47.9291 Y-34.6909 F120.00
G01 X47.9299 Y-34.7052 F120.00
G01 X47.9300 Y-35.1110 F120.00
G01 X48.0480 Y-35.1110 F120.00
G01 X48.0480 Y-34.6725 F120.00
G01 X48.0450 Y-34.6453 F120.00
G01 X48.0124 Y-34.5581 F120.00
G01 X47.9506 Y-34.4753 F120.00
G01 X47.9334 Y-34.4482 F120.00
G01 X47.9289 Y-34.4401 F120.00
G01 X47.9230 Y-34.4275 F120.00
G01 X47.9180 Y-34.4145 F120.00
G01 X47.9127 Y-34.3966 F120.00
G01 X47.8966 Y-34.3227 F120.00
G01 X47.8948 Y-34.3132 F120.00
G01 X47.8930 Y-34.2988 F120.00
G01 X47.8922 Y-34.2794 F120.00
G01 X47.8929 Y-34.2649 F120.00
G01 X47.8940 Y-34.2553 F120.00
G01 X47.8964 Y-34.2410 F120.00
G01 X47.9000 Y-34.2269 F120.00
G01 X47.9045 Y-34.2131 F120.00
G01 X47.9328 Y-34.1380 F120.00
G01 X47.9410 Y-34.1213 F120.00
G01 X47.9506 Y-34.1055 F120.00
G01 X48.0128 Y-34.0221 F120.00
G01 X48.0455 Y-33.9349 F120.00
G01 X48.0485 Y-33.9076 F120.00
G01 X48.0485 Y-32.1324 F120.00
G01 X48.0455 Y-32.1051 F120.00
G01 X48.0128 Y-32.0179 F120.00
G01 X47.9509 Y-31.9349 F120.00
G01 X47.9337 Y-31.9078 F120.00
G01 X47.9272 Y-31.8955 F120.00
G01 X47.9215 Y-31.8827 F120.00
G01 X47.9168 Y-31.8696 F120.00
G01 X47.9130 Y-31.8562 F120.00
G01 X47.8960 Y-31.7775 F120.00
G01 X47.8933 Y-31.7584 F120.00
G01 X47.8925 Y-31.7439 F120.00
G01 X47.8926 Y-31.7342 F120.00
G01 X47.8937 Y-31.7197 F120.00
G01 X47.8958 Y-31.7053 F120.00
G01 X47.8990 Y-31.6911 F120.00
G01 X47.9032 Y-31.6773 F120.00
G01 X47.9332 Y-31.5976 F120.00
G01 X47.9413 Y-31.5809 F120.00
G01 X47.9509 Y-31.5650 F120.00
G01 X48.0160 Y-31.4778 F120.00
G01 X48.0244 Y-31.4626 F120.00
G01 X48.0320 Y-31.4505 F120.00
G01 X48.0406 Y-31.4389 F120.00
G01 X48.0499 Y-31.4280 F120.00
G01 X48.0639 Y-31.4143 F120.00
G01 X48.0952 Y-31.3786 F120.00
G01 X48.1092 Y-31.3653 F120.00
G01 X48.1246 Y-31.3535 F120.00
G01 X48.1368 Y-31.3456 F120.00
G01 X48.1495 Y-31.3387 F120.00
G01 X48.1628 Y-31.3328 F120.00
G01 X48.1811 Y-31.3264 F120.00
G01 X48.2582 Y-31.3040 F120.00
G01 X48.2764 Y-31.3005 F120.00
G01 X48.2902 Y-31.2990 F120.00
G01 X48.2995 Y-31.2986 F120.00
G01 X49.8661 Y-31.2985 F120.00
G01 X49.8760 Y-31.2987 F120.00
G01 X49.8907 Y-31.3000 F120.00
G01 X49.9004 Y-31.3015 F120.00
G01 X49.9148 Y-31.3047 F120.00
G01 X50.0005 Y-31.3312 F120.00
G01 X50.0094 Y-31.3345 F120.00
G01 X50.0226 Y-31.3403 F120.00
G01 X50.0394 Y-31.3494 F120.00
G01 X50.0552 Y-31.3601 F120.00
G01 X50.0698 Y-31.3724 F120.00
G01 X50.0833 Y-31.3860 F120.00
G01 X50.1370 Y-31.4521 F120.00
G01 X50.1424 Y-31.4596 F120.00
G01 X50.1500 Y-31.4713 F120.00
G01 X50.1546 Y-31.4794 F120.00
G01 X50.1607 Y-31.4919 F120.00
G01 X50.2146 Y-31.6213 F120.00
G01 X50.3033 Y-31.7539 F120.00
G01 X50.4161 Y-31.8667 F120.00
G01 X50.5487 Y-31.9554 F120.00
G01 X50.6960 Y-32.0167 F120.00
G01 X50.8536 Y-32.0485 F120.00
G01 X52.0164 Y-32.0485 F120.00
G01 X52.1740 Y-32.0167 F120.00
G01 X52.3213 Y-31.9554 F120.00
G01 X52.4539 Y-31.8667 F120.00
G01 X52.5667 Y-31.7539 F120.00
G01 X52.6554 Y-31.6213 F120.00
G01 X52.7167 Y-31.4740 F120.00
G01 X52.7485 Y-31.3164 F120.00
G01 X52.7485 Y-30.1536 F120.00
G01 X52.7167 Y-29.9960 F120.00
G01 X52.6554 Y-29.8487 F120.00
G01 X52.5667 Y-29.7161 F120.00
G01 X52.4539 Y-29.6033 F120.00
G01 X52.3213 Y-29.5146 F120.00
G01 X52.1740 Y-29.4533 F120.00
G01 X52.0164 Y-29.4215 F120.00
G01 X50.8536 Y-29.4215 F120.00
G01 X50.6960 Y-29.4533 F120.00
G01 X50.5487 Y-29.5146 F120.00
G01 X50.4161 Y-29.6033 F120.00
G01 X50.3033 Y-29.7161 F120.00
G01 X50.2146 Y-29.8487 F120.00
G01 X50.1585 Y-29.9828 F120.00
G01 X50.1491 Y-30.0001 F120.00
G01 X50.1410 Y-30.0124 F120.00
G01 X50.1351 Y-30.0203 F120.00
G01 X50.0807 Y-30.0853 F120.00
G01 X50.0708 Y-30.0957 F120.00
G01 X50.0602 Y-30.1054 F120.00
G01 X50.0450 Y-30.1170 F120.00
G01 X50.0370 Y-30.1222 F120.00
G01 X50.0246 Y-30.1293 F120.00
G01 X50.0072 Y-30.1373 F120.00
G01 X49.9892 Y-30.1436 F120.00
G01 X49.9121 Y-30.1660 F120.00
G01 X49.8939 Y-30.1695 F120.00
G01 X49.8801 Y-30.1710 F120.00
G01 X49.8708 Y-30.1714 F120.00
G01 X48.3695 Y-30.1715 F120.00
G01 X48.3556 Y-30.1710 F120.00
G01 X48.3464 Y-30.1701 F120.00
G01 X48.3326 Y-30.1680 F120.00
G01 X48.2757 Y-30.1557 F120.00
G01 X48.2616 Y-30.1520 F120.00
G01 X48.2477 Y-30.1473 F120.00
G01 X48.2343 Y-30.1416 F120.00
G01 X48.2255 Y-30.1373 F120.00
G01 X48.2129 Y-30.1299 F120.00
G01 X48.2048 Y-30.1245 F120.00
G01 X48.1932 Y-30.1156 F120.00
G01 X48.1358 Y-30.0660 F120.00
G01 X48.1252 Y-30.0561 F120.00
G01 X48.1153 Y-30.0454 F120.00
G01 X48.1035 Y-30.0301 F120.00
G01 X48.0956 Y-30.0179 F120.00
G01 X48.0887 Y-30.0051 F120.00
G01 X48.0828 Y-29.9918 F120.00
G01 X48.0778 Y-29.9782 F120.00
G01 X48.0564 Y-29.9054 F120.00
G01 X48.0520 Y-29.8874 F120.00
G01 X48.0494 Y-29.8690 F120.00
G01 X48.0485 Y-29.8505 F120.00
G01 X48.0485 Y-29.5924 F120.00
G01 X48.0455 Y-29.5651 F120.00
G01 X48.0128 Y-29.4779 F120.00
G01 X47.9509 Y-29.3949 F120.00
G01 X47.9337 Y-29.3678 F120.00
G01 X47.9252 Y-29.3513 F120.00
G01 X47.9183 Y-29.3340 F120.00
G01 X47.9130 Y-29.3162 F120.00
G01 X47.8970 Y-29.2423 F120.00
G01 X47.8944 Y-29.2280 F120.00
G01 X47.8927 Y-29.2087 F120.00
G01 X47.8926 Y-29.1942 F120.00
G01 X47.8937 Y-29.1797 F120.00
G01 X47.8967 Y-29.1606 F120.00
G01 X47.8990 Y-29.1511 F120.00
G01 X47.9032 Y-29.1373 F120.00
G01 X47.9297 Y-29.0662 F120.00
G01 X47.9350 Y-29.0533 F120.00
G01 X47.9391 Y-29.0450 F120.00
G01 X47.9459 Y-29.0329 F120.00
G01 X47.9509 Y-29.0250 F120.00
G01 X48.0128 Y-28.9421 F120.00
G01 X48.0455 Y-28.8549 F120.00
G01 X48.0485 Y-28.8276 F120.00
G01 X48.0485 Y-27.0524 F120.00
G01 X48.0455 Y-27.0251 F120.00
G01 X48.0128 Y-26.9379 F120.00
G01 X47.9509 Y-26.8549 F120.00
G01 X47.9337 Y-26.8278 F120.00
G01 X47.9272 Y-26.8155 F120.00
G01 X47.9215 Y-26.8027 F120.00
G01 X47.9168 Y-26.7896 F120.00
G01 X47.9130 Y-26.7762 F120.00
G01 X47.8960 Y-26.6975 F120.00
G01 X47.8933 Y-26.6784 F120.00
G01 X47.8925 Y-26.6590 F120.00
G01 X47.8929 Y-26.6493 F120.00
G01 X47.8943 Y-26.6349 F120.00
G01 X47.8967 Y-26.6206 F120.00
G01 X47.9003 Y-26.6065 F120.00
G01 X47.9049 Y-26.5927 F120.00
G01 X47.9332 Y-26.5176 F120.00
G01 X47.9413 Y-26.5009 F120.00
G01 X47.9509 Y-26.4850 F120.00
G01 X48.0128 Y-26.4021 F120.00
G01 X48.0455 Y-26.3149 F120.00
G01 X48.0485 Y-26.2876 F120.00
G01 X48.0485 Y-24.5124 F120.00
G01 X48.0455 Y-24.4851 F120.00
G01 X48.0128 Y-24.3979 F120.00
G01 X47.9509 Y-24.3149 F120.00
G01 X47.9337 Y-24.2878 F120.00
G01 X47.9272 Y-24.2755 F120.00
G01 X47.9215 Y-24.2627 F120.00
G01 X47.9168 Y-24.2496 F120.00
G01 X47.9130 Y-24.2362 F120.00
G01 X47.8960 Y-24.1575 F120.00
G01 X47.8933 Y-24.1384 F120.00
G01 X47.8925 Y-24.1190 F120.00
G01 X47.8932 Y-24.1045 F120.00
G01 X47.8943 Y-24.0949 F120.00
G01 X47.8967 Y-24.0806 F120.00
G01 X47.9003 Y-24.0665 F120.00
G01 X47.9049 Y-24.0527 F120.00
G01 X47.9332 Y-23.9776 F120.00
G01 X47.9413 Y-23.9609 F120.00
G01 X47.9509 Y-23.9450 F120.00
G01 X48.0128 Y-23.8621 F120.00
G01 X48.0455 Y-23.7749 F120.00
G01 X48.0485 Y-23.7476 F120.00
G01 X48.0485 Y-21.9724 F120.00
G01 X48.0455 Y-21.9451 F120.00
G01 X48.0128 Y-21.8579 F120.00
G01 X47.9509 Y-21.7749 F120.00
G01 X47.9337 Y-21.7478 F120.00
G01 X47.9272 Y-21.7355 F120.00
G01 X47.9215 Y-21.7227 F120.00
G01 X47.9168 Y-21.7096 F120.00
G01 X47.9130 Y-21.6962 F120.00
G01 X47.8960 Y-21.6175 F120.00
G01 X47.8933 Y-21.5984 F120.00
G01 X47.8925 Y-21.5790 F120.00
G01 X47.8929 Y-21.5693 F120.00
G01 X47.8943 Y-21.5549 F120.00
G01 X47.8967 Y-21.5406 F120.00
G01 X47.9003 Y-21.5265 F120.00
G01 X47.9049 Y-21.5127 F120.00
G01 X47.9332 Y-21.4376 F120.00
G01 X47.9413 Y-21.4209 F120.00
G01 X47.9509 Y-21.4050 F120.00
G01 X48.0128 Y-21.3221 F120.00
G01 X48.0455 Y-21.2349 F120.00
G01 X48.0485 Y-21.2076 F120.00
G01 X48.0485 Y-19.4324 F120.00
G01 X48.0455 Y-19.4051 F120.00
G01 X48.0128 Y-19.3179 F120.00
G01 X47.9509 Y-19.2349 F120.00
G01 X47.9337 Y-19.2078 F120.00
G01 X47.9272 Y-19.1955 F120.00
G01 X47.9215 Y-19.1827 F120.00
G01 X47.9168 Y-19.1696 F120.00
G01 X47.9130 Y-19.1562 F120.00
G01 X47.8960 Y-19.0775 F120.00
G01 X47.8933 Y-19.0584 F120.00
G01 X47.8925 Y-19.0390 F120.00
G01 X47.8932 Y-19.0245 F120.00
G01 X47.8950 Y-19.0101 F120.00
G01 X47.8978 Y-18.9958 F120.00
G01 X47.9003 Y-18.9865 F120.00
G01 X47.9049 Y-18.9727 F120.00
G01 X47.9332 Y-18.8976 F120.00
G01 X47.9413 Y-18.8809 F120.00
G01 X47.9509 Y-18.8650 F120.00
G01 X48.0128 Y-18.7821 F120.00
G01 X48.0455 Y-18.6949 F120.00
G01 X48.0485 Y-18.6676 F120.00
G01 X48.0485 Y-16.8924 F120.00
G01 X48.0455 Y-16.8651 F120.00
G01 X48.0128 Y-16.7779 F120.00
G01 X47.9509 Y-16.6949 F120.00
G01 X47.9361 Y-16.6718 F120.00
G01 X47.9314 Y-16.6638 F120.00
G01 X47.9252 Y-16.6513 F120.00
G01 X47.9198 Y-16.6384 F120.00
G01 X47.9154 Y-16.6252 F120.00
G01 X47.9130 Y-16.6162 F120.00
G01 X47.8970 Y-16.5423 F120.00
G01 X47.8944 Y-16.5280 F120.00
G01 X47.8929 Y-16.5135 F120.00
G01 X47.8925 Y-16.4990 F120.00
G01 X47.8932 Y-16.4845 F120.00
G01 X47.8950 Y-16.4701 F120.00
G01 X47.8990 Y-16.4511 F120.00
G01 X47.9032 Y-16.4373 F120.00
G01 X47.9297 Y-16.3662 F120.00
G01 X47.9370 Y-16.3491 F120.00
G01 X47.9459 Y-16.3329 F120.00
G01 X47.9536 Y-16.3212 F120.00
G01 X48.0128 Y-16.2421 F120.00
G01 X48.0455 Y-16.1549 F120.00
G01 X48.0485 Y-16.1276 F120.00
G01 X48.0486 Y-16.0916 F120.00
G01 X48.0491 Y-16.0815 F120.00
G01 X48.0501 Y-16.0714 F120.00
G01 X48.0569 Y-16.0277 F120.00
G01 X48.0597 Y-16.0136 F120.00
G01 X48.0635 Y-15.9998 F120.00
G01 X48.0701 Y-15.9818 F120.00
G01 X48.0784 Y-15.9646 F120.00
G01 X48.0857 Y-15.9523 F120.00
G01 X48.1310 Y-15.8858 F120.00
G01 X48.1425 Y-15.8713 F120.00
G01 X48.1520 Y-15.8611 F120.00
G01 X48.1587 Y-15.8547 F120.00
G01 X48.2090 Y-15.8119 F120.00
G01 X48.2241 Y-15.7933 F120.00
G01 X48.2440 Y-15.7715 F120.00
G01 X50.0671 Y-13.9484 F120.00
G01 X50.0859 Y-13.9310 F120.00
G01 X50.1100 Y-13.9110 F120.00
G01 X50.1253 Y-13.8923 F120.00
G01 X50.1363 Y-13.8795 F120.00
G01 X50.1635 Y-13.8454 F120.00
G01 X50.2136 Y-13.7840 F120.00
G01 X50.2506 Y-13.7126 F120.00
G01 X50.2878 Y-13.6427 F120.00
G01 X50.3102 Y-13.5655 F120.00
G01 X50.3331 Y-13.4897 F120.00
G01 X50.3400 Y-13.4108 F120.00
G01 X50.3437 Y-13.3733 F120.00
G01 X50.3447 Y-13.3574 F120.00
G01 X50.3474 Y-13.3264 F120.00
G01 X50.3449 Y-13.3026 F120.00
G01 X50.3435 Y-13.2732 F120.00
G01 X50.3435 Y-3.2290 F120.00
G01 X50.3445 Y-3.2033 F120.00
G01 X50.3474 Y-3.1721 F120.00
G01 X50.3450 Y-3.1481 F120.00
G01 X50.3438 Y-3.1314 F120.00
G01 X50.3389 Y-3.0879 F120.00
G01 X50.3309 Y-3.0092 F120.00
G01 X50.3069 Y-2.9335 F120.00
G01 X50.2834 Y-2.8567 F120.00
G01 X50.2452 Y-2.7873 F120.00
G01 X50.2073 Y-2.7165 F120.00
G01 X50.1562 Y-2.6556 F120.00
G01 X50.1324 Y-2.6267 F120.00
G01 X50.1219 Y-2.6148 F120.00
G01 X50.1019 Y-2.5910 F120.00
G01 X50.0833 Y-2.5759 F120.00
G01 X50.0615 Y-2.5560 F120.00
G01 X48.8734 Y-1.3679 F120.00
G01 X48.8560 Y-1.3491 F120.00
G01 X48.8360 Y-1.3250 F120.00
G01 X48.8173 Y-1.3097 F120.00
G01 X48.8045 Y-1.2987 F120.00
G01 X48.7704 Y-1.2715 F120.00
G01 X48.7090 Y-1.2214 F120.00
G01 X48.6386 Y-1.1849 F120.00
G01 X48.5677 Y-1.1472 F120.00
G01 X48.4915 Y-1.1251 F120.00
G01 X48.4146 Y-1.1019 F120.00
G01 X48.3358 Y-1.0950 F120.00
G01 X48.2983 Y-1.0913 F120.00
G01 X48.2824 Y-1.0903 F120.00
G01 X48.2514 Y-1.0876 F120.00
G01 X48.2276 Y-1.0901 F120.00
G01 X48.1982 Y-1.0915 F120.00
G01 X23.5490 Y-1.0915 F120.00
G01 X23.5233 Y-1.0905 F120.00
G01 X23.4921 Y-1.0876 F120.00
G01 X23.4681 Y-1.0900 F120.00
G01 X23.4514 Y-1.0912 F120.00
G01 X23.4079 Y-1.0961 F120.00
G01 X23.3292 Y-1.1041 F120.00
G01 X23.2535 Y-1.1281 F120.00
G01 X23.1768 Y-1.1516 F120.00
G01 X23.1073 Y-1.1898 F120.00
G01 X23.0365 Y-1.2278 F120.00
G01 X22.9756 Y-1.2788 F120.00
G01 X22.9467 Y-1.3026 F120.00
G01 X22.9348 Y-1.3131 F120.00
G01 X22.9110 Y-1.3331 F120.00
G01 X22.8959 Y-1.3517 F120.00
G01 X22.8760 Y-1.3735 F120.00
G01 X10.5421 Y-13.7075 F120.00
G01 X10.5306 Y-13.7181 F120.00
G01 X10.4980 Y-13.7442 F120.00
G01 X10.4861 Y-13.7522 F120.00
G01 X10.4693 Y-13.7615 F120.00
G01 X10.4562 Y-13.7673 F120.00
G01 X10.4427 Y-13.7722 F120.00
G01 X10.3700 Y-13.7936 F120.00
G01 X10.3565 Y-13.7970 F120.00
G01 X10.3382 Y-13.8001 F120.00
G01 X10.3244 Y-13.8013 F120.00
G01 X10.3151 Y-13.8015 F120.00
G01 X5.6088 Y-13.8015 F120.00
G01 X5.5939 Y-13.8009 F120.00
G01 X5.5792 Y-13.7992 F120.00
G01 X5.5304 Y-13.7905 F120.00
G01 X5.5164 Y-13.7875 F120.00
G01 X5.5028 Y-13.7834 F120.00
G01 X5.4850 Y-13.7765 F120.00
G01 X5.4723 Y-13.7702 F120.00
G01 X5.4560 Y-13.7603 F120.00
G01 X5.3837 Y-13.7064 F120.00
G01 X5.3694 Y-13.6933 F120.00
G01 X5.3596 Y-13.6826 F120.00
G01 X5.3535 Y-13.6751 F120.00
G01 X5.3451 Y-13.6633 F120.00
G01 X5.3400 Y-13.6550 F120.00
G01 X5.3310 Y-13.6379 F120.00
G01 X5.3254 Y-13.6245 F120.00
G01 X5.2989 Y-13.5534 F120.00
G01 X5.2934 Y-13.5348 F120.00
G01 X5.2906 Y-13.5206 F120.00
G01 X5.2888 Y-13.5062 F120.00
G01 X5.2881 Y-13.4917 F120.00
G01 X5.2885 Y-13.4771 F120.00
G01 X5.2907 Y-13.4579 F120.00
G01 X5.3098 Y-13.3699 F120.00
G01 X5.3139 Y-13.3565 F120.00
G01 X5.3208 Y-13.3391 F120.00
G01 X5.3271 Y-13.3265 F120.00
G01 X5.3343 Y-13.3145 F120.00
G01 X5.3424 Y-13.3029 F120.00
G01 X5.3544 Y-13.2885 F120.00
G01 X5.4009 Y-13.2400 F120.00
G01 X5.4118 Y-13.2295 F120.00
G01 X5.4195 Y-13.2230 F120.00
G01 X5.4303 Y-13.2147 F120.00
G01 X5.5186 Y-13.1486 F120.00
G01 X5.5724 Y-13.0769 F120.00
G01 X5.6050 Y-12.9897 F120.00
G01 X5.6080 Y-12.9625 F120.00
G01 X5.6080 Y-12.5240 F120.00
G01 X5.4900 Y-12.5240 F120.00
G01 X5.4900 Y-12.9250 F120.00
G01 X5.4891 Y-12.9441 F120.00
G01 X5.4863 Y-12.9630 F120.00
G01 X5.4816 Y-12.9816 F120.00
G01 X5.4769 Y-12.9952 F120.00
G01 X5.4733 Y-13.0040 F120.00
G01 X5.4670 Y-13.0169 F120.00
G01 X5.4623 Y-13.0252 F120.00
G01 X5.4516 Y-13.0412 F120.00
G01 X5.4427 Y-13.0524 F120.00
G01 X5.4362 Y-13.0595 F120.00
G01 X5.4295 Y-13.0662 F120.00
G01 X5.4187 Y-13.0757 F120.00
G01 X5.4073 Y-13.0844 F120.00
G01 X5.3993 Y-13.0897 F120.00
G01 X5.3827 Y-13.0992 F120.00
G01 X5.3696 Y-13.1052 F120.00
G01 X5.3607 Y-13.1086 F120.00
G01 X5.3424 Y-13.1142 F120.00
G01 X5.3236 Y-13.1179 F120.00
G01 X5.3141 Y-13.1191 F120.00
G01 X5.2998 Y-13.1199 F120.00
G01 X4.0295 Y-13.1200 F120.00
G01 X3.7212 Y-13.4283 F120.00
G01 X3.7256 Y-13.4446 F120.00
G01 X3.7282 Y-13.4589 F120.00
G01 X3.7378 Y-13.5390 F120.00
G01 X3.7386 Y-13.5583 F120.00
G01 X3.7375 Y-13.5777 F120.00
G01 X3.7363 Y-13.5873 F120.00
G01 X3.7335 Y-13.6015 F120.00
G01 X3.7282 Y-13.6202 F120.00
G01 X3.7210 Y-13.6381 F120.00
G01 X3.6858 Y-13.7105 F120.00
G01 X3.6790 Y-13.7227 F120.00
G01 X3.6714 Y-13.7343 F120.00
G01 X3.6658 Y-13.7417 F120.00
G01 X3.6568 Y-13.7523 F120.00
G01 X3.5200 Y-13.9027 F120.00
G01 X3.4161 Y-14.0633 F120.00
G01 X3.3398 Y-14.2388 F120.00
G01 X3.2932 Y-14.4243 F120.00
G01 X3.2770 Y-14.6206 F120.00
G01 X3.2782 Y-14.6664 F120.00
G01 X3.3039 Y-14.8617 F120.00
G01 X3.3595 Y-15.0448 F120.00
G01 X3.4443 Y-15.2163 F120.00
G01 X3.5559 Y-15.3717 F120.00
G01 X3.6901 Y-15.5054 F120.00
G00 Z1.0000
G00 X4.7391 Y-18.1576
G01 F60.00
G01 Z-0.0500
G01 F120.00
G01 X4.7529 Y-18.1536 F120.00
G01 X4.8029 Y-18.1357 F120.00
G01 X4.8188 Y-18.1474 F120.00
G01 X4.8267 Y-18.1527 F120.00
G01 X4.8518 Y-18.1678 F120.00
G01 X4.8644 Y-18.1748 F120.00
G01 X4.8997 Y-18.1912 F120.00
G01 X4.9362 Y-18.2045 F120.00
G01 X4.9454 Y-18.2073 F120.00
G01 X4.9738 Y-18.2145 F120.00
G01 X4.9926 Y-18.2182 F120.00
G01 X5.0264 Y-18.2230 F120.00
G01 X5.0700 Y-18.2251 F120.00
G01 X24.4600 Y-18.2251 F120.00
G01 X24.4601 Y-18.6348 F120.00
G01 X24.4605 Y-18.6443 F120.00
G01 X24.4621 Y-18.6586 F120.00
G01 X24.4637 Y-18.6680 F120.00
G01 X24.4671 Y-18.6820 F120.00
G01 X24.4714 Y-18.6957 F120.00
G01 X24.4767 Y-18.7090 F120.00
G01 X24.4830 Y-18.7219 F120.00
G01 X24.4903 Y-18.7343 F120.00
G01 X24.4984 Y-18.7462 F120.00
G01 X24.5073 Y-18.7574 F120.00
G01 X24.5171 Y-18.7679 F120.00
G01 X24.5240 Y-18.7745 F120.00
G01 X24.5350 Y-18.7837 F120.00
G01 X24.5467 Y-18.7921 F120.00
G01 X24.5589 Y-18.7997 F120.00
G01 X24.5716 Y-18.8063 F120.00
G01 X24.5848 Y-18.8119 F120.00
G01 X24.5984 Y-18.8166 F120.00
G01 X24.6076 Y-18.8192 F120.00
G01 X24.6217 Y-18.8221 F120.00
G01 X24.6407 Y-18.8245 F120.00
G01 X24.6550 Y-18.8250 F120.00
G01 X28.1646 Y-18.8248 F120.00
G01 X28.1836 Y-18.8229 F120.00
G01 X28.2024 Y-18.8192 F120.00
G01 X28.2207 Y-18.8136 F120.00
G01 X28.2340 Y-18.8083 F120.00
G01 X28.2511 Y-18.7997 F120.00
G01 X28.2633 Y-18.7921 F120.00
G01 X28.2787 Y-18.7807 F120.00
G01 X28.2895 Y-18.7712 F120.00
G01 X28.3027 Y-18.7574 F120.00
G01 X28.3144 Y-18.7423 F120.00
G01 X28.3223 Y-18.7302 F120.00
G01 X28.3313 Y-18.7134 F120.00
G01 X28.3386 Y-18.6957 F120.00
G01 X28.3429 Y-18.6820 F120.00
G01 X28.3471 Y-18.6633 F120.00
G01 X28.3491 Y-18.6491 F120.00
G01 X28.3500 Y-18.6300 F120.00
G01 X28.3498 Y-16.9204 F120.00
G01 X28.3479 Y-16.9014 F120.00
G01 X28.3442 Y-16.8826 F120.00
G01 X28.3402 Y-16.8688 F120.00
G01 X28.3333 Y-16.8510 F120.00
G01 X28.3270 Y-16.8381 F120.00
G01 X28.3171 Y-16.8217 F120.00
G01 X28.3057 Y-16.8063 F120.00
G01 X28.2929 Y-16.7921 F120.00
G01 X28.2787 Y-16.7793 F120.00
G01 X28.2673 Y-16.7706 F120.00
G01 X28.2511 Y-16.7603 F120.00
G01 X28.2340 Y-16.7517 F120.00
G01 X28.2162 Y-16.7448 F120.00
G01 X28.2024 Y-16.7408 F120.00
G01 X28.1836 Y-16.7371 F120.00
G01 X28.1646 Y-16.7352 F120.00
G01 X24.6550 Y-16.7350 F120.00
G01 X24.6359 Y-16.7359 F120.00
G01 X24.6217 Y-16.7379 F120.00
G01 X24.6076 Y-16.7408 F120.00
G01 X24.5938 Y-16.7448 F120.00
G01 X24.5804 Y-16.7498 F120.00
G01 X24.5673 Y-16.7558 F120.00
G01 X24.5548 Y-16.7627 F120.00
G01 X24.5427 Y-16.7706 F120.00
G01 X24.5313 Y-16.7793 F120.00
G01 X24.5205 Y-16.7888 F120.00
G01 X24.5105 Y-16.7990 F120.00
G01 X24.5013 Y-16.8100 F120.00
G01 X24.4929 Y-16.8217 F120.00
G01 X24.4853 Y-16.8339 F120.00
G01 X24.4787 Y-16.8466 F120.00
G01 X24.4731 Y-16.8598 F120.00
G01 X24.4684 Y-16.8734 F120.00
G01 X24.4647 Y-16.8873 F120.00
G01 X24.4629 Y-16.8967 F120.00
G01 X24.4609 Y-16.9109 F120.00
G01 X24.4601 Y-16.9252 F120.00
G01 X24.4600 Y-17.3349 F120.00
G01 X5.4737 Y-17.3349 F120.00
G01 X5.4850 Y-17.2574 F120.00
G01 X5.4898 Y-17.1646 F120.00
G01 X5.4898 Y-17.1454 F120.00
G01 X5.4850 Y-17.0526 F120.00
G01 X5.4716 Y-16.9606 F120.00
G01 X5.4678 Y-16.9418 F120.00
G01 X5.4450 Y-16.8517 F120.00
G01 X5.4139 Y-16.7640 F120.00
G01 X5.4066 Y-16.7463 F120.00
G01 X5.3666 Y-16.6624 F120.00
G01 X5.3190 Y-16.5825 F120.00
G01 X5.3084 Y-16.5666 F120.00
G01 X5.2528 Y-16.4921 F120.00
G01 X5.1905 Y-16.4230 F120.00
G01 X5.1770 Y-16.4095 F120.00
G01 X5.1152 Y-16.3535 F120.00
G01 X5.1004 Y-16.3413 F120.00
G01 X5.0256 Y-16.2861 F120.00
G01 X4.9459 Y-16.2381 F120.00
G01 X4.9291 Y-16.2291 F120.00
G01 X4.8449 Y-16.1895 F120.00
G01 X4.7574 Y-16.1580 F120.00
G01 X4.7391 Y-16.1524 F120.00
G01 X4.6489 Y-16.1301 F120.00
G01 X4.5569 Y-16.1162 F120.00
G01 X4.5379 Y-16.1143 F120.00
G01 X4.4450 Y-16.1100 F120.00
G01 X4.3521 Y-16.1143 F120.00
G01 X4.3331 Y-16.1162 F120.00
G01 X4.2411 Y-16.1301 F120.00
G01 X4.1417 Y-16.1550 F120.00
G01 X4.0451 Y-16.1895 F120.00
G01 X3.9524 Y-16.2334 F120.00
G01 X3.8644 Y-16.2861 F120.00
G01 X3.7821 Y-16.3472 F120.00
G01 X3.7061 Y-16.4161 F120.00
G01 X3.6372 Y-16.4921 F120.00
G01 X3.5761 Y-16.5744 F120.00
G01 X3.5234 Y-16.6624 F120.00
G01 X3.4795 Y-16.7551 F120.00
G01 X3.4450 Y-16.8517 F120.00
G01 X3.4201 Y-16.9511 F120.00
G01 X3.4050 Y-17.0526 F120.00
G01 X3.4000 Y-17.1550 F120.00
G01 X3.4050 Y-17.2574 F120.00
G01 X3.4201 Y-17.3589 F120.00
G01 X3.4450 Y-17.4583 F120.00
G01 X3.4795 Y-17.5549 F120.00
G01 X3.5234 Y-17.6476 F120.00
G01 X3.5761 Y-17.7356 F120.00
G01 X3.6372 Y-17.8179 F120.00
G01 X3.7061 Y-17.8939 F120.00
G01 X3.7821 Y-17.9628 F120.00
G01 X3.8644 Y-18.0239 F120.00
G01 X3.9524 Y-18.0766 F120.00
G01 X4.0451 Y-18.1205 F120.00
G01 X4.1417 Y-18.1550 F120.00
G01 X4.2411 Y-18.1799 F120.00
G01 X4.3426 Y-18.1950 F120.00
G01 X4.4450 Y-18.2000 F120.00
G01 X4.5474 Y-18.1950 F120.00
G01 X4.6489 Y-18.1799 F120.00
G01 X4.7391 Y-18.1576 F120.00
G00 Z1.0000
G00 X5.0863 Y-18.5440
G01 F60.00
G01 Z-0.0500
G01 F120.00
G01 X5.1578 Y-18.5868 F120.00
G01 X5.1772 Y-18.5991 F120.00
G01 X5.1960 Y-18.6123 F120.00
G01 X5.2630 Y-18.6620 F120.00
G01 X5.2722 Y-18.6690 F120.00
G01 X5.2899 Y-18.6836 F120.00
G01 X5.3687 Y-18.7550 F120.00
G01 X5.3770 Y-18.7630 F120.00
G01 X5.3928 Y-18.7797 F120.00
G01 X5.4488 Y-18.8415 F120.00
G01 X5.4638 Y-18.8589 F120.00
G01 X5.4780 Y-18.8770 F120.00
G01 X5.5277 Y-18.9440 F120.00
G01 X5.5409 Y-18.9628 F120.00
G01 X5.5499 Y-18.9769 F120.00
G01 X24.3408 Y-18.9769 F120.00
G01 X24.3241 Y-18.9609 F120.00
G01 X24.3082 Y-18.9443 F120.00
G01 X24.3006 Y-18.9357 F120.00
G01 X24.2861 Y-18.9179 F120.00
G01 X24.2724 Y-18.8995 F120.00
G01 X24.2659 Y-18.8900 F120.00
G01 X24.2536 Y-18.8706 F120.00
G01 X24.2423 Y-18.8506 F120.00
G01 X24.2370 Y-18.8404 F120.00
G01 X24.2271 Y-18.8197 F120.00
G01 X24.2226 Y-18.8091 F120.00
G01 X24.2184 Y-18.7984 F120.00
G01 X24.2106 Y-18.7768 F120.00
G01 X24.2040 Y-18.7548 F120.00
G01 X24.1984 Y-18.7325 F120.00
G01 X24.1960 Y-18.7213 F120.00
G01 X24.1939 Y-18.7100 F120.00
G01 X24.1905 Y-18.6873 F120.00
G01 X24.1883 Y-18.6644 F120.00
G01 X24.1871 Y-18.6415 F120.00
G01 X24.1870 Y-18.6300 F120.00
G01 X24.1870 Y-18.4981 F120.00
G01 X5.0700 Y-18.4981 F120.00
G01 X5.0470 Y-18.4976 F120.00
G01 X5.0111 Y-18.4957 F120.00
G01 X4.9833 Y-18.4927 F120.00
G01 X5.0561 Y-18.5273 F120.00
G01 X5.0764 Y-18.5382 F120.00
G01 X5.0863 Y-18.5440 F120.00
G00 Z1.0000
G00 X5.3619 Y-20.1959
G01 F60.00
G01 Z-0.0500
G01 F120.00
G01 X5.3688 Y-20.1834 F120.00
G01 X5.3893 Y-20.1401 F120.00
G01 X24.4600 Y-20.1401 F120.00
G01 X24.4600 Y-21.1700 F120.00
G01 X24.4602 Y-21.1796 F120.00
G01 X24.4615 Y-21.1939 F120.00
G01 X24.4637 Y-21.2080 F120.00
G01 X24.4671 Y-21.2220 F120.00
G01 X24.4714 Y-21.2357 F120.00
G01 X24.4767 Y-21.2490 F120.00
G01 X24.4830 Y-21.2619 F120.00
G01 X24.4903 Y-21.2743 F120.00
G01 X24.4984 Y-21.2862 F120.00
G01 X24.5073 Y-21.2974 F120.00
G01 X24.5171 Y-21.3079 F120.00
G01 X24.5276 Y-21.3177 F120.00
G01 X24.5388 Y-21.3266 F120.00
G01 X24.5507 Y-21.3347 F120.00
G01 X24.5631 Y-21.3420 F120.00
G01 X24.5760 Y-21.3483 F120.00
G01 X24.5893 Y-21.3536 F120.00
G01 X24.6030 Y-21.3579 F120.00
G01 X24.6123 Y-21.3603 F120.00
G01 X24.6264 Y-21.3629 F120.00
G01 X24.6407 Y-21.3645 F120.00
G01 X24.6550 Y-21.3650 F120.00
G01 X28.1646 Y-21.3648 F120.00
G01 X28.1836 Y-21.3629 F120.00
G01 X28.2024 Y-21.3592 F120.00
G01 X28.2207 Y-21.3536 F120.00
G01 X28.2340 Y-21.3483 F120.00
G01 X28.2511 Y-21.3397 F120.00
G01 X28.2673 Y-21.3294 F120.00
G01 X28.2787 Y-21.3207 F120.00
G01 X28.2929 Y-21.3079 F120.00
G01 X28.3027 Y-21.2974 F120.00
G01 X28.3144 Y-21.2823 F120.00
G01 X28.3247 Y-21.2661 F120.00
G01 X28.3333 Y-21.2490 F120.00
G01 X28.3402 Y-21.2312 F120.00
G01 X28.3453 Y-21.2127 F120.00
G01 X28.3479 Y-21.1986 F120.00
G01 X28.3498 Y-21.1796 F120.00
G01 X28.3500 Y-19.4700 F120.00
G01 X28.3491 Y-19.4509 F120.00
G01 X28.3463 Y-19.4320 F120.00
G01 X28.3429 Y-19.4180 F120.00
G01 X28.3369 Y-19.3998 F120.00
G01 X28.3313 Y-19.3866 F120.00
G01 X28.3247 Y-19.3739 F120.00
G01 X28.3144 Y-19.3577 F120.00
G01 X28.3057 Y-19.3463 F120.00
G01 X28.2929 Y-19.3321 F120.00
G01 X28.2787 Y-19.3193 F120.00
G01 X28.2673 Y-19.3106 F120.00
G01 X28.2511 Y-19.3003 F120.00
G01 X28.2384 Y-19.2937 F120.00
G01 X28.2207 Y-19.2864 F120.00
G01 X28.2070 Y-19.2821 F120.00
G01 X28.1883 Y-19.2779 F120.00
G01 X28.1693 Y-19.2755 F120.00
G01 X28.1550 Y-19.2750 F120.00
G01 X26.8266 Y-19.2750 F120.00
G01 X26.8138 Y-19.2705 F120.00
G01 X26.8046 Y-19.2677 F120.00
G01 X26.7762 Y-19.2605 F120.00
G01 X26.7621 Y-19.2576 F120.00
G01 X26.7236 Y-19.2520 F120.00
G01 X26.6800 Y-19.2499 F120.00
G01 X5.3893 Y-19.2499 F120.00
G01 X5.3709 Y-19.2109 F120.00
G01 X5.3643 Y-19.1982 F120.00
G01 X5.3165 Y-19.1184 F120.00
G01 X5.3084 Y-19.1066 F120.00
G01 X5.2587 Y-19.0396 F120.00
G01 X5.2497 Y-19.0284 F120.00
G01 X5.1839 Y-18.9561 F120.00
G01 X5.1152 Y-18.8935 F120.00
G01 X5.1004 Y-18.8813 F120.00
G01 X5.0334 Y-18.8316 F120.00
G01 X5.0216 Y-18.8235 F120.00
G01 X4.9376 Y-18.7734 F120.00
G01 X4.8537 Y-18.7334 F120.00
G01 X4.8360 Y-18.7261 F120.00
G01 X4.7483 Y-18.6950 F120.00
G01 X4.6489 Y-18.6701 F120.00
G01 X4.5569 Y-18.6562 F120.00
G01 X4.5379 Y-18.6543 F120.00
G01 X4.4450 Y-18.6500 F120.00
G01 X4.3521 Y-18.6543 F120.00
G01 X4.3331 Y-18.6562 F120.00
G01 X4.2411 Y-18.6701 F120.00
G01 X4.1417 Y-18.6950 F120.00
G01 X4.0540 Y-18.7261 F120.00
G01 X4.0363 Y-18.7334 F120.00
G01 X3.9524 Y-18.7734 F120.00
G01 X3.8725 Y-18.8210 F120.00
G01 X3.8566 Y-18.8316 F120.00
G01 X3.7821 Y-18.8872 F120.00
G01 X3.7130 Y-18.9495 F120.00
G01 X3.6995 Y-18.9630 F120.00
G01 X3.6372 Y-19.0321 F120.00
G01 X3.5816 Y-19.1066 F120.00
G01 X3.5710 Y-19.1225 F120.00
G01 X3.5234 Y-19.2024 F120.00
G01 X3.4795 Y-19.2951 F120.00
G01 X3.4450 Y-19.3917 F120.00
G01 X3.4201 Y-19.4911 F120.00
G01 X3.4050 Y-19.5926 F120.00
G01 X3.4000 Y-19.6950 F120.00
G01 X3.4050 Y-19.7974 F120.00
G01 X3.4201 Y-19.8989 F120.00
G01 X3.4450 Y-19.9983 F120.00
G01 X3.4795 Y-20.0949 F120.00
G01 X3.5234 Y-20.1876 F120.00
G01 X3.5761 Y-20.2756 F120.00
G01 X3.6372 Y-20.3579 F120.00
G01 X3.7061 Y-20.4339 F120.00
G01 X3.7821 Y-20.5028 F120.00
G01 X3.8644 Y-20.5639 F120.00
G01 X3.9524 Y-20.6166 F120.00
G01 X4.0451 Y-20.6605 F120.00
G01 X4.1417 Y-20.6950 F120.00
G01 X4.2411 Y-20.7199 F120.00
G01 X4.3426 Y-20.7350 F120.00
G01 X4.4450 Y-20.7400 F120.00
G01 X4.5474 Y-20.7350 F120.00
G01 X4.6489 Y-20.7199 F120.00
G01 X4.7483 Y-20.6950 F120.00
G01 X4.8449 Y-20.6605 F120.00
G01 X4.9376 Y-20.6166 F120.00
G01 X5.0256 Y-20.5639 F120.00
G01 X5.1079 Y-20.5028 F120.00
G01 X5.1839 Y-20.4339 F120.00
G01 X5.2528 Y-20.3579 F120.00
G01 X5.3139 Y-20.2756 F120.00
G01 X5.3619 Y-20.1959 F120.00
G00 Z1.0000
G00 X5.3141 Y-11.0309
G01 F60.00
G01 Z-0.0500
G01 F120.00
G01 X5.3283 Y-11.0329 F120.00
G01 X5.3424 Y-11.0358 F120.00
G01 X5.3562 Y-11.0398 F120.00
G01 X5.3696 Y-11.0448 F120.00
G01 X5.3827 Y-11.0508 F120.00
G01 X5.3952 Y-11.0577 F120.00
G01 X5.4073 Y-11.0656 F120.00
G01 X5.4187 Y-11.0743 F120.00
G01 X5.4295 Y-11.0838 F120.00
G01 X5.4395 Y-11.0940 F120.00
G01 X5.4487 Y-11.1050 F120.00
G01 X5.4571 Y-11.1167 F120.00
G01 X5.4647 Y-11.1289 F120.00
G01 X5.4713 Y-11.1416 F120.00
G01 X5.4769 Y-11.1548 F120.00
G01 X5.4816 Y-11.1684 F120.00
G01 X5.4853 Y-11.1823 F120.00
G01 X5.4879 Y-11.1964 F120.00
G01 X5.4891 Y-11.2059 F120.00
G01 X5.4899 Y-11.2202 F120.00
G01 X5.4900 Y-11.6260 F120.00
G01 X5.6080 Y-11.6260 F120.00
G01 X5.6080 Y-11.1875 F120.00
G01 X5.6050 Y-11.1603 F120.00
G01 X5.5724 Y-11.0731 F120.00
G01 X5.5186 Y-11.0014 F120.00
G01 X5.4469 Y-10.9476 F120.00
G01 X5.3597 Y-10.9150 F120.00
G01 X5.3325 Y-10.9120 F120.00
G01 X4.8940 Y-10.9120 F120.00
G01 X4.8940 Y-11.0300 F120.00
G01 X5.2950 Y-11.0300 F120.00
G01 X5.3141 Y-11.0309 F120.00
G00 Z1.0000
G00 X24.4609 Y-9.2909
G01 F60.00
G01 Z-0.0500
G01 F120.00
G01 X24.4629 Y-9.2767 F120.00
G01 X24.4671 Y-9.2580 F120.00
G01 X24.4731 Y-9.2398 F120.00
G01 X24.4808 Y-9.2223 F120.00
G01 X24.4877 Y-9.2098 F120.00
G01 X24.4984 Y-9.1938 F120.00
G01 X24.5105 Y-9.1790 F120.00
G01 X24.5205 Y-9.1688 F120.00
G01 X24.5350 Y-9.1563 F120.00
G01 X24.5507 Y-9.1453 F120.00
G01 X24.5673 Y-9.1358 F120.00
G01 X24.5804 Y-9.1298 F120.00
G01 X24.5938 Y-9.1248 F120.00
G01 X24.6123 Y-9.1197 F120.00
G01 X24.6264 Y-9.1171 F120.00
G01 X24.6454 Y-9.1152 F120.00
G01 X28.1550 Y-9.1150 F120.00
G01 X28.1741 Y-9.1159 F120.00
G01 X28.1883 Y-9.1179 F120.00
G01 X28.2024 Y-9.1208 F120.00
G01 X28.2162 Y-9.1248 F120.00
G01 X28.2296 Y-9.1298 F120.00
G01 X28.2427 Y-9.1358 F120.00
G01 X28.2552 Y-9.1427 F120.00
G01 X28.2673 Y-9.1506 F120.00
G01 X28.2787 Y-9.1593 F120.00
G01 X28.2895 Y-9.1688 F120.00
G01 X28.2995 Y-9.1790 F120.00
G01 X28.3087 Y-9.1900 F120.00
G01 X28.3171 Y-9.2017 F120.00
G01 X28.3247 Y-9.2139 F120.00
G01 X28.3313 Y-9.2266 F120.00
G01 X28.3369 Y-9.2398 F120.00
G01 X28.3416 Y-9.2534 F120.00
G01 X28.3453 Y-9.2673 F120.00
G01 X28.3471 Y-9.2767 F120.00
G01 X28.3491 Y-9.2909 F120.00
G01 X28.3499 Y-9.3052 F120.00
G01 X28.3500 Y-9.7110 F120.00
G01 X28.4680 Y-9.7110 F120.00
G01 X28.4680 Y-9.2725 F120.00
G01 X28.4650 Y-9.2453 F120.00
G01 X28.4324 Y-9.1581 F120.00
G01 X28.3706 Y-9.0753 F120.00
G01 X28.3534 Y-9.0482 F120.00
G01 X28.3468 Y-9.0359 F120.00
G01 X28.3430 Y-9.0275 F120.00
G01 X28.3365 Y-9.0100 F120.00
G01 X28.3327 Y-8.9966 F120.00
G01 X28.3166 Y-8.9227 F120.00
G01 X28.3141 Y-8.9084 F120.00
G01 X28.3130 Y-8.8988 F120.00
G01 X28.3122 Y-8.8794 F120.00
G01 X28.3126 Y-8.8698 F120.00
G01 X28.3140 Y-8.8553 F120.00
G01 X28.3164 Y-8.8410 F120.00
G01 X28.3200 Y-8.8269 F120.00
G01 X28.3245 Y-8.8131 F120.00
G01 X28.3528 Y-8.7380 F120.00
G01 X28.3610 Y-8.7213 F120.00
G01 X28.3706 Y-8.7055 F120.00
G01 X28.4328 Y-8.6221 F120.00
G01 X28.4655 Y-8.5349 F120.00
G01 X28.4685 Y-8.5076 F120.00
G01 X28.4685 Y-7.6640 F120.00
G01 X28.4690 Y-7.6455 F120.00
G01 X28.4721 Y-7.5915 F120.00
G01 X28.4698 Y-7.5692 F120.00
G01 X28.4685 Y-7.5402 F120.00
G01 X28.4685 Y-6.7324 F120.00
G01 X28.4655 Y-6.7051 F120.00
G01 X28.4328 Y-6.6179 F120.00
G01 X28.3709 Y-6.5349 F120.00
G01 X28.3537 Y-6.5078 F120.00
G01 X28.3472 Y-6.4955 F120.00
G01 X28.3415 Y-6.4827 F120.00
G01 X28.3368 Y-6.4696 F120.00
G01 X28.3330 Y-6.4562 F120.00
G01 X28.3160 Y-6.3775 F120.00
G01 X28.3133 Y-6.3584 F120.00
G01 X28.3125 Y-6.3390 F120.00
G01 X28.3129 Y-6.3293 F120.00
G01 X28.3143 Y-6.3149 F120.00
G01 X28.3167 Y-6.3006 F120.00
G01 X28.3203 Y-6.2865 F120.00
G01 X28.3249 Y-6.2727 F120.00
G01 X28.3532 Y-6.1976 F120.00
G01 X28.3613 Y-6.1809 F120.00
G01 X28.3709 Y-6.1650 F120.00
G01 X28.4328 Y-6.0821 F120.00
G01 X28.4655 Y-5.9949 F120.00
G01 X28.4685 Y-5.9676 F120.00
G01 X28.4685 Y-5.1240 F120.00
G01 X28.4690 Y-5.1055 F120.00
G01 X28.4721 Y-5.0515 F120.00
G01 X28.4698 Y-5.0292 F120.00
G01 X28.4685 Y-5.0002 F120.00
G01 X28.4685 Y-4.1924 F120.00
G01 X28.4655 Y-4.1651 F120.00
G01 X28.4328 Y-4.0779 F120.00
G01 X28.3790 Y-4.0060 F120.00
G01 X28.3071 Y-3.9522 F120.00
G01 X28.2199 Y-3.9195 F120.00
G01 X28.1926 Y-3.9165 F120.00
G01 X27.4175 Y-3.9165 F120.00
G01 X27.3896 Y-3.9153 F120.00
G01 X27.2900 Y-3.9165 F120.00
G01 X24.6174 Y-3.9165 F120.00
G01 X24.5901 Y-3.9195 F120.00
G01 X24.5029 Y-3.9522 F120.00
G01 X24.4310 Y-4.0060 F120.00
G01 X24.3772 Y-4.0779 F120.00
G01 X24.3445 Y-4.1651 F120.00
G01 X24.3415 Y-4.1924 F120.00
G01 X24.3415 Y-5.9676 F120.00
G01 X24.3445 Y-5.9949 F120.00
G01 X24.3772 Y-6.0821 F120.00
G01 X24.4391 Y-6.1651 F120.00
G01 X24.4563 Y-6.1922 F120.00
G01 X24.4628 Y-6.2045 F120.00
G01 X24.4685 Y-6.2173 F120.00
G01 X24.4732 Y-6.2304 F120.00
G01 X24.4770 Y-6.2438 F120.00
G01 X24.4940 Y-6.3225 F120.00
G01 X24.4967 Y-6.3416 F120.00
G01 X24.4975 Y-6.3610 F120.00
G01 X24.4968 Y-6.3755 F120.00
G01 X24.4957 Y-6.3851 F120.00
G01 X24.4933 Y-6.3994 F120.00
G01 X24.4897 Y-6.4135 F120.00
G01 X24.4851 Y-6.4273 F120.00
G01 X24.4568 Y-6.5024 F120.00
G01 X24.4487 Y-6.5191 F120.00
G01 X24.4391 Y-6.5350 F120.00
G01 X24.3772 Y-6.6179 F120.00
G01 X24.3445 Y-6.7051 F120.00
G01 X24.3415 Y-6.7324 F120.00
G01 X24.3415 Y-8.5076 F120.00
G01 X24.3445 Y-8.5349 F120.00
G01 X24.3772 Y-8.6221 F120.00
G01 X24.4394 Y-8.7055 F120.00
G01 X24.4566 Y-8.7326 F120.00
G01 X24.4632 Y-8.7449 F120.00
G01 X24.4688 Y-8.7577 F120.00
G01 X24.4735 Y-8.7708 F120.00
G01 X24.4773 Y-8.7842 F120.00
G01 X24.4943 Y-8.8629 F120.00
G01 X24.4970 Y-8.8821 F120.00
G01 X24.4978 Y-8.9014 F120.00
G01 X24.4971 Y-8.9159 F120.00
G01 X24.4953 Y-8.9303 F120.00
G01 X24.4925 Y-8.9446 F120.00
G01 X24.4900 Y-8.9539 F120.00
G01 X24.4855 Y-8.9677 F120.00
G01 X24.4606 Y-9.0342 F120.00
G01 X24.4553 Y-9.0471 F120.00
G01 X24.4468 Y-9.0636 F120.00
G01 X24.4367 Y-9.0792 F120.00
G01 X24.3776 Y-9.1581 F120.00
G01 X24.3450 Y-9.2453 F120.00
G01 X24.3420 Y-9.2725 F120.00
G01 X24.3420 Y-9.7110 F120.00
G01 X24.4600 Y-9.7110 F120.00
G01 X24.4600 Y-9.3100 F120.00
G01 X24.4609 Y-9.2909 F120.00
G00 Z1.0000
G00 X24.6311 Y-8.6635
G01 F60.00
G01 Z-0.0500
G01 F120.00
G01 X24.6454 Y-8.6648 F120.00
G01 X24.6550 Y-8.6650 F120.00
G01 X28.1550 Y-8.6650 F120.00
G01 X28.1693 Y-8.6645 F120.00
G01 X28.1789 Y-8.6635 F120.00
G01 X28.1930 Y-8.6613 F120.00
G01 X28.2024 Y-8.6592 F120.00
G01 X28.2162 Y-8.6552 F120.00
G01 X28.2252 Y-8.6519 F120.00
G01 X28.2340 Y-8.6483 F120.00
G01 X28.2469 Y-8.6420 F120.00
G01 X28.2552 Y-8.6373 F120.00
G01 X28.2673 Y-8.6294 F120.00
G01 X28.2750 Y-8.6237 F120.00
G01 X28.2860 Y-8.6145 F120.00
G01 X28.2962 Y-8.6045 F120.00
G01 X28.3057 Y-8.5937 F120.00
G01 X28.3144 Y-8.5823 F120.00
G01 X28.3197 Y-8.5743 F120.00
G01 X28.3270 Y-8.5619 F120.00
G01 X28.3333 Y-8.5490 F120.00
G01 X28.3386 Y-8.5357 F120.00
G01 X28.3416 Y-8.5266 F120.00
G01 X28.3453 Y-8.5127 F120.00
G01 X28.3471 Y-8.5033 F120.00
G01 X28.3491 Y-8.4891 F120.00
G01 X28.3498 Y-8.4796 F120.00
G01 X28.3499 Y-6.7652 F120.00
G01 X28.3485 Y-6.7461 F120.00
G01 X28.3471 Y-6.7367 F120.00
G01 X28.3442 Y-6.7226 F120.00
G01 X28.3402 Y-6.7088 F120.00
G01 X28.3369 Y-6.6998 F120.00
G01 X28.3313 Y-6.6866 F120.00
G01 X28.3270 Y-6.6781 F120.00
G01 X28.3223 Y-6.6698 F120.00
G01 X28.3144 Y-6.6577 F120.00
G01 X28.3087 Y-6.6500 F120.00
G01 X28.2995 Y-6.6390 F120.00
G01 X28.2895 Y-6.6288 F120.00
G01 X28.2787 Y-6.6193 F120.00
G01 X28.2673 Y-6.6106 F120.00
G01 X28.2593 Y-6.6053 F120.00
G01 X28.2469 Y-6.5980 F120.00
G01 X28.2340 Y-6.5917 F120.00
G01 X28.2207 Y-6.5864 F120.00
G01 X28.2116 Y-6.5834 F120.00
G01 X28.1977 Y-6.5797 F120.00
G01 X28.1836 Y-6.5771 F120.00
G01 X28.1741 Y-6.5759 F120.00
G01 X28.1598 Y-6.5751 F120.00
G01 X24.6550 Y-6.5750 F120.00
G01 X24.6407 Y-6.5755 F120.00
G01 X24.6311 Y-6.5765 F120.00
G01 X24.6170 Y-6.5787 F120.00
G01 X24.6076 Y-6.5808 F120.00
G01 X24.5938 Y-6.5848 F120.00
G01 X24.5848 Y-6.5881 F120.00
G01 X24.5716 Y-6.5937 F120.00
G01 X24.5631 Y-6.5980 F120.00
G01 X24.5507 Y-6.6053 F120.00
G01 X24.5427 Y-6.6106 F120.00
G01 X24.5350 Y-6.6163 F120.00
G01 X24.5240 Y-6.6255 F120.00
G01 X24.5171 Y-6.6321 F120.00
G01 X24.5073 Y-6.6426 F120.00
G01 X24.4984 Y-6.6538 F120.00
G01 X24.4903 Y-6.6657 F120.00
G01 X24.4830 Y-6.6781 F120.00
G01 X24.4767 Y-6.6910 F120.00
G01 X24.4714 Y-6.7043 F120.00
G01 X24.4684 Y-6.7134 F120.00
G01 X24.4658 Y-6.7226 F120.00
G01 X24.4629 Y-6.7367 F120.00
G01 X24.4615 Y-6.7461 F120.00
G01 X24.4602 Y-6.7604 F120.00
G01 X24.4601 Y-8.4748 F120.00
G01 X24.4609 Y-8.4891 F120.00
G01 X24.4637 Y-8.5080 F120.00
G01 X24.4684 Y-8.5266 F120.00
G01 X24.4731 Y-8.5402 F120.00
G01 X24.4808 Y-8.5577 F120.00
G01 X24.4903 Y-8.5743 F120.00
G01 X24.5013 Y-8.5900 F120.00
G01 X24.5105 Y-8.6010 F120.00
G01 X24.5240 Y-8.6145 F120.00
G01 X24.5388 Y-8.6266 F120.00
G01 X24.5548 Y-8.6373 F120.00
G01 X24.5673 Y-8.6442 F120.00
G01 X24.5848 Y-8.6519 F120.00
G01 X24.5984 Y-8.6566 F120.00
G01 X24.6123 Y-8.6603 F120.00
G01 X24.6311 Y-8.6635 F120.00
G00 Z1.0000
G00 X24.6311 Y-6.1235
G01 F60.00
G01 Z-0.0500
G01 F120.00
G01 X24.6454 Y-6.1248 F120.00
G01 X24.6550 Y-6.1250 F120.00
G01 X28.1550 Y-6.1250 F120.00
G01 X28.1646 Y-6.1248 F120.00
G01 X28.1789 Y-6.1235 F120.00
G01 X28.1930 Y-6.1213 F120.00
G01 X28.2024 Y-6.1192 F120.00
G01 X28.2162 Y-6.1152 F120.00
G01 X28.2252 Y-6.1119 F120.00
G01 X28.2340 Y-6.1083 F120.00
G01 X28.2469 Y-6.1020 F120.00
G01 X28.2552 Y-6.0973 F120.00
G01 X28.2673 Y-6.0894 F120.00
G01 X28.2787 Y-6.0807 F120.00
G01 X28.2860 Y-6.0745 F120.00
G01 X28.2962 Y-6.0645 F120.00
G01 X28.3057 Y-6.0537 F120.00
G01 X28.3144 Y-6.0423 F120.00
G01 X28.3197 Y-6.0343 F120.00
G01 X28.3270 Y-6.0219 F120.00
G01 X28.3313 Y-6.0134 F120.00
G01 X28.3369 Y-6.0002 F120.00
G01 X28.3402 Y-5.9912 F120.00
G01 X28.3442 Y-5.9774 F120.00
G01 X28.3471 Y-5.9633 F120.00
G01 X28.3491 Y-5.9491 F120.00
G01 X28.3498 Y-5.9396 F120.00
G01 X28.3499 Y-4.2252 F120.00
G01 X28.3485 Y-4.2061 F120.00
G01 X28.3471 Y-4.1967 F120.00
G01 X28.3442 Y-4.1826 F120.00
G01 X28.3402 Y-4.1688 F120.00
G01 X28.3369 Y-4.1598 F120.00
G01 X28.3313 Y-4.1466 F120.00
G01 X28.3270 Y-4.1381 F120.00
G01 X28.3223 Y-4.1298 F120.00
G01 X28.3144 Y-4.1177 F120.00
G01 X28.3087 Y-4.1100 F120.00
G01 X28.2995 Y-4.0990 F120.00
G01 X28.2895 Y-4.0888 F120.00
G01 X28.2787 Y-4.0793 F120.00
G01 X28.2673 Y-4.0706 F120.00
G01 X28.2593 Y-4.0653 F120.00
G01 X28.2469 Y-4.0580 F120.00
G01 X28.2340 Y-4.0517 F120.00
G01 X28.2207 Y-4.0464 F120.00
G01 X28.2116 Y-4.0434 F120.00
G01 X28.1977 Y-4.0397 F120.00
G01 X28.1836 Y-4.0371 F120.00
G01 X28.1741 Y-4.0359 F120.00
G01 X28.1598 Y-4.0351 F120.00
G01 X24.6550 Y-4.0350 F120.00
G01 X24.6407 Y-4.0355 F120.00
G01 X24.6311 Y-4.0365 F120.00
G01 X24.6170 Y-4.0387 F120.00
G01 X24.6076 Y-4.0408 F120.00
G01 X24.5938 Y-4.0448 F120.00
G01 X24.5848 Y-4.0481 F120.00
G01 X24.5716 Y-4.0537 F120.00
G01 X24.5631 Y-4.0580 F120.00
G01 X24.5507 Y-4.0653 F120.00
G01 X24.5427 Y-4.0706 F120.00
G01 X24.5350 Y-4.0763 F120.00
G01 X24.5240 Y-4.0855 F120.00
G01 X24.5171 Y-4.0921 F120.00
G01 X24.5073 Y-4.1026 F120.00
G01 X24.4984 Y-4.1138 F120.00
G01 X24.4903 Y-4.1257 F120.00
G01 X24.4830 Y-4.1381 F120.00
G01 X24.4767 Y-4.1510 F120.00
G01 X24.4714 Y-4.1643 F120.00
G01 X24.4684 Y-4.1734 F120.00
G01 X24.4658 Y-4.1826 F120.00
G01 X24.4629 Y-4.1967 F120.00
G01 X24.4615 Y-4.2061 F120.00
G01 X24.4602 Y-4.2204 F120.00
G01 X24.4601 Y-5.9348 F120.00
G01 X24.4609 Y-5.9491 F120.00
G01 X24.4637 Y-5.9680 F120.00
G01 X24.4684 Y-5.9866 F120.00
G01 X24.4731 Y-6.0002 F120.00
G01 X24.4808 Y-6.0177 F120.00
G01 X24.4877 Y-6.0302 F120.00
G01 X24.4984 Y-6.0462 F120.00
G01 X24.5105 Y-6.0610 F120.00
G01 X24.5240 Y-6.0745 F120.00
G01 X24.5388 Y-6.0866 F120.00
G01 X24.5548 Y-6.0973 F120.00
G01 X24.5673 Y-6.1042 F120.00
G01 X24.5804 Y-6.1102 F120.00
G01 X24.5984 Y-6.1166 F120.00
G01 X24.6170 Y-6.1213 F120.00
G01 X24.6311 Y-6.1235 F120.00
G00 Z1.0000
G00 X24.6359 Y-13.7441
G01 F60.00
G01 Z-0.0500
G01 F120.00
G01 X24.6550 Y-13.7450 F120.00
G01 X28.1550 Y-13.7450 F120.00
G01 X28.1693 Y-13.7445 F120.00
G01 X28.1789 Y-13.7435 F120.00
G01 X28.1930 Y-13.7413 F120.00
G01 X28.2024 Y-13.7392 F120.00
G01 X28.2162 Y-13.7352 F120.00
G01 X28.2252 Y-13.7319 F120.00
G01 X28.2340 Y-13.7283 F120.00
G01 X28.2469 Y-13.7220 F120.00
G01 X28.2552 Y-13.7173 F120.00
G01 X28.2673 Y-13.7094 F120.00
G01 X28.2750 Y-13.7037 F120.00
G01 X28.2860 Y-13.6945 F120.00
G01 X28.2962 Y-13.6845 F120.00
G01 X28.3057 Y-13.6737 F120.00
G01 X28.3144 Y-13.6623 F120.00
G01 X28.3197 Y-13.6543 F120.00
G01 X28.3270 Y-13.6419 F120.00
G01 X28.3333 Y-13.6290 F120.00
G01 X28.3386 Y-13.6157 F120.00
G01 X28.3416 Y-13.6066 F120.00
G01 X28.3453 Y-13.5927 F120.00
G01 X28.3471 Y-13.5833 F120.00
G01 X28.3491 Y-13.5691 F120.00
G01 X28.3498 Y-13.5596 F120.00
G01 X28.3499 Y-11.8452 F120.00
G01 X28.3485 Y-11.8261 F120.00
G01 X28.3471 Y-11.8167 F120.00
G01 X28.3442 Y-11.8026 F120.00
G01 X28.3402 Y-11.7888 F120.00
G01 X28.3369 Y-11.7798 F120.00
G01 X28.3313 Y-11.7666 F120.00
G01 X28.3270 Y-11.7581 F120.00
G01 X28.3197 Y-11.7457 F120.00
G01 X28.3116 Y-11.7338 F120.00
G01 X28.3027 Y-11.7226 F120.00
G01 X28.2962 Y-11.7155 F120.00
G01 X28.2895 Y-11.7088 F120.00
G01 X28.2787 Y-11.6993 F120.00
G01 X28.2673 Y-11.6906 F120.00
G01 X28.2552 Y-11.6827 F120.00
G01 X28.2427 Y-11.6758 F120.00
G01 X28.2296 Y-11.6698 F120.00
G01 X28.2162 Y-11.6648 F120.00
G01 X28.2070 Y-11.6621 F120.00
G01 X28.1977 Y-11.6597 F120.00
G01 X28.1836 Y-11.6571 F120.00
G01 X28.1741 Y-11.6559 F120.00
G01 X28.1598 Y-11.6551 F120.00
G01 X24.6550 Y-11.6550 F120.00
G01 X24.6454 Y-11.6552 F120.00
G01 X24.6311 Y-11.6565 F120.00
G01 X24.6217 Y-11.6579 F120.00
G01 X24.6076 Y-11.6608 F120.00
G01 X24.5984 Y-11.6634 F120.00
G01 X24.5848 Y-11.6681 F120.00
G01 X24.5760 Y-11.6717 F120.00
G01 X24.5631 Y-11.6780 F120.00
G01 X24.5507 Y-11.6853 F120.00
G01 X24.5388 Y-11.6934 F120.00
G01 X24.5276 Y-11.7023 F120.00
G01 X24.5205 Y-11.7088 F120.00
G01 X24.5105 Y-11.7190 F120.00
G01 X24.5043 Y-11.7263 F120.00
G01 X24.4956 Y-11.7377 F120.00
G01 X24.4903 Y-11.7457 F120.00
G01 X24.4853 Y-11.7539 F120.00
G01 X24.4787 Y-11.7666 F120.00
G01 X24.4731 Y-11.7798 F120.00
G01 X24.4684 Y-11.7934 F120.00
G01 X24.4658 Y-11.8026 F120.00
G01 X24.4629 Y-11.8167 F120.00
G01 X24.4615 Y-11.8261 F120.00
G01 X24.4602 Y-11.8404 F120.00
G01 X24.4601 Y-13.5548 F120.00
G01 X24.4609 Y-13.5691 F120.00
G01 X24.4637 Y-13.5880 F120.00
G01 X24.4684 Y-13.6066 F120.00
G01 X24.4748 Y-13.6246 F120.00
G01 X24.4830 Y-13.6419 F120.00
G01 X24.4903 Y-13.6543 F120.00
G01 X24.5013 Y-13.6700 F120.00
G01 X24.5138 Y-13.6845 F120.00
G01 X24.5276 Y-13.6977 F120.00
G01 X24.5427 Y-13.7094 F120.00
G01 X24.5589 Y-13.7197 F120.00
G01 X24.5716 Y-13.7263 F120.00
G01 X24.5848 Y-13.7319 F120.00
G01 X24.6030 Y-13.7379 F120.00
G01 X24.6170 Y-13.7413 F120.00
G01 X24.6359 Y-13.7441 F120.00
G00 Z1.0000
G00 X24.6359 Y-16.2841
G01 F60.00
G01 Z-0.0500
G01 F120.00
G01 X24.6550 Y-16.2850 F120.00
G01 X28.1550 Y-16.2850 F120.00
G01 X28.1693 Y-16.2845 F120.00
G01 X28.1789 Y-16.2835 F120.00
G01 X28.1883 Y-16.2821 F120.00
G01 X28.2024 Y-16.2792 F120.00
G01 X28.2162 Y-16.2752 F120.00
G01 X28.2252 Y-16.2719 F120.00
G01 X28.2384 Y-16.2663 F120.00
G01 X28.2469 Y-16.2620 F120.00
G01 X28.2593 Y-16.2547 F120.00
G01 X28.2712 Y-16.2466 F120.00
G01 X28.2787 Y-16.2407 F120.00
G01 X28.2895 Y-16.2312 F120.00
G01 X28.2962 Y-16.2245 F120.00
G01 X28.3057 Y-16.2137 F120.00
G01 X28.3144 Y-16.2023 F120.00
G01 X28.3197 Y-16.1943 F120.00
G01 X28.3270 Y-16.1819 F120.00
G01 X28.3333 Y-16.1690 F120.00
G01 X28.3386 Y-16.1557 F120.00
G01 X28.3416 Y-16.1466 F120.00
G01 X28.3453 Y-16.1327 F120.00
G01 X28.3471 Y-16.1233 F120.00
G01 X28.3491 Y-16.1091 F120.00
G01 X28.3498 Y-16.0996 F120.00
G01 X28.3499 Y-14.3852 F120.00
G01 X28.3485 Y-14.3661 F120.00
G01 X28.3471 Y-14.3567 F120.00
G01 X28.3442 Y-14.3426 F120.00
G01 X28.3402 Y-14.3288 F120.00
G01 X28.3369 Y-14.3198 F120.00
G01 X28.3313 Y-14.3066 F120.00
G01 X28.3270 Y-14.2981 F120.00
G01 X28.3197 Y-14.2857 F120.00
G01 X28.3116 Y-14.2738 F120.00
G01 X28.3027 Y-14.2626 F120.00
G01 X28.2962 Y-14.2555 F120.00
G01 X28.2895 Y-14.2488 F120.00
G01 X28.2787 Y-14.2393 F120.00
G01 X28.2673 Y-14.2306 F120.00
G01 X28.2552 Y-14.2227 F120.00
G01 X28.2427 Y-14.2158 F120.00
G01 X28.2296 Y-14.2098 F120.00
G01 X28.2162 Y-14.2048 F120.00
G01 X28.2070 Y-14.2021 F120.00
G01 X28.1977 Y-14.1997 F120.00
G01 X28.1836 Y-14.1971 F120.00
G01 X28.1741 Y-14.1959 F120.00
G01 X28.1598 Y-14.1951 F120.00
G01 X24.6550 Y-14.1950 F120.00
G01 X24.6454 Y-14.1952 F120.00
G01 X24.6311 Y-14.1965 F120.00
G01 X24.6217 Y-14.1979 F120.00
G01 X24.6076 Y-14.2008 F120.00
G01 X24.5984 Y-14.2034 F120.00
G01 X24.5848 Y-14.2081 F120.00
G01 X24.5760 Y-14.2117 F120.00
G01 X24.5631 Y-14.2180 F120.00
G01 X24.5507 Y-14.2253 F120.00
G01 X24.5388 Y-14.2334 F120.00
G01 X24.5276 Y-14.2423 F120.00
G01 X24.5205 Y-14.2488 F120.00
G01 X24.5105 Y-14.2590 F120.00
G01 X24.5043 Y-14.2663 F120.00
G01 X24.4956 Y-14.2777 F120.00
G01 X24.4903 Y-14.2857 F120.00
G01 X24.4853 Y-14.2939 F120.00
G01 X24.4787 Y-14.3066 F120.00
G01 X24.4731 Y-14.3198 F120.00
G01 X24.4684 Y-14.3334 F120.00
G01 X24.4658 Y-14.3426 F120.00
G01 X24.4629 Y-14.3567 F120.00
G01 X24.4615 Y-14.3661 F120.00
G01 X24.4602 Y-14.3804 F120.00
G01 X24.4601 Y-16.0948 F120.00
G01 X24.4609 Y-16.1091 F120.00
G01 X24.4637 Y-16.1280 F120.00
G01 X24.4684 Y-16.1466 F120.00
G01 X24.4748 Y-16.1646 F120.00
G01 X24.4808 Y-16.1777 F120.00
G01 X24.4903 Y-16.1943 F120.00
G01 X24.5013 Y-16.2100 F120.00
G01 X24.5138 Y-16.2245 F120.00
G01 X24.5276 Y-16.2377 F120.00
G01 X24.5388 Y-16.2466 F120.00
G01 X24.5507 Y-16.2547 F120.00
G01 X24.5673 Y-16.2642 F120.00
G01 X24.5848 Y-16.2719 F120.00
G01 X24.6030 Y-16.2779 F120.00
G01 X24.6170 Y-16.2813 F120.00
G01 X24.6359 Y-16.2841 F120.00
G00 Z1.0000
G00 X24.6359 Y-26.4441
G01 F60.00
G01 Z-0.0500
G01 F120.00
G01 X24.6550 Y-26.4450 F120.00
G01 X28.1550 Y-26.4450 F120.00
G01 X28.1646 Y-26.4448 F120.00
G01 X28.1789 Y-26.4435 F120.00
G01 X28.1883 Y-26.4421 F120.00
G01 X28.2024 Y-26.4392 F120.00
G01 X28.2162 Y-26.4352 F120.00
G01 X28.2252 Y-26.4319 F120.00
G01 X28.2384 Y-26.4263 F120.00
G01 X28.2469 Y-26.4220 F120.00
G01 X28.2593 Y-26.4147 F120.00
G01 X28.2712 Y-26.4066 F120.00
G01 X28.2787 Y-26.4007 F120.00
G01 X28.2895 Y-26.3912 F120.00
G01 X28.2962 Y-26.3845 F120.00
G01 X28.3057 Y-26.3737 F120.00
G01 X28.3144 Y-26.3623 F120.00
G01 X28.3197 Y-26.3543 F120.00
G01 X28.3270 Y-26.3419 F120.00
G01 X28.3333 Y-26.3290 F120.00
G01 X28.3386 Y-26.3157 F120.00
G01 X28.3416 Y-26.3066 F120.00
G01 X28.3453 Y-26.2927 F120.00
G01 X28.3471 Y-26.2833 F120.00
G01 X28.3491 Y-26.2691 F120.00
G01 X28.3498 Y-26.2596 F120.00
G01 X28.3499 Y-24.5452 F120.00
G01 X28.3485 Y-24.5261 F120.00
G01 X28.3471 Y-24.5167 F120.00
G01 X28.3442 Y-24.5026 F120.00
G01 X28.3402 Y-24.4888 F120.00
G01 X28.3369 Y-24.4798 F120.00
G01 X28.3313 Y-24.4666 F120.00
G01 X28.3270 Y-24.4581 F120.00
G01 X28.3197 Y-24.4457 F120.00
G01 X28.3116 Y-24.4338 F120.00
G01 X28.3027 Y-24.4226 F120.00
G01 X28.2962 Y-24.4155 F120.00
G01 X28.2895 Y-24.4088 F120.00
G01 X28.2787 Y-24.3993 F120.00
G01 X28.2673 Y-24.3906 F120.00
G01 X28.2552 Y-24.3827 F120.00
G01 X28.2427 Y-24.3758 F120.00
G01 X28.2296 Y-24.3698 F120.00
G01 X28.2162 Y-24.3648 F120.00
G01 X28.2070 Y-24.3621 F120.00
G01 X28.1977 Y-24.3597 F120.00
G01 X28.1836 Y-24.3571 F120.00
G01 X28.1741 Y-24.3559 F120.00
G01 X28.1598 Y-24.3551 F120.00
G01 X24.6550 Y-24.3550 F120.00
G01 X24.6454 Y-24.3552 F120.00
G01 X24.6311 Y-24.3565 F120.00
G01 X24.6217 Y-24.3579 F120.00
G01 X24.6076 Y-24.3608 F120.00
G01 X24.5938 Y-24.3648 F120.00
G01 X24.5848 Y-24.3681 F120.00
G01 X24.5716 Y-24.3737 F120.00
G01 X24.5631 Y-24.3780 F120.00
G01 X24.5507 Y-24.3853 F120.00
G01 X24.5388 Y-24.3934 F120.00
G01 X24.5313 Y-24.3993 F120.00
G01 X24.5205 Y-24.4088 F120.00
G01 X24.5105 Y-24.4190 F120.00
G01 X24.5043 Y-24.4263 F120.00
G01 X24.4956 Y-24.4377 F120.00
G01 X24.4903 Y-24.4457 F120.00
G01 X24.4853 Y-24.4539 F120.00
G01 X24.4787 Y-24.4666 F120.00
G01 X24.4731 Y-24.4798 F120.00
G01 X24.4684 Y-24.4934 F120.00
G01 X24.4658 Y-24.5026 F120.00
G01 X24.4629 Y-24.5167 F120.00
G01 X24.4615 Y-24.5261 F120.00
G01 X24.4602 Y-24.5404 F120.00
G01 X24.4601 Y-26.2548 F120.00
G01 X24.4609 Y-26.2691 F120.00
G01 X24.4637 Y-26.2880 F120.00
G01 X24.4684 Y-26.3066 F120.00
G01 X24.4748 Y-26.3246 F120.00
G01 X24.4808 Y-26.3377 F120.00
G01 X24.4903 Y-26.3543 F120.00
G01 X24.5013 Y-26.3700 F120.00
G01 X24.5138 Y-26.3845 F120.00
G01 X24.5276 Y-26.3977 F120.00
G01 X24.5388 Y-26.4066 F120.00
G01 X24.5507 Y-26.4147 F120.00
G01 X24.5673 Y-26.4242 F120.00
G01 X24.5848 Y-26.4319 F120.00
G01 X24.5984 Y-26.4366 F120.00
G01 X24.6170 Y-26.4413 F120.00
G01 X24.6359 Y-26.4441 F120.00
G00 Z1.0000
G00 X24.6359 Y-28.9841
G01 F60.00
G01 Z-0.0500
G01 F120.00
G01 X24.6550 Y-28.9850 F120.00
G01 X28.1550 Y-28.9850 F120.00
G01 X28.1646 Y-28.9848 F120.00
G01 X28.1789 Y-28.9835 F120.00
G01 X28.1883 Y-28.9821 F120.00
G01 X28.2024 Y-28.9792 F120.00
G01 X28.2162 Y-28.9752 F120.00
G01 X28.2252 Y-28.9719 F120.00
G01 X28.2384 Y-28.9663 F120.00
G01 X28.2469 Y-28.9620 F120.00
G01 X28.2593 Y-28.9547 F120.00
G01 X28.2712 Y-28.9466 F120.00
G01 X28.2787 Y-28.9407 F120.00
G01 X28.2895 Y-28.9312 F120.00
G01 X28.2962 Y-28.9245 F120.00
G01 X28.3057 Y-28.9137 F120.00
G01 X28.3144 Y-28.9023 F120.00
G01 X28.3197 Y-28.8943 F120.00
G01 X28.3270 Y-28.8819 F120.00
G01 X28.3333 Y-28.8690 F120.00
G01 X28.3386 Y-28.8557 F120.00
G01 X28.3416 Y-28.8466 F120.00
G01 X28.3453 Y-28.8327 F120.00
G01 X28.3471 Y-28.8233 F120.00
G01 X28.3491 Y-28.8091 F120.00
G01 X28.3498 Y-28.7996 F120.00
G01 X28.3499 Y-27.0852 F120.00
G01 X28.3485 Y-27.0661 F120.00
G01 X28.3471 Y-27.0567 F120.00
G01 X28.3442 Y-27.0426 F120.00
G01 X28.3402 Y-27.0288 F120.00
G01 X28.3369 Y-27.0198 F120.00
G01 X28.3313 Y-27.0066 F120.00
G01 X28.3270 Y-26.9981 F120.00
G01 X28.3197 Y-26.9857 F120.00
G01 X28.3116 Y-26.9738 F120.00
G01 X28.3027 Y-26.9626 F120.00
G01 X28.2962 Y-26.9555 F120.00
G01 X28.2895 Y-26.9488 F120.00
G01 X28.2787 Y-26.9393 F120.00
G01 X28.2673 Y-26.9306 F120.00
G01 X28.2552 Y-26.9227 F120.00
G01 X28.2427 Y-26.9158 F120.00
G01 X28.2296 Y-26.9098 F120.00
G01 X28.2162 Y-26.9048 F120.00
G01 X28.2070 Y-26.9021 F120.00
G01 X28.1977 Y-26.8997 F120.00
G01 X28.1836 Y-26.8971 F120.00
G01 X28.1741 Y-26.8959 F120.00
G01 X28.1598 Y-26.8951 F120.00
G01 X24.6550 Y-26.8950 F120.00
G01 X24.6454 Y-26.8952 F120.00
G01 X24.6311 Y-26.8965 F120.00
G01 X24.6217 Y-26.8979 F120.00
G01 X24.6076 Y-26.9008 F120.00
G01 X24.5938 Y-26.9048 F120.00
G01 X24.5848 Y-26.9081 F120.00
G01 X24.5716 Y-26.9137 F120.00
G01 X24.5631 Y-26.9180 F120.00
G01 X24.5507 Y-26.9253 F120.00
G01 X24.5388 Y-26.9334 F120.00
G01 X24.5313 Y-26.9393 F120.00
G01 X24.5205 Y-26.9488 F120.00
G01 X24.5105 Y-26.9590 F120.00
G01 X24.5043 Y-26.9663 F120.00
G01 X24.4956 Y-26.9777 F120.00
G01 X24.4903 Y-26.9857 F120.00
G01 X24.4853 Y-26.9939 F120.00
G01 X24.4787 Y-27.0066 F120.00
G01 X24.4731 Y-27.0198 F120.00
G01 X24.4684 Y-27.0334 F120.00
G01 X24.4658 Y-27.0426 F120.00
G01 X24.4629 Y-27.0567 F120.00
G01 X24.4615 Y-27.0661 F120.00
G01 X24.4602 Y-27.0804 F120.00
G01 X24.4601 Y-28.7948 F120.00
G01 X24.4609 Y-28.8091 F120.00
G01 X24.4637 Y-28.8280 F120.00
G01 X24.4684 Y-28.8466 F120.00
G01 X24.4748 Y-28.8646 F120.00
G01 X24.4808 Y-28.8777 F120.00
G01 X24.4903 Y-28.8943 F120.00
G01 X24.5013 Y-28.9100 F120.00
G01 X24.5138 Y-28.9245 F120.00
G01 X24.5276 Y-28.9377 F120.00
G01 X24.5388 Y-28.9466 F120.00
G01 X24.5507 Y-28.9547 F120.00
G01 X24.5673 Y-28.9642 F120.00
G01 X24.5848 Y-28.9719 F120.00
G01 X24.5984 Y-28.9766 F120.00
G01 X24.6170 Y-28.9813 F120.00
G01 X24.6359 Y-28.9841 F120.00
G00 Z1.0000
G00 X24.6311 Y-31.5235
G01 F60.00
G01 Z-0.0500
G01 F120.00
G01 X24.6407 Y-31.5245 F120.00
G01 X24.6550 Y-31.5250 F120.00
G01 X28.1550 Y-31.5250 F120.00
G01 X28.1646 Y-31.5248 F120.00
G01 X28.1789 Y-31.5235 F120.00
G01 X28.1883 Y-31.5221 F120.00
G01 X28.2024 Y-31.5192 F120.00
G01 X28.2162 Y-31.5152 F120.00
G01 X28.2252 Y-31.5119 F120.00
G01 X28.2384 Y-31.5063 F120.00
G01 X28.2469 Y-31.5020 F120.00
G01 X28.2593 Y-31.4947 F120.00
G01 X28.2712 Y-31.4866 F120.00
G01 X28.2787 Y-31.4807 F120.00
G01 X28.2895 Y-31.4712 F120.00
G01 X28.2962 Y-31.4645 F120.00
G01 X28.3057 Y-31.4537 F120.00
G01 X28.3144 Y-31.4423 F120.00
G01 X28.3197 Y-31.4343 F120.00
G01 X28.3270 Y-31.4219 F120.00
G01 X28.3333 Y-31.4090 F120.00
G01 X28.3386 Y-31.3957 F120.00
G01 X28.3416 Y-31.3866 F120.00
G01 X28.3453 Y-31.3727 F120.00
G01 X28.3471 Y-31.3633 F120.00
G01 X28.3491 Y-31.3491 F120.00
G01 X28.3498 Y-31.3396 F120.00
G01 X28.3499 Y-29.6252 F120.00
G01 X28.3485 Y-29.6061 F120.00
G01 X28.3471 Y-29.5967 F120.00
G01 X28.3442 Y-29.5826 F120.00
G01 X28.3402 Y-29.5688 F120.00
G01 X28.3369 Y-29.5598 F120.00
G01 X28.3313 Y-29.5466 F120.00
G01 X28.3270 Y-29.5381 F120.00
G01 X28.3197 Y-29.5257 F120.00
G01 X28.3116 Y-29.5138 F120.00
G01 X28.3027 Y-29.5026 F120.00
G01 X28.2962 Y-29.4955 F120.00
G01 X28.2895 Y-29.4888 F120.00
G01 X28.2787 Y-29.4793 F120.00
G01 X28.2673 Y-29.4706 F120.00
G01 X28.2552 Y-29.4627 F120.00
G01 X28.2427 Y-29.4558 F120.00
G01 X28.2296 Y-29.4498 F120.00
G01 X28.2162 Y-29.4448 F120.00
G01 X28.2070 Y-29.4421 F120.00
G01 X28.1977 Y-29.4397 F120.00
G01 X28.1836 Y-29.4371 F120.00
G01 X28.1741 Y-29.4359 F120.00
G01 X28.1598 Y-29.4351 F120.00
G01 X24.6550 Y-29.4350 F120.00
G01 X24.6454 Y-29.4352 F120.00
G01 X24.6311 Y-29.4365 F120.00
G01 X24.6217 Y-29.4379 F120.00
G01 X24.6076 Y-29.4408 F120.00
G01 X24.5938 Y-29.4448 F120.00
G01 X24.5848 Y-29.4481 F120.00
G01 X24.5716 Y-29.4537 F120.00
G01 X24.5631 Y-29.4580 F120.00
G01 X24.5507 Y-29.4653 F120.00
G01 X24.5388 Y-29.4734 F120.00
G01 X24.5313 Y-29.4793 F120.00
G01 X24.5205 Y-29.4888 F120.00
G01 X24.5105 Y-29.4990 F120.00
G01 X24.5043 Y-29.5063 F120.00
G01 X24.4956 Y-29.5177 F120.00
G01 X24.4903 Y-29.5257 F120.00
G01 X24.4853 Y-29.5339 F120.00
G01 X24.4787 Y-29.5466 F120.00
G01 X24.4731 Y-29.5598 F120.00
G01 X24.4684 Y-29.5734 F120.00
G01 X24.4658 Y-29.5826 F120.00
G01 X24.4629 Y-29.5967 F120.00
G01 X24.4615 Y-29.6061 F120.00
G01 X24.4602 Y-29.6204 F120.00
G01 X24.4601 Y-31.3348 F120.00
G01 X24.4609 Y-31.3491 F120.00
G01 X24.4637 Y-31.3680 F120.00
G01 X24.4684 Y-31.3866 F120.00
G01 X24.4731 Y-31.4002 F120.00
G01 X24.4808 Y-31.4177 F120.00
G01 X24.4903 Y-31.4343 F120.00
G01 X24.5013 Y-31.4500 F120.00
G01 X24.5105 Y-31.4610 F120.00
G01 X24.5205 Y-31.4712 F120.00
G01 X24.5350 Y-31.4837 F120.00
G01 X24.5507 Y-31.4947 F120.00
G01 X24.5673 Y-31.5042 F120.00
G01 X24.5848 Y-31.5119 F120.00
G01 X24.5984 Y-31.5166 F120.00
G01 X24.6170 Y-31.5213 F120.00
G01 X24.6311 Y-31.5235 F120.00
G00 Z1.0000
G00 X24.6359 Y-34.0641
G01 F60.00
G01 Z-0.0500
G01 F120.00
G01 X24.6550 Y-34.0650 F120.00
G01 X28.1550 Y-34.0650 F120.00
G01 X28.1646 Y-34.0648 F120.00
G01 X28.1789 Y-34.0635 F120.00
G01 X28.1930 Y-34.0613 F120.00
G01 X28.2024 Y-34.0592 F120.00
G01 X28.2162 Y-34.0552 F120.00
G01 X28.2252 Y-34.0519 F120.00
G01 X28.2384 Y-34.0463 F120.00
G01 X28.2469 Y-34.0420 F120.00
G01 X28.2552 Y-34.0373 F120.00
G01 X28.2673 Y-34.0294 F120.00
G01 X28.2750 Y-34.0237 F120.00
G01 X28.2860 Y-34.0145 F120.00
G01 X28.2962 Y-34.0045 F120.00
G01 X28.3057 Y-33.9937 F120.00
G01 X28.3144 Y-33.9823 F120.00
G01 X28.3197 Y-33.9743 F120.00
G01 X28.3270 Y-33.9619 F120.00
G01 X28.3333 Y-33.9490 F120.00
G01 X28.3369 Y-33.9402 F120.00
G01 X28.3416 Y-33.9266 F120.00
G01 X28.3453 Y-33.9127 F120.00
G01 X28.3471 Y-33.9033 F120.00
G01 X28.3491 Y-33.8891 F120.00
G01 X28.3498 Y-33.8796 F120.00
G01 X28.3499 Y-32.1652 F120.00
G01 X28.3485 Y-32.1461 F120.00
G01 X28.3471 Y-32.1367 F120.00
G01 X28.3442 Y-32.1226 F120.00
G01 X28.3402 Y-32.1088 F120.00
G01 X28.3369 Y-32.0998 F120.00
G01 X28.3313 Y-32.0866 F120.00
G01 X28.3270 Y-32.0781 F120.00
G01 X28.3197 Y-32.0657 F120.00
G01 X28.3116 Y-32.0538 F120.00
G01 X28.3027 Y-32.0426 F120.00
G01 X28.2962 Y-32.0355 F120.00
G01 X28.2860 Y-32.0255 F120.00
G01 X28.2787 Y-32.0193 F120.00
G01 X28.2712 Y-32.0134 F120.00
G01 X28.2593 Y-32.0053 F120.00
G01 X28.2469 Y-31.9980 F120.00
G01 X28.2384 Y-31.9937 F120.00
G01 X28.2252 Y-31.9881 F120.00
G01 X28.2116 Y-31.9834 F120.00
G01 X28.1977 Y-31.9797 F120.00
G01 X28.1836 Y-31.9771 F120.00
G01 X28.1741 Y-31.9759 F120.00
G01 X28.1598 Y-31.9751 F120.00
G01 X24.6550 Y-31.9750 F120.00
G01 X24.6454 Y-31.9752 F120.00
G01 X24.6311 Y-31.9765 F120.00
G01 X24.6217 Y-31.9779 F120.00
G01 X24.6076 Y-31.9808 F120.00
G01 X24.5938 Y-31.9848 F120.00
G01 X24.5848 Y-31.9881 F120.00
G01 X24.5716 Y-31.9937 F120.00
G01 X24.5631 Y-31.9980 F120.00
G01 X24.5507 Y-32.0053 F120.00
G01 X24.5427 Y-32.0106 F120.00
G01 X24.5313 Y-32.0193 F120.00
G01 X24.5240 Y-32.0255 F120.00
G01 X24.5138 Y-32.0355 F120.00
G01 X24.5043 Y-32.0463 F120.00
G01 X24.4956 Y-32.0577 F120.00
G01 X24.4903 Y-32.0657 F120.00
G01 X24.4830 Y-32.0781 F120.00
G01 X24.4787 Y-32.0866 F120.00
G01 X24.4731 Y-32.0998 F120.00
G01 X24.4698 Y-32.1088 F120.00
G01 X24.4658 Y-32.1226 F120.00
G01 X24.4637 Y-32.1320 F120.00
G01 X24.4615 Y-32.1461 F120.00
G01 X24.4602 Y-32.1604 F120.00
G01 X24.4601 Y-33.8748 F120.00
G01 X24.4615 Y-33.8939 F120.00
G01 X24.4647 Y-33.9127 F120.00
G01 X24.4698 Y-33.9312 F120.00
G01 X24.4748 Y-33.9446 F120.00
G01 X24.4830 Y-33.9619 F120.00
G01 X24.4903 Y-33.9743 F120.00
G01 X24.5013 Y-33.9900 F120.00
G01 X24.5105 Y-34.0010 F120.00
G01 X24.5240 Y-34.0145 F120.00
G01 X24.5350 Y-34.0237 F120.00
G01 X24.5507 Y-34.0347 F120.00
G01 X24.5673 Y-34.0442 F120.00
G01 X24.5848 Y-34.0519 F120.00
G01 X24.6030 Y-34.0579 F120.00
G01 X24.6217 Y-34.0621 F120.00
G01 X24.6359 Y-34.0641 F120.00
G00 Z1.0000
G00 X24.4609 Y-34.6909
G01 F60.00
G01 Z-0.0500
G01 F120.00
G01 X24.4629 Y-34.6767 F120.00
G01 X24.4671 Y-34.6580 F120.00
G01 X24.4731 Y-34.6398 F120.00
G01 X24.4787 Y-34.6266 F120.00
G01 X24.4877 Y-34.6098 F120.00
G01 X24.4984 Y-34.5938 F120.00
G01 X24.5073 Y-34.5826 F120.00
G01 X24.5205 Y-34.5688 F120.00
G01 X24.5313 Y-34.5593 F120.00
G01 X24.5467 Y-34.5479 F120.00
G01 X24.5631 Y-34.5380 F120.00
G01 X24.5760 Y-34.5317 F120.00
G01 X24.5893 Y-34.5264 F120.00
G01 X24.6076 Y-34.5208 F120.00
G01 X24.6264 Y-34.5171 F120.00
G01 X24.6454 Y-34.5152 F120.00
G01 X28.1550 Y-34.5150 F120.00
G01 X28.1741 Y-34.5159 F120.00
G01 X28.1883 Y-34.5179 F120.00
G01 X28.2024 Y-34.5208 F120.00
G01 X28.2162 Y-34.5248 F120.00
G01 X28.2296 Y-34.5298 F120.00
G01 X28.2427 Y-34.5358 F120.00
G01 X28.2552 Y-34.5427 F120.00
G01 X28.2673 Y-34.5506 F120.00
G01 X28.2787 Y-34.5593 F120.00
G01 X28.2895 Y-34.5688 F120.00
G01 X28.2995 Y-34.5790 F120.00
G01 X28.3087 Y-34.5900 F120.00
G01 X28.3171 Y-34.6017 F120.00
G01 X28.3247 Y-34.6139 F120.00
G01 X28.3313 Y-34.6266 F120.00
G01 X28.3369 Y-34.6398 F120.00
G01 X28.3416 Y-34.6534 F120.00
G01 X28.3453 Y-34.6673 F120.00
G01 X28.3479 Y-34.6814 F120.00
G01 X28.3491 Y-34.6909 F120.00
G01 X28.3499 Y-34.7052 F120.00
G01 X28.3500 Y-35.1110 F120.00
G01 X28.4680 Y-35.1110 F120.00
G01 X28.4680 Y-34.6725 F120.00
G01 X28.4650 Y-34.6453 F120.00
G01 X28.4324 Y-34.5581 F120.00
G01 X28.3706 Y-34.4753 F120.00
G01 X28.3534 Y-34.4482 F120.00
G01 X28.3468 Y-34.4359 F120.00
G01 X28.3430 Y-34.4275 F120.00
G01 X28.3380 Y-34.4145 F120.00
G01 X28.3327 Y-34.3966 F120.00
G01 X28.3166 Y-34.3227 F120.00
G01 X28.3141 Y-34.3084 F120.00
G01 X28.3130 Y-34.2988 F120.00
G01 X28.3122 Y-34.2794 F120.00
G01 X28.3129 Y-34.2649 F120.00
G01 X28.3147 Y-34.2505 F120.00
G01 X28.3164 Y-34.2410 F120.00
G01 X28.3200 Y-34.2269 F120.00
G01 X28.3245 Y-34.2131 F120.00
G01 X28.3528 Y-34.1380 F120.00
G01 X28.3610 Y-34.1213 F120.00
G01 X28.3706 Y-34.1055 F120.00
G01 X28.4328 Y-34.0221 F120.00
G01 X28.4655 Y-33.9349 F120.00
G01 X28.4685 Y-33.9076 F120.00
G01 X28.4685 Y-33.0640 F120.00
G01 X28.4690 Y-33.0455 F120.00
G01 X28.4721 Y-32.9915 F120.00
G01 X28.4698 Y-32.9692 F120.00
G01 X28.4685 Y-32.9402 F120.00
G01 X28.4685 Y-32.1324 F120.00
G01 X28.4655 Y-32.1051 F120.00
G01 X28.4328 Y-32.0179 F120.00
