(G-CODE GENERATED BY FLATCAM v8.994 - www.flatcam.org - Version Date: 2020/11/7)

(Name: matrix_clock_kicad-Edge_Cuts.gbr_edit_cutout_cnc)
(Type: G-code from Geometry)
(Units: MM)

(Created on Sunday, 11 December 2022 at 06:57)

(Specially modified by mattwach to work with the Sainsmart 3080 that I have.)

(TOOL DIAMETER: 2.4 mm)
(Feedrate_XY: 120.0 mm/min)
(Feedrate_Z: 60.0 mm/min)
(Feedrate rapids 1500.0 mm/min)

(Z_Cut: -1.7 mm)
(DepthPerCut: 0.6 mm <=>3 passes)
(Z_Move: 2.0 mm)
(Z Start: None mm)
(Z End: 15.0 mm)
(X,Y End: 0.0000, 0.0000 mm)
(Steps per circle: 64)
(Preprocessor Geometry: default)

(X range:   -1.3500 ...   55.9600  mm)
(Y range:  -64.8500 ...    1.3500  mm)

(Spindle Speed: 10000.0 RPM)
G21
G90
G17
G94


G01 F120.00

M5             
G00 Z15.0000
G00 X0.0000 Y0.0000                
(MSG, Change to Tool Dia = 2.4000)
G00 Z15.0000
        
M03 S10000.0
G01 F120.00
G00 X-1.3485 Y-63.5638
G01 F60.00
G01 Z-0.6000
G01 F120.00
G01 X-1.3496 Y-63.5319 F120.00
G01 X-1.3500 Y-63.5000 F120.00
G01 X-1.3500 Y-0.0000 F120.00
G01 X-1.3496 Y0.0319 F120.00
G01 X-1.3482 Y0.0687 F120.00
G01 X-1.3435 Y0.1323 F120.00
G01 X-1.3350 Y0.2005 F120.00
G01 X-1.3241 Y0.2634 F120.00
G01 X-1.3089 Y0.3304 F120.00
G01 X-1.2919 Y0.3919 F120.00
G01 X-1.2702 Y0.4571 F120.00
G01 X-1.2473 Y0.5166 F120.00
G01 X-1.2193 Y0.5794 F120.00
G01 X-1.1906 Y0.6364 F120.00
G01 X-1.1566 Y0.6961 F120.00
G01 X-1.1225 Y0.7500 F120.00
G01 X-1.0828 Y0.8061 F120.00
G01 X-1.0436 Y0.8564 F120.00
G01 X-1.0019 Y0.9048 F120.00
G01 X-0.9546 Y0.9546 F120.00
G01 X-0.9048 Y1.0019 F120.00
G01 X-0.8564 Y1.0436 F120.00
G01 X-0.8022 Y1.0858 F120.00
G01 X-0.7500 Y1.1225 F120.00
G01 X-0.6919 Y1.1592 F120.00
G01 X-0.6364 Y1.1906 F120.00
G01 X-0.5750 Y1.2214 F120.00
G01 X-0.5166 Y1.2473 F120.00
G01 X-0.4571 Y1.2702 F120.00
G01 X-0.3919 Y1.2919 F120.00
G01 X-0.3304 Y1.3089 F120.00
G01 X-0.2634 Y1.3241 F120.00
G01 X-0.2005 Y1.3350 F120.00
G01 X-0.1323 Y1.3435 F120.00
G01 X-0.0687 Y1.3482 F120.00
G01 X-0.0319 Y1.3496 F120.00
G01 X0.0000 Y1.3500 F120.00
G01 X54.6100 Y1.3500 F120.00
G01 X54.6419 Y1.3496 F120.00
G01 X54.6738 Y1.3485 F120.00
G01 X54.7423 Y1.3435 F120.00
G01 X54.8057 Y1.3357 F120.00
G01 X54.8734 Y1.3241 F120.00
G01 X54.9356 Y1.3101 F120.00
G01 X55.0019 Y1.2919 F120.00
G01 X55.0671 Y1.2702 F120.00
G01 X55.1266 Y1.2473 F120.00
G01 X55.1894 Y1.2193 F120.00
G01 X55.2464 Y1.1906 F120.00
G01 X55.3061 Y1.1566 F120.00
G01 X55.3600 Y1.1225 F120.00
G01 X55.4161 Y1.0828 F120.00
G01 X55.4665 Y1.0436 F120.00
G01 X55.5148 Y1.0019 F120.00
G01 X55.5646 Y0.9546 F120.00
G01 X55.6086 Y0.9084 F120.00
G01 X55.6536 Y0.8565 F120.00
G01 X55.6928 Y0.8061 F120.00
G01 X55.7325 Y0.7500 F120.00
G01 X55.7692 Y0.6919 F120.00
G01 X55.8006 Y0.6364 F120.00
G01 X55.8314 Y0.5750 F120.00
G01 X55.8573 Y0.5166 F120.00
G01 X55.8802 Y0.4571 F120.00
G01 X55.9019 Y0.3919 F120.00
G01 X55.9201 Y0.3256 F120.00
G01 X55.9341 Y0.2634 F120.00
G01 X55.9450 Y0.2005 F120.00
G01 X55.9535 Y0.1323 F120.00
G01 X55.9582 Y0.0687 F120.00
G01 X55.9596 Y0.0319 F120.00
G01 X55.9600 Y-0.0000 F120.00
G01 X55.9600 Y-63.5000 F120.00
G01 X55.9596 Y-63.5319 F120.00
G01 X55.9582 Y-63.5687 F120.00
G01 X55.9535 Y-63.6323 F120.00
G01 X55.9450 Y-63.7005 F120.00
G01 X55.9341 Y-63.7634 F120.00
G01 X55.9201 Y-63.8256 F120.00
G01 X55.9019 Y-63.8919 F120.00
G01 X55.8802 Y-63.9571 F120.00
G01 X55.8573 Y-64.0166 F120.00
G01 X55.8293 Y-64.0794 F120.00
G01 X55.8006 Y-64.1364 F120.00
G01 X55.7666 Y-64.1961 F120.00
G01 X55.7325 Y-64.2500 F120.00
G01 X55.6928 Y-64.3061 F120.00
G01 X55.6536 Y-64.3564 F120.00
G01 X55.6119 Y-64.4048 F120.00
G01 X55.5646 Y-64.4546 F120.00
G01 X55.5148 Y-64.5019 F120.00
G01 X55.4664 Y-64.5436 F120.00
G01 X55.4122 Y-64.5858 F120.00
G01 X55.3600 Y-64.6225 F120.00
G01 X55.3019 Y-64.6592 F120.00
G01 X55.2464 Y-64.6906 F120.00
G01 X55.1850 Y-64.7214 F120.00
G01 X55.1266 Y-64.7473 F120.00
G01 X55.0671 Y-64.7702 F120.00
G01 X55.0019 Y-64.7919 F120.00
G01 X54.9356 Y-64.8101 F120.00
G01 X54.8734 Y-64.8241 F120.00
G01 X54.8105 Y-64.8350 F120.00
G01 X54.7423 Y-64.8435 F120.00
G01 X54.6787 Y-64.8482 F120.00
G01 X54.6419 Y-64.8496 F120.00
G01 X54.6100 Y-64.8500 F120.00
G01 X0.0000 Y-64.8500 F120.00
G01 X-0.0319 Y-64.8496 F120.00
G01 X-0.0687 Y-64.8482 F120.00
G01 X-0.1323 Y-64.8435 F120.00
G01 X-0.2005 Y-64.8350 F120.00
G01 X-0.2634 Y-64.8241 F120.00
G01 X-0.3256 Y-64.8101 F120.00
G01 X-0.3919 Y-64.7919 F120.00
G01 X-0.4525 Y-64.7719 F120.00
G01 X-0.5166 Y-64.7473 F120.00
G01 X-0.5750 Y-64.7214 F120.00
G01 X-0.6364 Y-64.6906 F120.00
G01 X-0.6919 Y-64.6592 F120.00
G01 X-0.7500 Y-64.6225 F120.00
G01 X-0.8061 Y-64.5828 F120.00
G01 X-0.8565 Y-64.5436 F120.00
G01 X-0.9084 Y-64.4986 F120.00
G01 X-0.9546 Y-64.4546 F120.00
G01 X-0.9986 Y-64.4084 F120.00
G01 X-1.0436 Y-64.3565 F120.00
G01 X-1.0828 Y-64.3061 F120.00
G01 X-1.1225 Y-64.2500 F120.00
G01 X-1.1592 Y-64.1919 F120.00
G01 X-1.1906 Y-64.1364 F120.00
G01 X-1.2214 Y-64.0750 F120.00
G01 X-1.2473 Y-64.0166 F120.00
G01 X-1.2702 Y-63.9571 F120.00
G01 X-1.2919 Y-63.8919 F120.00
G01 X-1.3101 Y-63.8256 F120.00
G01 X-1.3241 Y-63.7634 F120.00
G01 X-1.3357 Y-63.6957 F120.00
G01 X-1.3435 Y-63.6323 F120.00
G01 X-1.3485 Y-63.5638 F120.00
G00 X-1.3485 Y-63.5638
G01 F60.00
G01 Z-1.2000
G01 F120.00
G01 X-1.3435 Y-63.6323 F120.00
G01 X-1.3357 Y-63.6957 F120.00
G01 X-1.3241 Y-63.7634 F120.00
G01 X-1.3101 Y-63.8256 F120.00
G01 X-1.2919 Y-63.8919 F120.00
G01 X-1.2702 Y-63.9571 F120.00
G01 X-1.2473 Y-64.0166 F120.00
G01 X-1.2214 Y-64.0750 F120.00
G01 X-1.1906 Y-64.1364 F120.00
G01 X-1.1592 Y-64.1919 F120.00
G01 X-1.1225 Y-64.2500 F120.00
G01 X-1.0828 Y-64.3061 F120.00
G01 X-1.0436 Y-64.3565 F120.00
G01 X-0.9986 Y-64.4084 F120.00
G01 X-0.9546 Y-64.4546 F120.00
G01 X-0.9084 Y-64.4986 F120.00
G01 X-0.8565 Y-64.5436 F120.00
G01 X-0.8061 Y-64.5828 F120.00
G01 X-0.7500 Y-64.6225 F120.00
G01 X-0.6919 Y-64.6592 F120.00
G01 X-0.6364 Y-64.6906 F120.00
G01 X-0.5750 Y-64.7214 F120.00
G01 X-0.5166 Y-64.7473 F120.00
G01 X-0.4525 Y-64.7719 F120.00
G01 X-0.3919 Y-64.7919 F120.00
G01 X-0.3256 Y-64.8101 F120.00
G01 X-0.2634 Y-64.8241 F120.00
G01 X-0.2005 Y-64.8350 F120.00
G01 X-0.1323 Y-64.8435 F120.00
G01 X-0.0687 Y-64.8482 F120.00
G01 X-0.0319 Y-64.8496 F120.00
G01 X0.0000 Y-64.8500 F120.00
G01 X54.6100 Y-64.8500 F120.00
G01 X54.6419 Y-64.8496 F120.00
G01 X54.6787 Y-64.8482 F120.00
G01 X54.7423 Y-64.8435 F120.00
G01 X54.8105 Y-64.8350 F120.00
G01 X54.8734 Y-64.8241 F120.00
G01 X54.9356 Y-64.8101 F120.00
G01 X55.0019 Y-64.7919 F120.00
G01 X55.0671 Y-64.7702 F120.00
G01 X55.1266 Y-64.7473 F120.00
G01 X55.1850 Y-64.7214 F120.00
G01 X55.2464 Y-64.6906 F120.00
G01 X55.3019 Y-64.6592 F120.00
G01 X55.3600 Y-64.6225 F120.00
G01 X55.4122 Y-64.5858 F120.00
G01 X55.4664 Y-64.5436 F120.00
G01 X55.5148 Y-64.5019 F120.00
G01 X55.5646 Y-64.4546 F120.00
G01 X55.6119 Y-64.4048 F120.00
G01 X55.6536 Y-64.3564 F120.00
G01 X55.6928 Y-64.3061 F120.00
G01 X55.7325 Y-64.2500 F120.00
G01 X55.7666 Y-64.1961 F120.00
G01 X55.8006 Y-64.1364 F120.00
G01 X55.8293 Y-64.0794 F120.00
G01 X55.8573 Y-64.0166 F120.00
G01 X55.8802 Y-63.9571 F120.00
G01 X55.9019 Y-63.8919 F120.00
G01 X55.9201 Y-63.8256 F120.00
G01 X55.9341 Y-63.7634 F120.00
G01 X55.9450 Y-63.7005 F120.00
G01 X55.9535 Y-63.6323 F120.00
G01 X55.9582 Y-63.5687 F120.00
G01 X55.9596 Y-63.5319 F120.00
G01 X55.9600 Y-63.5000 F120.00
G01 X55.9600 Y-0.0000 F120.00
G01 X55.9596 Y0.0319 F120.00
G01 X55.9582 Y0.0687 F120.00
G01 X55.9535 Y0.1323 F120.00
G01 X55.9450 Y0.2005 F120.00
G01 X55.9341 Y0.2634 F120.00
G01 X55.9201 Y0.3256 F120.00
G01 X55.9019 Y0.3919 F120.00
G01 X55.8802 Y0.4571 F120.00
G01 X55.8573 Y0.5166 F120.00
G01 X55.8314 Y0.5750 F120.00
G01 X55.8006 Y0.6364 F120.00
G01 X55.7692 Y0.6919 F120.00
G01 X55.7325 Y0.7500 F120.00
G01 X55.6928 Y0.8061 F120.00
G01 X55.6536 Y0.8565 F120.00
G01 X55.6086 Y0.9084 F120.00
G01 X55.5646 Y0.9546 F120.00
G01 X55.5148 Y1.0019 F120.00
G01 X55.4665 Y1.0436 F120.00
G01 X55.4161 Y1.0828 F120.00
G01 X55.3600 Y1.1225 F120.00
G01 X55.3061 Y1.1566 F120.00
G01 X55.2464 Y1.1906 F120.00
G01 X55.1894 Y1.2193 F120.00
G01 X55.1266 Y1.2473 F120.00
G01 X55.0671 Y1.2702 F120.00
G01 X55.0019 Y1.2919 F120.00
G01 X54.9356 Y1.3101 F120.00
G01 X54.8734 Y1.3241 F120.00
G01 X54.8057 Y1.3357 F120.00
G01 X54.7423 Y1.3435 F120.00
G01 X54.6738 Y1.3485 F120.00
G01 X54.6419 Y1.3496 F120.00
G01 X54.6100 Y1.3500 F120.00
G01 X0.0000 Y1.3500 F120.00
G01 X-0.0319 Y1.3496 F120.00
G01 X-0.0687 Y1.3482 F120.00
G01 X-0.1323 Y1.3435 F120.00
G01 X-0.2005 Y1.3350 F120.00
G01 X-0.2634 Y1.3241 F120.00
G01 X-0.3304 Y1.3089 F120.00
G01 X-0.3919 Y1.2919 F120.00
G01 X-0.4571 Y1.2702 F120.00
G01 X-0.5166 Y1.2473 F120.00
G01 X-0.5750 Y1.2214 F120.00
G01 X-0.6364 Y1.1906 F120.00
G01 X-0.6919 Y1.1592 F120.00
G01 X-0.7500 Y1.1225 F120.00
G01 X-0.8022 Y1.0858 F120.00
G01 X-0.8564 Y1.0436 F120.00
G01 X-0.9048 Y1.0019 F120.00
G01 X-0.9546 Y0.9546 F120.00
G01 X-1.0019 Y0.9048 F120.00
G01 X-1.0436 Y0.8564 F120.00
G01 X-1.0828 Y0.8061 F120.00
G01 X-1.1225 Y0.7500 F120.00
G01 X-1.1566 Y0.6961 F120.00
G01 X-1.1906 Y0.6364 F120.00
G01 X-1.2193 Y0.5794 F120.00
G01 X-1.2473 Y0.5166 F120.00
G01 X-1.2702 Y0.4571 F120.00
G01 X-1.2919 Y0.3919 F120.00
G01 X-1.3089 Y0.3304 F120.00
G01 X-1.3241 Y0.2634 F120.00
G01 X-1.3350 Y0.2005 F120.00
G01 X-1.3435 Y0.1323 F120.00
G01 X-1.3482 Y0.0687 F120.00
G01 X-1.3496 Y0.0319 F120.00
G01 X-1.3500 Y-0.0000 F120.00
G01 X-1.3500 Y-63.5000 F120.00
G01 X-1.3496 Y-63.5319 F120.00
G01 X-1.3485 Y-63.5638 F120.00
G00 X-1.3485 Y-63.5638
G01 F60.00
G01 Z-1.7000
G01 F120.00
G01 X-1.3496 Y-63.5319 F120.00
G01 X-1.3500 Y-63.5000 F120.00
G01 X-1.3500 Y-0.0000 F120.00
G01 X-1.3496 Y0.0319 F120.00
G01 X-1.3482 Y0.0687 F120.00
G01 X-1.3435 Y0.1323 F120.00
G01 X-1.3350 Y0.2005 F120.00
G01 X-1.3241 Y0.2634 F120.00
G01 X-1.3089 Y0.3304 F120.00
G01 X-1.2919 Y0.3919 F120.00
G01 X-1.2702 Y0.4571 F120.00
G01 X-1.2473 Y0.5166 F120.00
G01 X-1.2193 Y0.5794 F120.00
G01 X-1.1906 Y0.6364 F120.00
G01 X-1.1566 Y0.6961 F120.00
G01 X-1.1225 Y0.7500 F120.00
G01 X-1.0828 Y0.8061 F120.00
G01 X-1.0436 Y0.8564 F120.00
G01 X-1.0019 Y0.9048 F120.00
G01 X-0.9546 Y0.9546 F120.00
G01 X-0.9048 Y1.0019 F120.00
G01 X-0.8564 Y1.0436 F120.00
G01 X-0.8022 Y1.0858 F120.00
G01 X-0.7500 Y1.1225 F120.00
G01 X-0.6919 Y1.1592 F120.00
G01 X-0.6364 Y1.1906 F120.00
G01 X-0.5750 Y1.2214 F120.00
G01 X-0.5166 Y1.2473 F120.00
G01 X-0.4571 Y1.2702 F120.00
G01 X-0.3919 Y1.2919 F120.00
G01 X-0.3304 Y1.3089 F120.00
G01 X-0.2634 Y1.3241 F120.00
G01 X-0.2005 Y1.3350 F120.00
G01 X-0.1323 Y1.3435 F120.00
G01 X-0.0687 Y1.3482 F120.00
G01 X-0.0319 Y1.3496 F120.00
G01 X0.0000 Y1.3500 F120.00
G01 X54.6100 Y1.3500 F120.00
G01 X54.6419 Y1.3496 F120.00
G01 X54.6738 Y1.3485 F120.00
G01 X54.7423 Y1.3435 F120.00
G01 X54.8057 Y1.3357 F120.00
G01 X54.8734 Y1.3241 F120.00
G01 X54.9356 Y1.3101 F120.00
G01 X55.0019 Y1.2919 F120.00
G01 X55.0671 Y1.2702 F120.00
G01 X55.1266 Y1.2473 F120.00
G01 X55.1894 Y1.2193 F120.00
G01 X55.2464 Y1.1906 F120.00
G01 X55.3061 Y1.1566 F120.00
G01 X55.3600 Y1.1225 F120.00
G01 X55.4161 Y1.0828 F120.00
G01 X55.4665 Y1.0436 F120.00
G01 X55.5148 Y1.0019 F120.00
G01 X55.5646 Y0.9546 F120.00
G01 X55.6086 Y0.9084 F120.00
G01 X55.6536 Y0.8565 F120.00
G01 X55.6928 Y0.8061 F120.00
G01 X55.7325 Y0.7500 F120.00
G01 X55.7692 Y0.6919 F120.00
G01 X55.8006 Y0.6364 F120.00
G01 X55.8314 Y0.5750 F120.00
G01 X55.8573 Y0.5166 F120.00
G01 X55.8802 Y0.4571 F120.00
G01 X55.9019 Y0.3919 F120.00
G01 X55.9201 Y0.3256 F120.00
G01 X55.9341 Y0.2634 F120.00
G01 X55.9450 Y0.2005 F120.00
G01 X55.9535 Y0.1323 F120.00
G01 X55.9582 Y0.0687 F120.00
G01 X55.9596 Y0.0319 F120.00
G01 X55.9600 Y-0.0000 F120.00
G01 X55.9600 Y-63.5000 F120.00
G01 X55.9596 Y-63.5319 F120.00
G01 X55.9582 Y-63.5687 F120.00
G01 X55.9535 Y-63.6323 F120.00
G01 X55.9450 Y-63.7005 F120.00
G01 X55.9341 Y-63.7634 F120.00
G01 X55.9201 Y-63.8256 F120.00
G01 X55.9019 Y-63.8919 F120.00
G01 X55.8802 Y-63.9571 F120.00
G01 X55.8573 Y-64.0166 F120.00
G01 X55.8293 Y-64.0794 F120.00
G01 X55.8006 Y-64.1364 F120.00
G01 X55.7666 Y-64.1961 F120.00
G01 X55.7325 Y-64.2500 F120.00
G01 X55.6928 Y-64.3061 F120.00
G01 X55.6536 Y-64.3564 F120.00
G01 X55.6119 Y-64.4048 F120.00
G01 X55.5646 Y-64.4546 F120.00
G01 X55.5148 Y-64.5019 F120.00
G01 X55.4664 Y-64.5436 F120.00
G01 X55.4122 Y-64.5858 F120.00
G01 X55.3600 Y-64.6225 F120.00
G01 X55.3019 Y-64.6592 F120.00
G01 X55.2464 Y-64.6906 F120.00
G01 X55.1850 Y-64.7214 F120.00
G01 X55.1266 Y-64.7473 F120.00
G01 X55.0671 Y-64.7702 F120.00
G01 X55.0019 Y-64.7919 F120.00
G01 X54.9356 Y-64.8101 F120.00
G01 X54.8734 Y-64.8241 F120.00
G01 X54.8105 Y-64.8350 F120.00
G01 X54.7423 Y-64.8435 F120.00
G01 X54.6787 Y-64.8482 F120.00
G01 X54.6419 Y-64.8496 F120.00
G01 X54.6100 Y-64.8500 F120.00
G01 X0.0000 Y-64.8500 F120.00
G01 X-0.0319 Y-64.8496 F120.00
G01 X-0.0687 Y-64.8482 F120.00
G01 X-0.1323 Y-64.8435 F120.00
G01 X-0.2005 Y-64.8350 F120.00
G01 X-0.2634 Y-64.8241 F120.00
G01 X-0.3256 Y-64.8101 F120.00
G01 X-0.3919 Y-64.7919 F120.00
G01 X-0.4525 Y-64.7719 F120.00
G01 X-0.5166 Y-64.7473 F120.00
G01 X-0.5750 Y-64.7214 F120.00
G01 X-0.6364 Y-64.6906 F120.00
G01 X-0.6919 Y-64.6592 F120.00
G01 X-0.7500 Y-64.6225 F120.00
G01 X-0.8061 Y-64.5828 F120.00
G01 X-0.8565 Y-64.5436 F120.00
G01 X-0.9084 Y-64.4986 F120.00
G01 X-0.9546 Y-64.4546 F120.00
G01 X-0.9986 Y-64.4084 F120.00
G01 X-1.0436 Y-64.3565 F120.00
G01 X-1.0828 Y-64.3061 F120.00
G01 X-1.1225 Y-64.2500 F120.00
G01 X-1.1592 Y-64.1919 F120.00
G01 X-1.1906 Y-64.1364 F120.00
G01 X-1.2214 Y-64.0750 F120.00
G01 X-1.2473 Y-64.0166 F120.00
G01 X-1.2702 Y-63.9571 F120.00
G01 X-1.2919 Y-63.8919 F120.00
G01 X-1.3101 Y-63.8256 F120.00
G01 X-1.3241 Y-63.7634 F120.00
G01 X-1.3357 Y-63.6957 F120.00
G01 X-1.3435 Y-63.6323 F120.00
G01 X-1.3485 Y-63.5638 F120.00
G00 Z2.0000
M05
G00 Z2.0000
G00 Z15.00
G00 X0.0 Y0.0


