(G-CODE GENERATED BY FLATCAM v8.994 - www.flatcam.org - Version Date: 2020/11/7)

(Name: matrix_clock_kicad-PTH.drl_edit_4_cnc)
(Type: G-code from Geometry)
(Units: MM)

(Created on Sunday, 11 December 2022 at 07:03)

(Specially modified by mattwach to work with the Sainsmart 3080 that I have.)


(TOOLS DIAMETER: )
(Tool: 1 -> Dia: 0.9)

(FEEDRATE Z: )
(Tool: 1 -> Feedrate: 300)

(FEEDRATE RAPIDS: )
(Tool: 1 -> Feedrate Rapids: 1500)

(Z_CUT: )
(Tool: 1 -> Z_Cut: -1.7)

(Tools Offset: )
(Tool: 1 -> Offset Z: 0.0)

(Z_MOVE: )
(Tool: 1 -> Z_Move: 2)

(Z Toolchange: 15 mm)
(X,Y Toolchange: 0.0000, 0.0000 mm)
(Z Start: None mm)
(Z End: 0.5 mm)
(X,Y End: 0.0000, 0.0000 mm)
(Steps per circle: 64)
(Preprocessor Excellon: default)

(X range:    3.9900 ...   46.1650  mm)
(Y range:  -61.3700 ...   -4.6300  mm)

(Spindle Speed: 10000 RPM)
G21
G90
G17
G94


G01 F300.00

M5             
G00 Z15.0000
G00 X0.0000 Y0.0000                
(MSG, Change to Tool Dia = 0.9000 ||| Total drills for tool T1 = 61)
G00 Z15.0000
        
G01 F300.00
M03 S10000
G00 X30.4750 Y-58.4200
G01 Z-1.7000
G01 Z0
G00 Z2.0000
G00 X4.6400 Y-53.2600
G01 Z-1.7000
G01 Z0
G00 Z2.0000
G00 X4.6400 Y-48.2600
G01 Z-1.7000
G01 Z0
G00 Z2.0000
G00 X4.7850 Y-38.6550
G01 Z-1.7000
G01 Z0
G00 Z2.0000
G00 X4.7850 Y-33.6550
G01 Z-1.7000
G01 Z0
G00 Z2.0000
G00 X17.1400 Y-53.2600
G01 Z-1.7000
G01 Z0
G00 Z2.0000
G00 X17.1400 Y-48.2600
G01 Z-1.7000
G01 Z0
G00 Z2.0000
G00 X17.2850 Y-38.6550
G01 Z-1.7000
G01 Z0
G00 Z2.0000
G00 X17.2850 Y-33.6550
G01 Z-1.7000
G01 Z0
G00 Z2.0000
G00 X27.3000 Y-53.3400
G01 Z-1.7000
G01 Z0
G00 Z2.0000
G00 X27.3000 Y-50.8000
G01 Z-1.7000
G01 Z0
G00 Z2.0000
G00 X27.3000 Y-48.2600
G01 Z-1.7000
G01 Z0
G00 Z2.0000
G00 X27.3000 Y-45.7200
G01 Z-1.7000
G01 Z0
G00 Z2.0000
G00 X27.3000 Y-43.1800
G01 Z-1.7000
G01 Z0
G00 Z2.0000
G00 X27.3000 Y-40.6400
G01 Z-1.7000
G01 Z0
G00 Z2.0000
G00 X27.3000 Y-38.1000
G01 Z-1.7000
G01 Z0
G00 Z2.0000
G00 X27.3000 Y-35.5600
G01 Z-1.7000
G01 Z0
G00 Z2.0000
G00 X27.3000 Y-33.0200
G01 Z-1.7000
G01 Z0
G00 Z2.0000
G00 X27.3000 Y-30.4800
G01 Z-1.7000
G01 Z0
G00 Z2.0000
G00 X27.3000 Y-27.9400
G01 Z-1.7000
G01 Z0
G00 Z2.0000
G00 X27.3000 Y-25.4000
G01 Z-1.7000
G01 Z0
G00 Z2.0000
G00 X27.3000 Y-22.8600
G01 Z-1.7000
G01 Z0
G00 Z2.0000
G00 X27.3000 Y-20.3200
G01 Z-1.7000
G01 Z0
G00 Z2.0000
G00 X27.3000 Y-17.7800
G01 Z-1.7000
G01 Z0
G00 Z2.0000
G00 X27.3000 Y-15.2400
G01 Z-1.7000
G01 Z0
G00 Z2.0000
G00 X27.3000 Y-12.7000
G01 Z-1.7000
G01 Z0
G00 Z2.0000
G00 X27.3000 Y-10.1600
G01 Z-1.7000
G01 Z0
G00 Z2.0000
G00 X27.3000 Y-7.6200
G01 Z-1.7000
G01 Z0
G00 Z2.0000
G00 X27.3000 Y-5.0800
G01 Z-1.7000
G01 Z0
G00 Z2.0000
G00 X33.6500 Y-53.1100
G01 Z-1.7000
G01 Z0
G00 Z2.0000
G00 X36.1900 Y-53.1100
G01 Z-1.7000
G01 Z0
G00 Z2.0000
G00 X38.7300 Y-53.1100
G01 Z-1.7000
G01 Z0
G00 Z2.0000
G00 X45.0800 Y-53.3400
G01 Z-1.7000
G01 Z0
G00 Z2.0000
G00 X45.0800 Y-50.8000
G01 Z-1.7000
G01 Z0
G00 Z2.0000
G00 X45.0800 Y-48.2600
G01 Z-1.7000
G01 Z0
G00 Z2.0000
G00 X45.0800 Y-45.7200
G01 Z-1.7000
G01 Z0
G00 Z2.0000
G00 X45.0800 Y-43.1800
G01 Z-1.7000
G01 Z0
G00 Z2.0000
G00 X45.0800 Y-40.6400
G01 Z-1.7000
G01 Z0
G00 Z2.0000
G00 X45.0800 Y-38.1000
G01 Z-1.7000
G01 Z0
G00 Z2.0000
G00 X45.0800 Y-35.5600
G01 Z-1.7000
G01 Z0
G00 Z2.0000
G00 X45.0800 Y-33.0200
G01 Z-1.7000
G01 Z0
G00 Z2.0000
G00 X45.0800 Y-30.4800
G01 Z-1.7000
G01 Z0
G00 Z2.0000
G00 X45.0800 Y-27.9400
G01 Z-1.7000
G01 Z0
G00 Z2.0000
G00 X45.0800 Y-25.4000
G01 Z-1.7000
G01 Z0
G00 Z2.0000
G00 X45.0800 Y-22.8600
G01 Z-1.7000
G01 Z0
G00 Z2.0000
G00 X45.0800 Y-20.3200
G01 Z-1.7000
G01 Z0
G00 Z2.0000
G00 X45.0800 Y-17.7800
G01 Z-1.7000
G01 Z0
G00 Z2.0000
G00 X45.0800 Y-15.2400
G01 Z-1.7000
G01 Z0
G00 Z2.0000
G00 X45.0800 Y-12.7000
G01 Z-1.7000
G01 Z0
G00 Z2.0000
G00 X45.0800 Y-10.1600
G01 Z-1.7000
G01 Z0
G00 Z2.0000
G00 X45.0800 Y-7.6200
G01 Z-1.7000
G01 Z0
G00 Z2.0000
G00 X45.0800 Y-5.0800
G01 Z-1.7000
G01 Z0
G00 Z2.0000
G00 X4.4400 Y-19.6950
G01 Z-1.7000
G01 Z0
G00 Z2.0000
G00 X4.4400 Y-17.1550
G01 Z-1.7000
G01 Z0
G00 Z2.0000
G00 X4.4400 Y-14.6150
G01 Z-1.7000
G01 Z0
G00 Z2.0000
G00 X4.4400 Y-12.0750
G01 Z-1.7000
G01 Z0
G00 Z2.0000
G00 X38.0950 Y-59.6900
G01 Z-1.7000
G01 Z0
G00 Z2.0000
G00 X40.6350 Y-59.6900
G01 Z-1.7000
G01 Z0
G00 Z2.0000
G00 X43.1750 Y-59.6900
G01 Z-1.7000
G01 Z0
G00 Z2.0000
G00 X45.7150 Y-59.6900
G01 Z-1.7000
G01 Z0
G00 Z2.0000
G00 X30.4750 Y-60.9200
G01 Z-1.7000
G01 Z0
G00 Z2.0000
M05
G00 Z0.50
G00 X0.0 Y0.0


